<?xml version="1.0" encoding="UTF-8"?>
<map version="1.10" tiledversion="1.12.1" orientation="orthogonal" renderorder="right-down" width="41" height="31" tilewidth="32" tileheight="32" infinite="0" nextlayerid="10" nextobjectid="19">
 <tileset firstgid="936" source="../tilesets/ground/terrain-v7.tsx"/>
 <tileset firstgid="2984" source="../tilesets/interior/interior.tsx"/>
 <tileset firstgid="3056" source="../tilesets/outdoor/outdoor.tsx"/>
 <tileset firstgid="3294" source="../tilesets/town/town.tsx"/>
 <tileset firstgid="3534" source="../tilesets/shop/shop.tsx"/>
 <tileset firstgid="3574" source="../tilesets/exterior_windows/exterior_windows.tsx"/>
 <objectgroup id="8" name="portals">
  <object id="12" name="quarantine" x="624" y="192" width="64" height="5">
   <properties>
    <property name="target_map" value="town_03_harborgate_quarantine"/>
    <property name="target_position_x" type="int" value="5"/>
    <property name="target_position_y" type="int" value="9"/>
   </properties>
  </object>
  <object id="13" name="item_shop" x="1136" y="192" width="64" height="5">
   <properties>
    <property name="target_map" value="town_03_harborgate_shop"/>
    <property name="target_position_x" type="int" value="7"/>
    <property name="target_position_y" type="int" value="10"/>
   </properties>
  </object>
  <object id="14" name="inn" x="272" y="800" width="64" height="5">
   <properties>
    <property name="target_map" value="town_03_harborgate_inn"/>
    <property name="target_position_x" type="int" value="5"/>
    <property name="target_position_y" type="int" value="9"/>
   </properties>
  </object>
  <object id="15" name="harbormaster" x="1104" y="832" width="64" height="5">
   <properties>
    <property name="target_map" value="town_03_harborgate_harbormaster"/>
    <property name="target_position_x" type="int" value="10"/>
    <property name="target_position_y" type="int" value="11"/>
   </properties>
  </object>
  <object id="16" name="zone_03_marshland" x="99.5682" y="-0.55303" width="55.0909" height="10.3636">
   <properties>
    <property name="target_map" value="zone_03_marshland"/>
    <property name="target_position_x" type="int" value="21"/>
    <property name="target_position_y" type="int" value="37"/>
   </properties>
  </object>
 </objectgroup>
 <layer id="1" name="ground" width="41" height="31">
  <data encoding="csv">
1257,1257,1257,2280,2282,1257,1257,1257,1257,1257,1257,1257,1257,1257,1257,1257,1257,1257,1257,1257,1257,1257,1257,1257,1257,1257,1257,1257,1257,1257,1257,1257,1257,1257,1257,1257,1257,1257,1257,1257,1257,
1257,1257,1257,2280,2217,2250,1257,1257,1257,1257,1354,1354,1321,1321,1322,1257,1257,1257,1257,1257,1257,1257,1257,1257,1257,1257,1257,1320,1321,1321,1257,1257,1257,1257,1257,1257,1257,1257,1257,1257,1257,
1257,1257,1257,2312,2186,2282,1257,1257,1257,1257,1320,1257,1320,1354,1257,1257,1257,1257,1257,1257,1257,1257,1257,1257,1257,1257,1257,1322,1322,1354,1257,1257,1257,1257,1257,1257,1257,1257,1257,1257,1257,
1321,1354,1257,1257,2280,2217,2250,1257,1257,1257,1320,1257,1257,1257,1257,1257,1257,1257,1257,1257,1257,1257,1257,1257,1257,1257,1257,1257,1257,1257,1257,1257,1257,1257,1257,1257,1257,1257,1257,1257,1257,
1257,1257,1257,1257,2312,2186,2217,2250,1257,1257,1257,1257,1257,1257,1257,1257,1257,1257,1257,1257,1257,1257,1257,1257,1257,1257,1257,1257,1257,2248,2250,1257,1257,1257,1257,1257,1257,1257,1257,1257,1257,
1257,1257,1257,1257,1257,2312,2186,2217,2249,2249,2249,2249,2249,2249,2249,2249,2250,1257,1257,1257,1257,1257,1257,1257,1257,1257,1257,1257,2248,2218,2282,1257,1257,1257,1257,1257,1257,1257,1257,1257,1257,
1257,1257,1257,1257,1257,1257,2312,2313,2186,2281,2185,2313,2313,2313,2313,2186,2217,2249,2249,2249,2250,1257,1257,1257,1257,1257,1257,2248,2218,2281,2217,2249,2249,2249,2249,2249,2249,2250,1257,1257,1257,
1257,1257,1257,1257,1257,1257,1257,1257,2312,2186,2217,2249,2250,1257,1257,2312,2313,2313,2313,2313,2344,2249,2249,2249,2249,2249,2249,2218,2216,2216,2185,2313,2313,2313,2313,2313,2313,2314,1257,1257,1257,
1257,1257,1257,1257,1257,1257,1257,1257,1257,2312,2313,2186,2217,2250,1257,1257,1257,1257,1257,1257,2280,2185,2313,2313,2313,2313,2313,2313,2186,2216,2282,1257,1257,1257,1257,1257,1257,1257,1257,1257,1257,
1257,1320,1354,1322,1257,1257,1257,1257,1257,1257,1257,2312,2186,2282,1257,1257,1257,1321,1257,1257,2280,2282,1257,1257,1257,1257,1257,1257,2312,2186,2282,1257,1257,1257,1257,1257,1257,1257,1257,1257,1257,
1257,1321,1257,1320,1257,1257,1257,1257,1257,1257,1257,1257,2280,2217,2250,1257,1320,1320,1322,1257,2280,2282,1257,1257,1257,1322,1320,1257,1257,2280,2282,1257,1257,1257,1320,2033,2034,2034,2034,2035,1257,
1257,1257,1320,1321,1354,1257,1257,1257,1257,1257,1257,1257,2312,2186,2282,1257,1257,1354,1322,1257,2280,2282,1257,1257,1257,1354,1320,1257,1257,2280,2282,1257,1257,1257,1320,2065,2066,2066,1269,2067,1257,
1257,1257,1322,1257,1257,1257,1257,1257,1257,1257,1257,1257,1257,2280,2282,1257,1257,1257,1257,1257,2280,2282,1257,1257,1257,1354,1257,1257,1257,2280,2282,1257,1257,1257,1257,2065,2066,2066,2066,2067,1257,
1257,1257,1257,1257,1257,1257,1257,1257,1257,1257,1257,1257,1257,2280,2282,1257,1257,1257,1257,1257,2280,2282,1257,1257,1257,1257,1257,1257,1257,2280,2282,1257,1257,1257,1257,2065,1269,2066,2066,2067,1257,
1257,1257,1257,1257,1257,1257,1257,1257,1257,2248,2249,2249,2249,2218,2217,2249,2249,2249,2249,2249,2218,2217,2249,2249,2249,2249,2249,2249,2249,2218,2217,2249,2250,1257,1257,2065,1269,1269,1269,2067,1257,
1257,1257,1257,1257,1257,1257,1257,1257,1257,2312,2186,2281,2216,2216,2281,2184,2184,2216,2216,2184,2216,2281,2216,2281,2184,2184,2184,2281,2281,2281,2216,2216,2282,1257,1257,2097,2098,2098,2098,2099,1257,
1257,1257,1257,1257,1257,1257,1257,1257,1257,1257,2312,2313,2313,2313,2313,2313,2313,2313,2186,2216,2184,2185,2313,2313,2313,2313,2313,2313,2313,2313,2313,2313,2314,1257,1257,1257,1257,1257,1257,1257,1257,
1257,1257,1257,1257,1257,1257,1257,1257,1257,1257,1257,1257,1257,1257,1257,1257,1257,1257,2280,2216,2184,2282,1257,1257,1257,1257,1257,1257,1257,1257,1257,1257,1257,1257,1257,1257,1257,1257,1257,1257,1257,
1257,1257,1257,1257,1257,1257,1257,1257,1257,1257,1257,1257,1257,1257,1257,1320,1322,1257,2280,2184,2281,2282,1257,1257,1257,1257,1257,1257,1354,1321,1321,1257,1257,1257,1257,1257,1257,1257,1257,1257,1257,
1257,1257,1257,1257,1257,1257,1257,1257,1257,1257,1257,1257,1257,1257,1257,1320,1257,1257,2280,2281,2281,2282,1257,1321,1322,1257,1257,1257,1321,1320,1322,1257,1257,1257,1257,1257,1257,1257,1257,1257,1257,
1257,1257,1257,1257,1257,1257,1257,1257,1257,1257,1257,1257,1257,1257,1257,1321,1257,1257,2280,2216,2216,2282,1257,1322,1257,1321,1257,1257,1322,1257,1257,1257,1257,1257,1257,1257,1257,1257,1257,1257,1257,
1257,1257,1257,1257,1257,1257,1257,1257,1257,1257,1257,1257,1257,1257,1322,1354,1354,1257,2280,2216,2184,2282,1257,1257,1354,1320,1257,1321,1320,1257,1257,1257,1257,1257,1257,1257,1257,1257,1257,1257,1257,
1257,1322,1257,1257,1257,1257,1257,1257,1257,1257,1257,1257,1257,1257,1354,1321,1322,1257,2280,2281,2281,2282,1257,1257,1257,1257,1354,1321,1354,1354,1257,1257,1257,1257,1257,1257,1257,1257,1257,1257,1257,
1257,1322,1321,1320,1257,1257,1257,1257,1257,1257,1257,1257,1257,1257,1257,1257,1257,1257,2280,2216,2281,2282,1257,1354,1320,1320,1320,1320,1354,1257,1257,1257,1257,1257,1257,1257,1257,1257,1257,1257,1257,
1257,1354,1321,1257,1257,1257,1257,1257,1257,1257,1257,1257,1257,1257,1257,1257,1257,1257,2280,2184,2184,2282,1257,1321,1257,1321,1320,1321,1257,1257,1257,1257,1257,1257,1257,1257,1257,1257,1257,1257,1257,
1257,1321,1322,1257,1257,1257,1257,1257,2248,2249,2249,2249,2249,2249,2249,2249,2249,2249,2218,2216,2281,2282,1257,1322,1320,1321,1320,1257,1257,1257,1257,1257,1257,1257,1257,1257,1257,1257,1257,1257,1257,
1257,1322,1257,1257,1257,1257,1257,1257,2312,2313,2313,2313,2313,2313,2313,2313,2313,2313,2186,2281,2281,2282,1257,1257,1257,1257,1257,1257,2248,2249,2249,2249,2249,2249,2249,2250,1257,1257,1257,1257,1257,
1257,1354,1257,1322,1322,1321,1322,1257,1257,1257,1257,1257,1257,1257,1257,1257,1257,1257,2280,2184,2184,2217,2249,2249,2249,2249,2249,2249,2218,2185,2313,2313,2313,2313,2313,2314,1257,1257,1257,1257,1257,
1257,1320,1320,1354,1322,1320,1322,1257,1322,1320,1354,1354,1257,1354,1257,1257,1257,1257,2280,2281,2281,2185,2313,2313,2313,2313,2313,2313,2313,2314,1321,1320,1322,1322,1320,1320,1257,1320,1257,1320,1257,
1257,1257,1257,1257,1257,1257,1257,1354,1354,1354,1354,1257,1322,1354,1257,1257,1257,1257,2280,2184,2281,2282,1257,1257,1257,1257,1257,1257,1257,1257,1320,1322,1320,1321,1321,1354,1257,1322,1257,1321,1322,
1257,1257,1257,1257,1257,1257,1257,1257,1257,1257,1257,1257,1257,1257,1257,1257,1257,1257,2280,2216,2281,2282,1257,1257,1257,1257,1257,1257,1257,1257,1257,1257,1257,1257,1257,1257,1257,1257,1257,1257,1257
</data>
 </layer>
 <layer id="4" name="collision" width="41" height="31">
  <data encoding="csv">
3141,3141,3141,0,0,3311,3141,3141,3073,3074,3073,3074,3073,3074,3073,3074,0,3482,3482,3482,3482,3482,3482,3482,3073,3074,3073,3074,3073,3074,3073,3074,0,3487,3487,3487,3487,3487,3487,3487,0,
3141,3073,3074,0,0,0,0,0,3090,3091,3090,3091,3090,3091,3090,3091,0,3497,3497,3497,3497,3497,3497,3497,3090,3091,3090,3091,3090,3091,3090,3091,0,3502,3502,3502,3502,3502,3502,3502,0,
0,3090,3091,0,0,0,0,0,0,0,0,0,0,0,0,3073,3074,3512,3512,3512,3512,3512,3512,3512,0,0,0,0,0,0,0,3073,3074,3517,3517,3517,3517,3517,3517,3517,0,
3073,3074,0,3141,0,0,0,0,3141,0,0,0,0,0,0,3090,3091,3527,3527,3527,3527,3527,3527,3527,0,0,0,0,0,0,0,3090,3091,3532,3532,3532,3532,3532,3532,3532,0,
3090,3091,0,0,0,0,0,0,3141,0,0,0,0,0,0,0,0,3392,3393,3394,3398,3392,3393,3394,0,0,0,0,0,0,0,0,0,3392,3393,3394,3398,3392,3393,3394,0,
0,3073,3074,0,0,0,0,0,0,0,0,0,0,0,0,0,0,3407,3408,3409,3413,3407,3408,3409,0,0,0,0,0,0,0,0,0,3407,3408,3409,3413,3407,3408,3409,3201,
0,3090,3091,0,0,0,0,0,0,0,0,0,0,0,0,0,0,0,0,0,0,0,0,0,0,0,0,0,0,0,0,0,0,0,0,0,0,0,0,0,3200,
3073,3074,0,0,0,0,0,0,0,0,0,0,0,0,0,0,0,0,0,0,0,0,0,0,0,0,0,0,0,0,0,0,0,0,0,0,0,0,0,0,3200,
3090,3091,0,0,0,0,0,0,0,0,0,0,0,0,0,0,0,0,0,0,0,0,0,0,0,0,0,0,0,0,0,0,0,0,0,0,0,0,0,0,3200,
0,3073,3074,0,0,0,0,0,0,0,0,0,0,0,0,0,0,0,0,0,0,0,0,0,0,0,0,0,0,0,0,0,0,0,0,0,0,0,0,0,3200,
0,3090,3091,0,0,0,0,0,0,0,0,0,0,0,0,0,0,0,0,0,0,0,0,0,0,0,0,0,0,0,0,0,0,0,0,0,0,0,0,0,3200,
3200,0,0,0,0,0,0,0,0,0,0,0,0,0,0,0,0,0,0,0,0,0,0,0,0,0,0,0,0,0,0,0,0,0,0,0,0,0,0,0,3200,
3200,0,0,0,0,0,0,0,0,0,0,0,0,0,0,0,0,0,0,0,0,0,0,0,0,0,0,0,0,0,0,0,0,0,0,0,0,3152,0,0,3200,
3200,0,0,0,0,0,0,0,0,0,0,0,0,0,0,0,0,0,0,0,0,0,0,0,0,0,0,0,0,0,0,0,0,0,0,0,0,3169,0,0,3200,
3200,0,0,0,0,0,0,0,0,0,0,0,0,0,0,0,0,0,0,0,0,0,0,0,0,0,0,0,0,0,0,0,0,0,0,0,0,0,0,0,3200,
3200,0,0,0,0,0,0,0,0,0,0,0,0,0,0,0,0,0,0,0,0,0,0,0,0,0,0,0,0,0,0,0,0,0,0,0,0,0,0,0,3200,
3200,0,0,0,0,0,0,0,0,0,0,0,0,0,0,0,0,0,0,0,0,0,0,0,0,0,0,0,0,0,0,0,0,0,0,0,0,0,0,0,3200,
3200,0,0,0,0,0,0,0,0,0,0,0,0,0,0,0,0,0,0,0,0,0,0,0,0,0,0,0,0,0,0,0,0,0,0,0,0,0,0,0,3200,
3200,0,0,0,0,0,0,0,0,0,0,0,0,0,0,0,0,0,0,0,0,0,0,0,0,0,0,0,0,0,0,0,0,0,0,0,0,0,0,0,3200,
3200,0,0,0,3141,0,3483,3483,3483,3483,3483,3483,3483,3141,0,0,0,0,0,0,0,0,0,0,0,0,0,0,0,0,0,0,0,0,0,0,0,0,0,0,3200,
3200,0,0,0,3141,0,3498,3498,3498,3498,3498,3498,3498,0,0,0,0,0,0,0,0,0,0,0,0,0,0,0,0,0,0,3141,3484,3484,3484,3484,3484,3484,3484,0,3200,
3200,0,0,0,3141,0,3513,3513,3513,3513,3513,3513,3513,0,0,0,0,0,0,0,0,0,0,0,0,0,0,0,0,0,0,3141,3499,3499,3499,3499,3499,3499,3499,0,3200,
3200,0,0,0,3141,0,3528,3528,3528,3528,3528,3528,3528,0,0,0,0,0,0,0,0,0,0,0,0,0,0,0,0,0,0,3141,3514,3514,3514,3514,3514,3514,3514,0,3200,
3200,0,0,0,3141,0,3392,3393,3394,3398,3392,3393,3394,0,0,0,0,0,0,0,0,0,0,0,0,0,0,0,0,0,0,3141,3529,3529,3529,3529,3529,3529,3529,0,3200,
3200,0,0,0,3141,0,3407,3408,3409,3413,3407,3408,3409,3141,0,0,0,0,0,0,0,0,0,0,0,0,0,0,0,0,0,3141,3392,3393,3394,3398,3392,3393,3394,0,3200,
3200,0,0,0,0,0,0,0,0,0,0,0,0,0,0,0,0,0,0,0,0,0,0,0,0,0,0,0,0,0,0,3141,3407,3408,3409,3413,3407,3408,3409,0,3200,
3200,0,0,0,0,0,0,0,0,0,0,0,0,0,0,0,0,0,0,0,0,0,0,0,0,0,0,0,0,0,0,0,0,0,0,0,0,0,0,0,3200,
3200,0,0,0,0,0,0,0,0,0,0,0,0,0,0,0,0,0,0,0,0,0,0,0,0,0,0,0,0,0,0,0,0,0,0,0,0,0,0,0,3200,
3200,0,0,0,0,0,0,0,0,0,0,0,0,0,0,0,0,3313,0,0,0,0,0,0,0,0,0,0,0,0,0,0,0,0,0,0,0,0,0,0,3200,
3200,0,0,0,0,0,0,0,0,0,0,0,0,0,0,0,0,0,0,0,0,0,0,0,0,0,0,0,0,0,0,0,0,0,0,0,0,0,0,0,3200,
3219,3217,3217,3217,3217,3217,3217,3217,3217,3217,3217,3217,3217,3217,3217,3217,3217,3204,0,0,0,0,3221,3217,3217,3217,3217,3217,3217,3217,3217,3217,3217,3217,3217,3217,3217,3217,3217,3217,3220
</data>
 </layer>
 <layer id="2" name="decoration" width="41" height="31">
  <data encoding="csv">
0,0,0,0,0,0,0,0,0,0,0,0,0,0,0,0,0,0,0,0,0,0,0,0,0,0,0,0,0,0,0,0,0,0,0,0,0,0,0,0,0,
0,0,0,0,0,0,0,3187,0,0,0,0,0,0,0,0,0,0,0,0,0,0,0,0,0,0,0,0,0,0,0,0,0,0,0,0,0,0,0,0,0,
0,0,0,0,0,0,0,3187,0,0,0,0,0,0,0,0,0,0,0,0,0,0,0,0,0,0,0,0,0,0,0,0,0,0,0,0,0,0,0,0,0,
0,0,0,0,0,0,0,0,0,0,0,0,0,0,0,0,0,0,0,0,0,0,0,0,0,0,0,0,0,0,0,0,0,0,0,0,0,0,0,0,0,
0,0,0,0,0,0,0,0,0,0,0,0,0,0,0,0,0,0,3534,0,0,0,3579,0,0,0,0,0,0,0,0,0,0,0,3541,0,0,0,3579,0,0,
0,0,0,0,0,0,0,0,0,0,0,0,0,0,0,0,0,0,0,0,0,0,0,0,0,0,0,0,0,0,0,0,0,0,0,0,0,0,0,0,0,
0,0,0,0,0,0,0,0,0,0,0,0,0,0,0,0,0,0,0,0,0,0,3187,0,0,0,0,0,0,0,0,0,0,0,0,0,0,0,0,0,0,
0,0,0,0,0,0,0,0,0,0,0,0,0,0,0,0,0,0,0,0,0,0,0,0,0,0,0,0,0,0,0,0,0,0,0,0,0,0,0,0,0,
0,0,0,0,0,0,0,0,0,0,0,0,0,0,0,0,0,0,0,0,0,0,0,0,0,0,0,0,0,0,0,0,0,0,3162,3187,0,0,0,0,0,
0,0,0,0,0,0,0,0,0,0,0,0,0,0,0,0,0,0,0,3162,0,0,0,0,0,0,0,0,0,0,0,0,0,0,0,0,0,0,0,0,0,
0,0,0,0,0,0,0,0,0,0,0,0,0,0,0,0,0,0,0,0,0,0,0,0,3162,0,0,0,0,0,0,0,0,0,0,0,0,0,0,0,0,
0,0,0,0,0,0,3162,0,3162,0,0,0,0,0,0,0,0,0,0,0,0,0,0,0,0,0,0,0,0,0,0,0,0,0,0,0,0,0,0,0,0,
0,0,0,0,0,0,0,0,0,0,0,0,0,0,0,0,0,0,0,0,0,0,0,0,0,0,0,0,0,0,0,0,0,0,0,0,0,0,0,0,0,
0,0,0,0,0,0,0,0,0,0,0,0,0,0,0,0,0,0,0,0,0,0,0,0,0,0,0,0,0,0,0,0,0,0,0,0,0,0,0,0,0,
0,0,0,0,0,0,0,0,0,0,0,0,0,0,0,0,0,0,0,0,0,0,0,0,0,0,0,0,0,0,0,0,0,0,0,0,0,0,0,0,0,
0,0,0,0,0,0,0,0,0,0,0,0,0,0,0,0,0,0,0,0,0,0,0,0,0,0,0,0,0,0,0,0,0,0,0,0,0,0,0,0,0,
0,0,0,0,0,0,0,0,0,0,0,0,0,0,0,0,0,0,0,0,0,0,0,0,0,0,0,0,0,0,0,0,0,0,0,0,0,0,0,0,0,
0,0,0,0,0,0,0,0,0,0,0,0,0,0,0,0,0,0,0,0,0,0,0,0,0,0,0,0,0,0,0,0,0,0,0,0,0,0,0,0,0,
0,0,0,0,0,0,0,0,0,0,0,0,0,0,0,0,0,0,0,0,0,0,0,0,0,0,0,0,0,0,0,0,0,0,3187,0,0,0,0,0,0,
0,0,0,0,0,0,0,0,0,0,0,0,0,0,0,0,0,0,0,0,0,0,0,0,0,0,0,0,0,0,0,0,0,0,0,0,0,0,0,0,0,
0,0,0,0,0,3187,0,0,0,0,0,0,0,0,0,0,0,0,0,0,0,0,0,0,0,0,0,0,0,0,0,0,0,0,0,0,0,0,0,0,0,
0,0,0,0,0,3187,0,0,0,0,0,0,0,3187,0,0,0,0,0,0,0,0,0,0,0,0,0,0,0,0,0,0,0,0,0,0,0,0,0,0,0,
0,0,0,0,0,0,0,0,0,0,0,0,0,3165,0,0,0,0,0,0,0,0,0,0,0,0,0,0,0,0,0,0,0,0,0,0,0,0,0,0,0,
0,0,0,0,0,3187,0,3542,0,0,0,3579,0,3187,0,0,0,0,0,0,0,0,0,0,0,0,0,0,0,0,0,0,0,0,0,0,0,0,0,0,0,
0,0,0,0,0,3165,0,0,0,0,0,0,0,0,0,0,0,0,0,0,0,0,0,0,0,0,0,0,0,0,0,0,0,3540,0,0,0,3579,0,0,0,
0,0,0,0,0,0,3187,3165,0,0,0,0,0,0,0,0,0,0,0,0,0,0,0,0,0,0,0,0,0,0,0,0,0,0,0,0,0,0,0,0,0,
0,0,0,0,0,0,0,0,0,0,0,0,0,0,0,0,0,0,0,0,0,0,0,0,0,0,0,0,0,0,0,0,0,0,0,0,0,0,0,0,0,
0,0,0,0,0,0,0,0,0,0,0,0,0,0,0,0,0,0,0,0,0,0,0,0,0,0,0,0,0,0,0,0,0,0,0,0,0,3187,0,0,0,
0,0,0,0,0,0,0,0,0,0,0,0,0,0,0,0,3187,0,0,0,0,0,0,0,0,0,0,0,0,0,0,0,0,0,0,3165,0,0,0,0,0,
0,0,0,0,0,0,0,0,0,0,0,0,0,0,0,3165,0,3187,0,0,0,0,0,0,0,0,0,0,0,0,0,0,0,0,0,0,0,0,0,0,0,
0,0,0,0,0,0,0,0,0,0,0,0,0,0,0,0,0,0,0,0,0,0,0,0,0,0,0,0,0,0,0,0,0,0,0,0,0,0,0,0,0
</data>
 </layer>
</map>
