<?xml version="1.0" encoding="UTF-8"?>
<map version="1.10" tiledversion="1.12.1" orientation="orthogonal" renderorder="right-down" width="61" height="31" tilewidth="32" tileheight="32" infinite="0" nextlayerid="11" nextobjectid="19">
 <tileset firstgid="936" source="../tilesets/ground/terrain-v7.tsx"/>
 <tileset firstgid="3044" source="../tilesets/interior/interior.tsx"/>
 <tileset firstgid="3116" source="../tilesets/outdoor/outdoor.tsx"/>
 <tileset firstgid="3354" source="../tilesets/town/town.tsx"/>
 <tileset firstgid="3594" source="../tilesets/shop/shop.tsx"/>
 <tileset firstgid="3634" source="../tilesets/exterior_windows/exterior_windows.tsx"/>
 <tileset firstgid="3642" source="../tilesets/exterior_walls/exterior_walls.tsx"/>
 <objectgroup id="8" name="portals">
  <object id="11" name="to_x2" x="118" y="0.25" width="22.125" height="2"/>
  <object id="12" name="monastery_vaults" x="624" y="192" width="64" height="5">
   <properties>
    <property name="target_map" value="town_03_ruinwatch_monastery_vaults"/>
    <property name="target_position_x" type="int" value="5"/>
    <property name="target_position_y" type="int" value="9"/>
   </properties>
  </object>
  <object id="13" name="item_shop" x="1136" y="192" width="64" height="5">
   <properties>
    <property name="target_map" value="town_03_ruinwatch_shop"/>
    <property name="target_position_x" type="int" value="7"/>
    <property name="target_position_y" type="int" value="10"/>
   </properties>
  </object>
  <object id="14" name="inn" x="272" y="800" width="64" height="5">
   <properties>
    <property name="target_map" value="town_03_ruinwatch_inn"/>
    <property name="target_position_x" type="int" value="5"/>
    <property name="target_position_y" type="int" value="9"/>
   </properties>
  </object>
  <object id="15" name="magic_shop" x="1135.75" y="820"/>
  <object id="16" name="zone_04_ancient_ruins_01_gate" x="591.25" y="987.25" width="100.5" height="6">
   <properties>
    <property name="target_map" value="zone_04_ancient_ruins_01_gate"/>
    <property name="target_position_x" type="int" value="28"/>
    <property name="target_position_y" type="int" value="1"/>
   </properties>
  </object>
 </objectgroup>
 <layer id="1" name="ground" width="61" height="31">
  <data encoding="csv">
1793,1793,1793,2281,2281,1793,1793,1793,1793,1793,1793,1793,1793,1793,1793,1793,1793,1793,1793,1793,1793,1793,1793,1793,1793,1793,1793,1793,1793,1793,1793,1793,1793,1793,1793,1793,1793,1793,1793,1793,1793,1793,1793,1793,1793,1793,1793,1793,1793,1793,1793,1793,1793,1793,1793,1793,1793,1793,1793,1793,1793,
1793,1793,1793,2281,2281,2281,1793,1793,1793,1793,1793,1793,1793,1793,1794,1793,1793,1793,1793,1793,1793,1793,1793,1793,1793,1793,1793,1792,1793,1793,1793,1793,1793,1793,1793,1793,1793,1793,1793,1793,1793,1793,1793,1793,1793,1793,1793,1793,1793,1793,1793,1793,1793,1793,1793,1793,1793,1793,1793,1793,1793,
1793,1793,1793,2281,2281,2281,1793,1793,1793,1793,1792,1793,1792,1793,1793,1793,1793,1793,1793,1793,1793,1793,1793,1793,1793,1793,1793,1794,1794,1793,1793,1793,1793,1793,1793,1793,1793,1793,1793,1793,1793,1793,1793,1793,1793,1793,1793,1793,1793,1793,1793,1793,1793,1793,1793,1793,1793,1793,1793,1793,1793,
1793,1793,1793,1793,2281,2281,2281,1793,1793,1793,1792,1793,1793,1793,1793,1793,1793,1793,1793,1793,1793,1793,1793,1793,1793,1793,1793,1793,1793,1793,1793,1793,1793,1793,1793,1793,1793,1793,1793,1793,1793,1793,1793,1793,1793,1793,1793,1793,1793,1793,1793,1793,1793,1793,1793,1793,1793,1793,1793,1793,1793,
1793,1793,1793,1793,2281,2281,2281,2281,1793,1793,1793,1793,1793,1793,1793,1793,1793,1793,1793,1793,1793,1793,1793,1793,1793,1793,1793,1793,1793,2281,2281,1793,1793,1793,1793,1793,1793,1793,1793,1793,1793,1793,1793,1793,1793,1793,1793,1793,1793,1793,1793,1793,1793,1793,1793,1793,1793,1793,1793,1793,1793,
1793,1793,1793,1793,1793,2281,2281,2281,2281,2281,2281,2281,2281,2281,2281,2281,2281,1793,1793,1793,1793,1793,1793,1793,1793,1793,1793,1793,2281,2281,2281,1793,1793,1793,1793,1793,1793,1793,1793,1793,1793,1793,1793,1793,1793,1793,1793,1793,1793,1793,1793,1793,1793,1793,1793,1793,1793,1793,1793,1793,1793,
1793,1793,1793,1793,1793,1793,2281,2281,2281,2281,2281,2281,2281,2281,2281,2281,2281,2281,2281,2281,2281,1793,1793,1793,1793,1793,1793,2281,2281,2281,2281,2281,2281,2281,2281,2281,2281,2281,2281,1793,2281,2281,2281,2281,2281,2281,2281,1793,1793,1793,1793,1793,1793,1793,1793,1793,1793,1793,1793,1793,1793,
1793,1793,1793,1793,1793,1793,1793,1793,2281,2281,2281,2281,2281,1793,1793,2281,2281,2281,2281,2281,2281,2281,2281,2281,2281,2281,2281,2281,2281,2281,2281,2281,2281,2281,2281,2281,2281,2281,2281,2281,2281,2281,2281,2281,2281,2281,2281,2281,2281,2281,2281,2281,2281,2281,2281,2281,1793,1793,1793,1793,1793,
1793,1793,1793,1793,1793,1793,1793,1793,1793,2281,2281,2281,2281,2281,1793,1793,1793,1793,1793,1793,2281,2281,2281,2281,2281,2281,2281,2281,2281,2281,2281,1793,1793,1793,1793,1793,1793,2281,2281,2281,2281,2281,1793,1793,1793,2281,2281,2281,2281,2281,2281,2281,2281,2281,2281,2281,1793,1793,1793,1793,1793,
1793,1792,1793,1794,1793,1793,1793,1793,1793,1793,1793,2281,2281,2281,1793,1793,1793,1793,1793,1793,2281,2281,1793,1793,1793,1793,1793,1793,2281,2281,2281,1793,1793,1793,1793,1793,1793,1793,1793,1793,1793,1793,1793,1793,1793,1793,1793,1793,1793,1793,1793,1793,1793,1793,1793,1793,1793,1793,1793,1793,1793,
1793,1793,1793,1792,1793,1793,1793,1793,1793,1793,1793,1793,2281,2281,2281,1793,1792,1792,1794,1793,2281,2281,1793,1793,1793,1794,1792,1793,1793,2281,2281,1793,1793,1793,1792,2066,2066,2066,2066,2066,1793,1793,1793,1793,1793,1793,1793,1793,1793,1793,1793,1793,1793,1793,1793,1793,1793,1793,1793,1793,1793,
1793,1793,1792,1793,1793,1793,1793,1793,1793,1793,1793,1793,2281,2281,2281,1793,1793,1793,1794,1793,2281,2281,1793,1793,1793,1793,1792,1793,1793,2281,2281,1793,1793,1793,1792,2066,2066,2066,1792,2066,1793,1793,1793,1793,1793,1793,1793,1793,1793,1793,1793,1793,1793,1793,1793,1793,1793,1793,1793,1793,1793,
1793,1793,1794,1793,1793,1793,1793,1793,1793,1793,1793,1793,1793,2281,2281,1793,1793,1793,1793,1793,2281,2281,1793,1793,1793,1793,1793,1793,1793,2281,2281,1793,1793,1793,1793,2066,2066,2066,2066,2066,1793,1793,1793,1793,1793,1793,1793,1793,1793,1793,1793,1793,1793,1793,1793,1793,1793,1793,1793,1793,1793,
1793,1793,1793,1793,1793,1793,1793,1793,1793,1793,1793,1793,1793,2281,2281,1793,1793,1793,1793,1793,2281,2281,1793,1793,1793,1793,1793,1793,1793,2281,2281,1793,1793,1793,1793,2066,1792,2066,2066,2066,1793,1793,1793,1793,1793,1793,1793,1793,1793,1793,1793,1793,1793,1793,1793,1793,1793,1793,1793,1793,1793,
1793,1793,1793,1793,1793,1793,1793,1793,1793,2281,2281,2281,2281,2281,2281,2281,2281,2281,2281,2281,2281,2281,2281,2281,2281,2281,2281,2281,2281,2281,2281,2281,2281,1793,1793,2066,1792,1792,1792,2066,1793,1793,1793,1793,1793,1793,1793,1793,1793,1793,1793,1793,1793,1793,1793,1793,1793,1793,1793,1793,1793,
1793,1793,1793,1793,1793,1793,1793,1793,1793,2281,2281,2281,2281,2281,2281,2281,2281,2281,2281,2281,2281,2281,2281,2281,2281,2281,2281,2281,2281,2281,2281,2281,2281,1793,1793,2066,2066,2066,2066,2066,1793,1793,1793,1793,1793,1793,1793,1793,1793,1793,1793,1793,1793,1793,1793,1793,1793,1793,1793,1793,1793,
1793,1793,1793,1793,1793,1793,1793,1793,1793,1793,2281,2281,2281,2281,2281,2281,2281,2281,2281,2281,2281,2281,2281,2281,2281,2281,2281,2281,2281,2281,2281,2281,2281,1793,1793,1793,1793,1793,1793,1793,1793,1793,2281,2281,2281,2281,1793,1793,1793,1793,1793,1793,1793,1793,1793,1793,1793,1793,1793,1793,1793,
1793,1793,1793,1793,1793,1793,1793,1793,1793,1793,1793,1793,1793,1793,1793,1793,1793,1793,2281,2281,2281,2281,1793,1793,1793,1793,1793,1793,1793,1793,1793,1793,1793,1793,1793,1793,1793,1793,1793,1793,1793,1793,2281,2281,2281,2281,1793,1793,1793,1793,1793,1793,1793,1793,1793,1793,1793,1793,1793,1793,1793,
1793,1793,1793,1793,1793,1793,1793,1793,1793,1793,1793,1793,1793,1793,1793,1792,1794,1793,2281,2281,2281,2281,1793,1793,1793,1793,1793,1793,1793,1793,1793,1793,1793,1793,1793,1793,1793,1793,1793,1793,1793,1793,2281,2281,1793,1793,1793,1793,1793,1793,1793,1793,1793,1793,1793,1793,1793,1793,1793,1793,1793,
1793,1793,1793,1793,1793,1793,1793,1793,1793,1793,1793,1793,1793,1793,1793,1792,1793,1793,2281,2281,2281,2281,1793,1793,1794,1793,1793,1793,1793,1792,1794,1793,1793,1793,1793,1793,1793,1793,1793,1793,1793,1793,2281,2281,1793,1793,1793,1793,1793,1793,1793,1793,1793,1793,1793,1793,1793,1793,1793,1793,1793,
1793,1793,1793,1793,1793,1793,1793,1793,1793,1793,1793,1793,1793,1793,1793,1793,1793,1793,2281,2281,2281,2281,1793,1794,1793,1793,1793,1793,1794,1793,1793,1793,1793,1793,1793,1793,1793,1793,1793,1793,1793,1793,2281,2281,1793,1793,1793,1793,1793,1793,1793,1793,1793,1793,1793,1793,1793,1793,1793,1793,1793,
1793,1793,1793,1793,1793,1793,1793,1793,1793,1793,1793,1793,1793,1793,1794,1793,1793,1793,2281,2281,2281,2281,1793,1793,1793,1792,1793,1793,1792,1793,1793,1793,1793,1793,1793,1793,1793,1793,1793,1793,1793,1793,2281,2281,1793,1793,1793,1793,1793,1793,1793,1793,1793,1793,1793,1793,1793,1793,1793,1793,1793,
1793,1794,1793,1793,1793,1793,1793,1793,1793,1793,1793,1793,1793,1793,1793,1793,1794,1793,2281,2281,2281,2281,1793,1793,1793,1793,1793,1793,1793,1793,1793,1793,1793,1793,1793,1793,1793,1793,1793,1793,1793,1793,2281,2281,1793,1793,1793,1793,1793,1793,1793,1793,1793,1793,1793,1793,1793,1793,1793,1793,1793,
1793,1794,1793,1792,1793,1793,1793,1793,1793,1793,1793,1793,1793,1793,1793,1793,1793,1793,2281,2281,2281,2281,1793,1793,1792,1792,1792,1792,1793,1793,1793,1793,1793,1793,1793,1793,1793,1793,1793,1793,1793,1793,2281,2281,1793,1793,1793,1793,1793,1793,1793,1793,1793,1793,1793,1793,1793,1793,1793,1793,1793,
1793,1793,1793,1793,1793,1793,1793,1793,1793,1793,1793,1793,1793,1793,1793,1793,1793,1793,2281,2281,2281,2281,1793,1793,1793,1793,1792,1793,1793,1793,1793,1793,1793,1793,1793,1793,1793,1793,1793,1793,1793,1793,2281,2281,1793,1793,1793,1793,1793,1793,1793,1793,1793,1793,1793,1793,1793,1793,1793,1793,1793,
1793,1793,1794,1793,1793,1793,1793,1793,2281,2281,2281,2281,2281,2281,2281,2281,2281,2281,2281,2281,2281,2281,1793,1794,1792,1793,1792,1793,1793,1793,1793,1793,1793,1793,1793,1793,1793,1793,1793,1793,1793,1793,2281,2281,1793,1793,1793,1793,1793,1793,1793,1793,1793,1793,1793,1793,1793,1793,1793,1793,1793,
1793,1794,1793,1793,1793,1793,1793,1793,2281,2281,2281,2281,2281,2281,2281,2281,2281,2281,2281,2281,2281,2281,1793,1793,1793,1793,1793,1793,2281,2281,2281,2281,2281,2281,2281,2281,2281,2281,1793,1793,1793,2281,2281,2281,1793,1793,1793,1793,1793,1793,1793,1793,1793,1793,1793,1793,1793,1793,1793,1793,1793,
1793,1793,1793,1794,1794,1793,1794,1793,1793,1793,1793,1793,1793,1793,1793,1793,1793,1793,2281,2281,2281,2281,2281,2281,2281,2281,2281,2281,2281,2281,2281,2281,2281,2281,2281,2281,2281,2281,2281,1793,2281,2281,2281,2281,1793,1793,1793,1793,1793,1793,1793,1793,1793,1793,1793,1793,1793,1793,1793,1793,1793,
1793,1792,1792,1793,1794,1792,1794,1793,1794,1792,1793,1793,1793,1793,1793,1793,1793,1793,2281,2281,2281,2281,2281,2281,2281,2281,2281,2281,2281,2281,1793,1792,1794,1794,1792,1792,2281,2281,2281,2281,2281,2281,2281,1793,1793,1793,1793,1793,1793,1793,1793,1793,1793,1793,1793,1793,1793,1793,1793,1793,1793,
1793,1793,1793,1793,1793,1793,1793,1793,1793,1793,1793,1793,1794,1793,1793,1793,1793,1793,2281,2281,2281,2281,1793,1793,1793,1793,1793,1793,1793,1793,1792,1794,1792,1793,1793,1793,1793,2281,2281,2281,2281,2281,1793,1793,1793,1793,1793,1793,1793,1793,1793,1793,1793,1793,1793,1793,1793,1793,1793,1793,1793,
1793,1793,1793,1793,1793,1793,1793,1793,1793,1793,1793,1793,1793,1793,1793,1793,1793,1793,2281,2281,2281,2281,1793,1793,1793,1793,1793,1793,1793,1793,1793,1793,1793,1793,1793,1793,1793,1793,1793,1793,1793,1793,1793,1793,1793,1793,1793,1793,1793,1793,1793,1793,1793,1793,1793,1793,1793,1793,1793,1793,1793
</data>
 </layer>
 <layer id="10" name="terrain" width="61" height="31">
  <data encoding="csv">
0,0,0,0,0,0,0,0,0,0,0,0,0,0,0,0,0,0,0,0,0,0,0,0,0,0,0,0,0,0,0,0,0,0,0,0,0,0,0,0,0,0,0,0,0,0,0,0,0,0,0,0,0,0,0,0,0,0,0,0,0,
0,0,0,0,0,0,0,0,0,0,0,0,0,0,0,0,0,0,0,0,0,0,0,0,0,0,0,0,0,0,0,0,0,0,0,0,0,0,0,0,0,0,0,0,0,0,0,0,0,0,0,0,0,0,0,0,0,0,0,0,0,
0,0,0,0,0,0,0,0,0,0,0,0,0,0,0,0,0,0,0,0,0,0,0,0,0,0,0,0,0,0,0,0,0,0,0,0,0,0,0,0,0,0,0,0,0,0,0,0,0,0,0,0,0,0,0,0,0,0,0,0,0,
0,0,0,0,0,0,0,0,0,0,0,0,0,0,0,0,0,0,0,0,0,0,0,0,0,0,0,0,0,0,0,0,0,0,0,0,0,0,0,0,0,0,0,0,0,0,0,0,0,0,0,0,0,0,0,0,0,0,0,0,0,
0,0,0,0,0,0,0,0,0,0,0,0,0,0,0,0,0,0,0,0,0,0,0,0,0,0,0,0,0,0,0,0,0,0,0,0,0,0,0,0,0,0,0,0,0,0,0,0,0,0,0,0,0,0,0,0,0,0,0,0,0,
0,0,0,0,0,0,0,0,0,0,0,0,0,0,0,0,0,0,0,0,0,0,0,0,0,0,0,0,0,0,0,0,0,0,0,0,0,0,0,0,0,0,0,0,0,0,0,0,0,0,0,0,0,0,0,0,0,0,0,0,0,
0,0,0,0,0,0,0,0,0,0,0,0,0,0,0,0,0,0,0,0,0,0,0,0,0,0,0,0,0,0,0,0,0,0,0,0,0,0,0,0,0,0,0,0,0,0,0,0,0,0,0,0,0,0,0,0,0,0,0,0,0,
0,0,0,0,0,0,0,0,0,0,0,0,0,0,0,0,0,0,0,0,0,0,0,0,0,0,0,0,0,0,0,0,0,0,0,0,0,0,0,0,0,0,0,0,0,0,0,0,0,0,0,0,0,0,0,0,0,0,0,0,0,
0,0,0,0,0,0,0,0,0,0,0,0,0,0,0,0,0,0,0,0,0,0,0,0,0,0,0,0,0,0,0,0,0,0,0,0,0,0,0,0,0,0,0,0,0,0,0,0,0,0,0,0,0,0,0,0,0,0,0,0,0,
0,0,0,0,0,0,0,0,0,0,0,0,0,0,0,0,0,0,0,0,0,0,0,0,0,0,0,0,0,0,0,0,0,0,0,0,0,0,0,0,0,0,0,0,0,0,0,0,0,0,0,0,0,0,0,0,0,0,0,0,0,
0,0,0,0,0,0,0,0,0,0,0,0,0,0,0,0,0,0,0,0,0,0,0,0,0,0,0,0,0,0,0,0,0,0,0,0,0,0,0,0,0,0,0,0,0,0,0,0,0,0,0,0,0,0,0,0,0,0,0,0,0,
0,0,0,0,0,0,0,0,0,0,0,0,0,0,0,0,0,0,0,0,0,0,0,0,0,0,0,0,0,0,0,0,0,0,0,0,0,0,0,0,0,0,0,0,0,0,0,0,0,0,0,0,0,0,0,0,0,0,0,0,0,
0,0,0,0,0,0,0,0,0,0,0,0,0,0,0,0,0,0,0,0,0,0,0,0,0,0,0,0,0,0,0,0,0,0,0,0,0,0,0,0,0,0,0,0,0,0,0,0,0,0,0,0,0,0,0,0,0,0,0,0,0,
0,0,0,0,0,0,0,0,0,0,0,0,0,0,0,0,0,0,0,0,0,0,0,0,0,0,0,0,0,0,0,0,0,0,0,0,0,0,0,0,0,0,0,0,0,0,0,0,0,0,0,0,0,0,0,0,0,0,0,0,0,
0,0,0,0,0,0,0,0,0,0,0,0,0,0,0,0,0,0,0,0,0,0,0,0,0,0,0,0,0,0,0,0,0,0,0,0,0,0,0,0,0,0,0,0,0,0,0,0,0,0,0,0,0,0,0,0,0,0,0,0,0,
0,0,0,0,0,0,0,0,0,0,0,0,0,0,0,0,0,0,0,0,0,0,0,0,0,0,0,0,0,0,0,0,0,0,0,0,0,0,0,0,0,0,0,0,0,0,0,0,0,0,0,0,0,0,0,0,0,0,0,0,0,
0,0,0,0,0,0,0,0,0,0,0,0,0,0,0,0,0,0,0,0,0,0,0,0,0,0,0,0,0,0,0,0,0,0,0,0,0,0,0,0,0,0,0,0,0,0,0,0,0,0,0,0,1696,1697,1697,1697,1698,0,0,0,0,
0,0,0,0,0,0,0,0,0,0,0,0,0,0,0,0,0,0,0,0,0,0,0,0,0,0,0,0,0,0,0,0,0,0,0,0,0,0,0,0,0,0,0,0,0,0,1696,1697,1697,1697,1697,1697,1666,1633,1761,1634,1665,1697,1698,0,0,
0,0,0,0,0,0,0,0,0,0,0,0,0,0,0,0,0,0,0,0,0,0,0,0,0,0,0,0,0,0,0,0,0,0,0,0,0,0,0,0,0,0,0,0,1696,1697,1666,1633,1634,1633,1761,1634,1793,1730,1696,1824,1761,1634,1730,0,0,
0,0,0,0,0,0,0,0,0,0,0,0,0,0,0,0,0,0,0,0,0,0,0,0,0,0,0,0,0,0,0,0,0,0,0,0,0,0,0,0,0,0,0,0,1728,1633,1634,1730,1728,1730,0,1760,1634,1665,1666,1730,0,1728,1730,0,0,
0,0,0,0,0,0,0,0,0,0,0,0,0,0,0,0,0,0,0,0,0,0,0,0,0,0,0,0,0,0,0,0,0,0,0,0,0,0,0,0,0,0,0,0,1728,1730,1728,1730,1728,1730,1696,1697,1666,1793,1793,1665,1697,1666,1730,0,0,
0,0,0,0,0,0,0,0,0,0,0,0,0,0,0,0,0,0,0,0,0,0,0,0,0,0,0,0,0,0,0,0,0,0,0,0,0,0,0,0,0,0,0,0,1728,1730,1760,1793,1666,1665,1666,1633,1634,1794,1633,1761,1761,1634,1730,0,0,
0,0,0,0,0,0,0,0,0,0,0,0,0,0,0,0,0,0,0,0,0,0,0,0,0,0,0,0,0,0,0,0,0,0,0,0,0,0,0,0,0,0,0,1696,1666,1665,1697,1666,1793,1633,1634,1665,1666,1792,1665,1697,1697,1666,1730,0,0,
0,0,0,0,0,0,0,0,0,0,0,0,0,0,0,0,0,0,0,0,0,0,0,0,0,0,0,0,0,0,0,0,0,0,0,0,0,0,0,0,0,0,0,1728,1793,1633,1634,1792,1793,1665,1666,1794,1793,1793,1793,1633,1761,1634,1730,0,0,
0,0,0,0,0,0,0,0,0,0,0,0,0,0,0,0,0,0,0,0,0,0,0,0,0,0,0,0,0,0,0,0,0,0,0,0,0,0,0,0,0,0,0,1760,1634,1665,1666,1793,1793,1633,1634,1793,1633,1761,1634,1665,1697,1666,1730,0,0,
0,0,0,0,0,0,0,0,0,0,0,0,0,0,0,0,0,0,0,0,0,0,0,0,0,0,0,0,0,0,0,0,0,0,0,0,0,0,0,0,0,0,0,0,1728,1633,1761,1761,1634,1730,1760,1634,1665,1697,1666,1792,1793,1633,1762,0,0,
0,0,0,0,0,0,0,0,0,0,0,0,0,0,0,0,0,0,0,0,0,0,0,0,0,0,0,0,0,0,0,0,0,0,0,0,0,0,0,0,0,0,0,0,1760,1793,1697,1697,1666,1665,1697,1666,1793,1633,1761,1761,1761,1762,0,0,0,
0,0,0,0,0,0,0,0,0,0,0,0,0,0,0,0,0,0,0,0,0,0,0,0,0,0,0,0,0,0,0,0,0,0,0,0,0,0,0,0,0,0,0,0,0,1760,1761,1761,1761,1761,1761,1761,1761,1762,0,0,0,0,0,0,0,
0,0,0,0,0,0,0,0,0,0,0,0,0,0,0,0,0,0,0,0,0,0,0,0,0,0,0,0,0,0,0,0,0,0,0,0,0,0,0,0,0,0,0,0,0,0,0,0,0,0,0,0,0,0,0,0,0,0,0,0,0,
0,0,0,0,0,0,0,0,0,0,0,0,0,0,0,0,0,0,0,0,0,0,0,0,0,0,0,0,0,0,0,0,0,0,0,0,0,0,0,0,0,0,0,0,0,0,0,0,0,0,0,0,0,0,0,0,0,0,0,0,0,
0,0,0,0,0,0,0,0,0,0,0,0,0,0,0,0,0,0,0,0,0,0,0,0,0,0,0,0,0,0,0,0,0,0,0,0,0,0,0,0,0,0,0,0,0,0,0,0,0,0,0,0,0,0,0,0,0,0,0,0,0
</data>
 </layer>
 <layer id="4" name="collision" width="61" height="31">
  <data encoding="csv">
0,0,0,3256,3256,3372,0,0,3133,3134,3133,3134,3133,3134,3133,3134,0,3542,3542,3542,3542,3542,3542,3542,3133,3134,3133,3134,3133,3134,3133,3134,0,3547,3547,3547,3547,3547,3547,3547,3133,3134,3545,3545,3545,3545,3545,3545,3545,0,0,0,0,0,0,0,0,0,0,0,0,
0,3133,3134,0,0,0,0,0,3150,3151,3150,3151,3150,3151,3150,3151,0,3557,3557,3557,3557,3557,3557,3557,3150,3151,3150,3151,3150,3151,3150,3151,0,3562,3562,3562,3562,3562,3562,3562,3167,3168,3560,3560,3560,3560,3560,3560,3560,0,3544,3544,3544,3544,3544,3544,3544,3544,3544,0,0,
0,3150,3151,0,0,0,0,0,0,0,0,0,0,0,0,3133,3134,3572,3572,3572,3572,3572,3572,3572,0,0,0,0,0,0,0,3133,3134,3577,3577,3577,3577,3577,3577,3577,3150,3151,3575,3575,3575,3575,3575,3575,3575,0,3559,3559,3559,3559,3559,3559,3559,3559,3559,0,0,
3133,3134,0,0,0,0,0,0,0,0,0,0,0,0,0,3150,3151,3587,3587,3587,3587,3587,3587,3587,0,0,0,0,0,0,0,3150,3151,3592,3592,3592,3592,3592,3592,3592,0,0,3590,3590,3590,3590,3590,3590,3590,0,3574,3574,3574,3574,3574,3574,3574,3574,3574,0,0,
3150,3151,0,0,0,0,0,0,0,0,0,0,0,0,0,0,0,3452,3453,3454,3458,3452,3453,3454,0,0,0,0,0,0,0,0,0,3452,3453,3454,3458,3452,3453,3454,0,0,3482,3483,3484,3428,3482,3483,3484,0,3589,3589,3589,3589,3589,3589,3589,3589,3589,0,0,
0,3133,3134,3224,0,0,0,0,0,0,0,0,0,0,0,0,0,3467,3468,3469,3473,3467,3468,3469,0,0,0,0,0,0,0,0,0,3467,3468,3469,3473,3467,3468,3469,0,0,3497,3498,3499,3443,3497,3498,3499,0,3362,3363,3363,3364,3488,3365,3363,3363,3364,0,3261,
0,3150,3151,0,0,0,0,0,0,0,0,0,0,0,0,0,0,0,0,0,0,0,0,0,0,0,0,0,0,0,0,0,0,0,0,0,0,0,0,0,0,0,0,0,0,0,0,0,0,0,3377,3378,3378,3379,3503,3380,3378,3378,3379,0,3260,
3133,3134,0,0,0,0,0,0,0,0,0,0,0,0,0,0,0,0,0,0,0,0,0,0,0,0,0,0,0,0,0,0,0,0,0,0,0,0,0,0,0,0,0,0,0,0,0,0,0,0,0,0,0,0,0,0,0,0,0,0,3260,
3150,3151,0,0,0,0,0,0,0,0,0,0,0,0,0,0,0,0,0,0,0,0,0,0,0,0,0,0,0,0,0,0,0,0,0,0,0,0,0,0,0,0,0,0,0,0,0,0,0,0,0,0,0,0,0,0,0,0,0,0,3260,
0,3133,3134,0,0,0,0,0,0,0,0,0,0,0,0,0,0,0,0,0,0,0,0,0,0,0,0,0,0,0,0,0,0,0,0,0,0,0,0,0,0,0,0,0,0,0,0,0,0,0,0,0,0,0,0,0,0,0,0,0,3260,
0,3150,3151,0,0,0,0,0,0,0,0,0,0,0,0,0,0,0,0,0,0,0,0,0,0,0,0,0,0,0,0,0,0,0,0,0,0,0,0,0,0,0,3547,3547,3547,3547,3547,3547,3547,3547,3547,0,0,0,0,0,0,0,0,0,3260,
3260,0,0,0,0,0,0,0,0,0,0,0,0,0,0,0,0,0,0,0,0,0,0,0,0,0,0,0,0,0,0,0,0,0,0,0,0,0,0,0,0,0,3562,3562,3562,3562,3562,3562,3562,3562,3562,0,0,0,0,0,0,0,0,0,3260,
3260,0,0,0,0,0,0,0,0,0,0,0,0,0,0,0,0,0,0,0,0,0,0,0,0,0,0,0,0,0,0,0,0,0,0,0,0,3212,0,0,0,0,3577,3577,3577,3577,3577,3577,3577,3577,3577,0,0,0,0,0,0,0,0,0,3260,
3260,0,0,0,0,0,0,0,0,0,0,0,0,0,0,0,0,0,0,0,0,0,0,0,0,0,0,0,0,0,0,0,0,0,0,0,0,3229,0,0,0,0,3592,3592,3592,3592,3592,3592,3592,3592,3592,0,0,0,0,0,0,0,0,0,3260,
3260,0,0,0,0,0,0,0,0,0,0,0,0,0,0,0,0,0,0,0,0,0,0,0,0,0,0,0,0,0,0,0,0,0,0,0,0,0,0,0,0,0,3648,3649,3649,3428,3649,3649,3649,3649,3650,0,0,0,0,0,0,0,0,0,3260,
3260,0,0,0,0,0,0,0,0,0,0,0,0,0,0,0,0,0,0,0,0,0,0,0,0,0,0,0,0,0,0,0,0,0,0,0,0,0,0,0,0,0,3651,3652,3652,3443,3652,3652,3652,3652,3653,0,0,0,0,0,0,0,0,0,3260,
3260,0,0,0,0,0,0,0,0,0,0,0,0,0,0,0,0,0,0,0,0,0,0,0,0,0,0,0,0,0,0,0,0,0,0,0,0,0,0,0,0,0,0,0,0,0,0,0,0,0,0,0,0,0,0,0,0,0,0,0,3260,
3260,0,0,0,0,0,0,0,0,0,0,0,0,0,0,0,0,0,0,0,0,0,0,0,0,0,0,0,0,0,0,0,0,0,0,0,0,0,0,0,0,0,0,0,0,0,0,0,0,0,0,0,0,0,0,0,0,0,0,0,3260,
3260,0,0,0,0,0,0,0,0,0,0,0,0,0,0,0,0,0,0,0,0,0,0,0,0,0,0,0,0,0,0,0,0,0,0,0,0,0,0,0,0,0,0,0,0,0,0,0,0,0,0,0,0,0,0,0,0,0,0,0,3260,
3260,0,0,0,0,0,3543,3543,3543,3543,3543,3543,3543,0,0,0,0,0,0,0,0,0,0,0,0,0,0,0,0,0,0,0,0,0,0,0,0,0,0,0,0,0,0,0,0,0,0,0,0,0,0,0,0,0,0,0,0,0,0,0,3260,
3260,0,0,0,0,0,3558,3558,3558,3558,3558,3558,3558,0,0,0,0,0,0,0,0,0,0,0,0,0,0,0,0,0,0,0,3544,3544,3544,3544,3544,3544,3544,3135,3136,0,0,0,0,0,0,0,0,0,0,0,0,0,0,0,0,0,0,0,3260,
3260,0,0,0,0,0,3573,3573,3573,3573,3573,3573,3573,0,0,0,0,0,0,0,0,0,0,0,0,0,0,0,0,0,0,0,3559,3559,3559,3559,3559,3559,3559,3152,3153,0,0,0,0,0,0,0,0,0,0,0,0,0,0,0,0,0,0,0,3260,
3260,3450,3451,3450,3451,0,3588,3588,3588,3588,3588,3588,3588,0,0,0,0,0,0,0,0,0,0,0,0,0,0,0,0,0,0,0,3574,3574,3574,3574,3574,3574,3574,0,0,0,0,0,0,0,0,0,0,0,0,0,0,0,0,0,0,0,0,0,3260,
3260,3465,3466,3465,3466,0,3452,3453,3454,3458,3452,3453,3454,3135,3136,0,0,0,0,0,0,0,0,0,0,0,0,0,0,0,0,0,3589,3589,3589,3589,3589,3589,3589,0,0,0,0,0,0,0,0,0,0,0,0,0,0,0,0,0,0,0,0,0,3260,
3260,0,0,0,0,0,3467,3468,3469,3473,3467,3468,3469,3152,3153,0,0,0,0,0,0,0,0,0,0,0,0,0,0,0,3135,3136,3452,3453,3454,3458,3452,3453,3454,0,0,0,0,0,0,0,0,0,0,0,0,0,0,0,0,0,0,0,0,0,3260,
3260,0,0,0,0,0,0,0,0,0,0,0,0,0,0,0,0,0,0,0,0,0,0,0,0,0,0,0,0,0,3152,3153,3467,3468,3469,3473,3467,3468,3469,0,0,0,0,0,0,0,0,0,0,0,0,0,0,0,0,0,0,0,0,0,3260,
3260,3135,3136,0,0,0,0,0,0,0,0,0,0,0,0,0,0,0,0,0,0,0,0,0,0,0,0,0,0,0,0,0,0,0,0,0,0,0,0,3135,3136,0,0,0,0,0,0,0,0,0,0,0,0,0,0,0,0,0,0,0,3260,
3260,3152,3153,3135,3136,0,0,0,0,0,0,0,0,0,0,0,0,0,0,0,0,0,0,0,0,0,0,0,0,0,0,0,0,0,0,0,0,0,0,3152,3153,0,0,0,0,0,0,0,0,0,0,0,0,0,0,0,0,0,0,0,3260,
3260,3135,3136,3152,3153,0,0,0,0,0,0,0,0,0,0,0,0,3373,0,0,0,0,0,0,0,0,0,0,0,0,0,0,0,0,0,0,0,0,0,0,0,0,0,0,0,0,0,0,0,0,0,0,0,0,0,0,0,0,0,0,3260,
3260,3152,3153,0,0,0,0,0,0,0,0,0,0,0,0,0,0,0,0,0,0,0,0,0,0,0,0,0,0,0,0,0,0,0,0,0,0,0,0,0,0,0,0,0,0,0,0,0,0,0,0,0,0,0,0,0,0,0,0,0,3260,
3279,3277,3277,3277,3277,3277,3277,3277,3277,3277,3277,3277,3277,3277,3277,3277,3277,3264,0,0,0,0,3281,3277,3277,3277,3277,3277,3277,3277,3277,3277,3277,3277,3277,3277,3277,3277,3277,3277,3277,3277,3277,3277,3277,3277,3277,3277,3277,3277,3277,3277,3277,3277,3277,3277,3277,3277,3277,3277,3280
</data>
 </layer>
 <layer id="2" name="decoration" width="61" height="31">
  <data encoding="csv">
0,0,0,0,0,0,0,0,0,0,0,0,0,0,0,0,0,0,0,0,0,0,0,0,0,0,0,0,0,0,0,0,0,0,0,0,0,0,0,0,0,0,0,0,0,0,0,0,0,0,0,0,0,0,0,0,0,0,0,0,0,
0,0,0,0,0,0,0,3247,0,0,0,0,0,0,0,0,0,0,0,0,0,0,0,0,0,0,0,0,0,0,0,0,0,0,0,0,0,0,0,0,0,0,0,0,0,0,0,0,0,0,0,0,0,0,0,0,0,0,0,0,0,
0,0,0,0,0,0,0,3247,0,0,0,0,0,0,0,0,0,0,0,0,0,0,0,0,0,0,0,0,0,0,0,0,0,0,0,0,0,0,0,0,0,0,0,0,0,0,0,0,0,0,0,0,0,0,0,0,0,0,0,0,0,
0,0,0,0,0,0,0,0,0,0,0,0,0,0,0,0,0,0,0,0,0,0,0,0,0,0,0,0,0,0,0,0,0,0,0,0,0,0,0,0,0,0,0,0,0,0,0,0,0,0,0,0,0,0,0,0,0,0,0,0,0,
0,0,0,0,0,0,0,0,0,0,0,0,0,0,0,0,0,0,3594,0,0,0,3639,0,0,0,0,0,0,0,0,0,0,0,3601,0,0,0,3639,0,0,0,0,3602,0,3457,0,3636,0,0,0,0,0,0,0,0,0,0,0,0,0,
0,0,0,0,0,0,0,0,0,0,0,0,0,0,0,0,0,0,0,0,0,0,0,0,0,0,0,0,0,0,0,0,0,0,0,0,0,0,0,0,0,0,0,0,0,0,0,3640,0,0,0,3637,0,0,3457,0,0,3637,0,0,0,
0,0,0,0,0,0,0,0,0,0,0,0,0,0,0,0,0,0,0,0,0,0,3247,0,0,0,0,0,0,0,0,0,0,0,0,0,0,0,0,0,0,0,0,0,0,0,0,0,0,0,0,3641,0,0,0,0,0,3641,0,0,0,
0,0,0,0,0,0,0,0,0,0,0,0,0,0,0,0,0,0,0,0,0,0,0,0,0,0,0,0,0,0,0,0,0,0,0,0,0,0,0,0,0,0,0,0,0,0,0,0,0,0,0,0,0,0,0,0,0,0,0,0,0,
0,0,0,0,0,0,0,0,0,0,0,0,0,0,0,0,0,0,0,0,0,0,0,0,0,0,0,0,0,0,0,0,0,0,3222,3247,0,0,0,0,0,0,0,0,0,0,0,0,0,0,0,0,0,0,0,0,0,0,0,0,0,
0,0,0,0,0,0,0,0,0,0,0,0,0,0,0,0,0,0,0,3222,0,0,0,0,0,0,0,0,0,0,0,0,0,0,0,0,0,0,0,0,0,0,0,0,0,0,0,0,0,0,0,0,0,0,0,0,0,0,0,0,0,
0,0,0,0,0,0,0,0,0,0,0,0,0,0,0,0,0,0,0,0,0,0,0,0,3222,0,0,0,0,0,0,0,0,0,0,0,0,0,0,0,0,0,0,0,0,0,0,0,0,0,0,0,0,0,0,0,0,0,0,0,0,
0,0,0,0,0,0,3222,0,3222,0,0,0,0,0,0,0,0,0,0,0,0,0,0,0,0,0,0,0,0,0,0,0,0,0,0,0,0,0,0,0,0,0,0,0,0,0,0,0,0,0,0,0,0,0,0,0,0,0,0,0,0,
0,0,0,0,0,0,0,0,0,0,0,0,0,0,0,0,0,0,0,0,0,0,0,0,0,0,0,0,0,0,0,0,0,0,0,0,0,0,0,0,0,0,0,0,0,0,0,0,0,0,0,0,0,0,0,0,0,0,0,0,0,
0,0,0,0,0,0,0,0,0,0,0,0,0,0,0,0,0,0,0,0,0,0,0,0,0,0,0,0,0,0,0,0,0,0,0,0,0,0,0,0,0,0,0,0,0,0,0,0,0,0,0,0,0,0,0,0,0,0,0,0,0,
0,0,0,0,0,0,0,0,0,0,0,0,0,0,0,0,0,0,0,0,0,0,0,0,0,0,0,0,0,0,0,0,0,0,0,0,0,0,0,0,0,0,0,3634,0,3427,0,3634,3634,0,0,0,0,0,0,0,0,0,0,0,0,
0,0,0,0,0,0,0,0,0,0,0,0,0,0,0,0,0,0,0,0,0,0,0,0,0,0,0,0,0,0,0,0,0,0,0,0,0,0,0,0,0,0,0,3638,0,0,0,3638,3638,0,0,0,0,0,0,0,0,0,0,0,0,
0,0,0,0,0,0,0,0,0,0,0,0,0,0,0,0,0,0,0,0,0,0,0,0,0,0,0,0,0,0,0,0,0,0,0,0,0,0,0,0,0,0,0,0,0,0,0,0,0,0,0,0,0,0,0,0,0,0,0,0,0,
0,0,0,0,0,0,0,0,0,0,0,0,0,0,0,0,0,0,0,0,0,0,0,0,0,0,0,0,0,0,0,0,0,0,0,0,0,0,0,0,0,0,0,0,0,0,0,0,0,0,0,0,0,0,0,0,0,0,0,0,0,
0,0,0,0,0,0,0,0,0,0,0,0,0,0,0,0,0,0,0,0,0,0,0,0,0,0,0,0,0,0,0,0,0,0,3247,0,0,0,0,0,0,0,0,0,0,0,0,0,0,0,0,0,0,0,0,0,0,0,0,0,0,
0,0,0,0,0,0,0,0,0,0,0,0,0,0,0,0,0,0,0,0,0,0,0,0,0,0,0,0,0,0,0,0,0,0,0,0,0,0,0,0,0,0,0,0,0,0,0,0,0,0,0,0,0,0,0,0,0,0,0,0,0,
0,0,0,0,0,3247,0,0,0,0,0,0,0,0,0,0,0,0,0,0,0,0,0,0,0,0,0,0,0,0,0,0,0,0,0,0,0,0,0,0,0,0,0,0,0,0,0,0,0,0,0,0,0,0,0,0,0,0,0,0,0,
0,0,0,0,0,3247,0,0,0,0,0,0,0,3247,0,0,0,0,0,0,0,0,0,0,0,0,0,0,0,0,0,0,0,0,0,0,0,0,0,0,0,0,0,0,0,0,0,0,0,0,0,0,0,0,0,0,0,0,0,0,0,
0,0,0,0,0,0,0,0,0,0,0,0,0,3225,0,0,0,0,0,0,0,0,0,0,0,0,0,0,0,0,0,0,0,0,0,0,0,0,0,0,0,0,0,0,0,0,0,0,0,0,0,0,0,0,0,0,0,0,0,0,0,
0,0,0,0,0,3247,0,3602,0,0,0,3639,0,3247,0,0,0,0,0,0,0,0,0,0,0,0,0,0,0,0,0,0,0,0,0,0,0,0,0,0,0,0,0,0,0,0,0,0,0,0,0,0,0,0,0,0,0,0,0,0,0,
0,0,0,0,0,3225,0,0,0,0,0,0,0,0,0,0,0,0,0,0,0,0,0,0,0,0,0,0,0,0,0,0,0,3600,0,0,0,3639,0,0,0,0,0,0,0,0,0,0,0,0,0,0,0,0,0,0,0,0,0,0,0,
0,0,0,0,0,0,3247,3225,0,0,0,0,0,0,0,0,0,0,0,0,0,0,0,0,0,0,0,0,0,0,0,0,0,0,0,0,0,0,0,0,0,0,0,0,0,0,0,0,0,0,0,0,0,0,0,0,0,0,0,0,0,
0,0,0,0,0,0,0,0,0,0,0,0,0,0,0,0,0,0,0,0,0,0,0,0,0,0,0,0,0,0,0,0,0,0,0,0,0,0,0,0,0,0,0,0,0,0,0,0,0,0,0,0,0,0,0,0,0,0,0,0,0,
0,0,0,0,0,0,0,0,0,0,0,0,0,0,0,0,0,0,0,0,0,0,0,0,0,0,0,0,0,0,0,0,0,0,0,0,0,3247,0,0,0,0,0,0,0,0,0,0,0,0,0,0,0,0,0,0,0,0,0,0,0,
0,0,0,0,0,0,0,0,0,0,0,0,0,0,0,0,3247,0,0,0,0,0,0,0,0,0,0,0,0,0,0,0,0,0,0,3225,0,0,0,0,0,0,0,0,0,0,0,0,0,0,0,0,0,0,0,0,0,0,0,0,0,
0,0,0,0,0,0,0,0,0,0,0,0,0,0,0,3225,0,3247,0,0,0,0,0,0,0,0,0,0,0,0,0,0,0,0,0,0,0,0,0,0,0,0,0,0,0,0,0,0,0,0,0,0,0,0,0,0,0,0,0,0,0,
0,0,0,0,0,0,0,0,0,0,0,0,0,0,0,0,0,0,0,0,0,0,0,0,0,0,0,0,0,0,0,0,0,0,0,0,0,0,0,0,0,0,0,0,0,0,0,0,0,0,0,0,0,0,0,0,0,0,0,0,0
</data>
 </layer>
</map>
