<?xml version="1.0" encoding="UTF-8"?><map version="1.10" tiledversion="1.12.1" orientation="orthogonal" renderorder="right-down" width="41" height="31" tilewidth="32" tileheight="32" infinite="0" nextlayerid="10" nextobjectid="19">
 <tileset firstgid="1" source="../tilesets/grass_cave_walls_24x14.tsx"/>
 <tileset firstgid="337" source="../tilesets/stone_tile_stares_16x16.tsx"/>
 <tileset firstgid="593" source="../tilesets/icon_table_stage_14x9.tsx"/>
 <tileset firstgid="719" source="../tilesets/astralpixels/muro_tileset_wall.tsx"/>
 <tileset firstgid="863" source="../tilesets/window_8x6.tsx"/>
 <tileset firstgid="911" source="../tilesets/astralpixels/finestre.tsx"/>
 <tileset firstgid="936" source="../tilesets/ground/terrain-v7.tsx"/>
 <objectgroup id="8" name="portals">
  <object id="11" name="zone_06_mountain_pass_01" x="130" y="20"><properties><property name="target_map" value="zone_06_mountain_pass_01"/><property name="target_position_x" type="int" value="1"/><property name="target_position_y" type="int" value="16"/></properties></object>
  <object id="12" name="palace" x="624" y="192" width="64" height="5"><properties><property name="target_map" value="town_04_frostholm_palace"/><property name="target_position_x" type="int" value="10"/><property name="target_position_y" type="int" value="11"/></properties></object>
  <object id="13" name="item_shop" x="1136" y="192" width="64" height="5"><properties><property name="target_map" value="town_04_frostholm_shop"/><property name="target_position_x" type="int" value="7"/><property name="target_position_y" type="int" value="10"/></properties></object>
  <object id="14" name="inn" x="272" y="800" width="64" height="5"><properties><property name="target_map" value="town_04_frostholm_inn"/><property name="target_position_x" type="int" value="5"/><property name="target_position_y" type="int" value="9"/></properties></object>
  <object id="15" name="magic_shop" x="1135.75" y="820"/>
  <object id="16" name="zone_05_mountain_foothills_03" x="616" y="974" width="50" height="6"><properties><property name="target_map" value="zone_05_mountain_foothills_03"/><property name="target_position_x" type="int" value="46"/><property name="target_position_y" type="int" value="12"/></properties></object>
 </objectgroup>
 <layer id="1" name="ground" width="41" height="31">
  <data encoding="csv">
1339,1339,1339,2281,2281,1339,1339,1339,1339,1339,1339,1339,1339,1339,1339,1339,1339,1339,1339,1339,1339,1339,1339,1339,1339,1339,1339,1339,1339,1339,1339,1339,1339,1339,1339,1339,1339,1339,1339,1339,1339,
1339,1339,1339,2281,2281,2281,1339,1339,1339,1339,1339,1339,1339,1339,1340,1339,1339,1339,1339,1339,1339,1339,1339,1339,1339,1339,1339,1338,1339,1339,1339,1339,1339,1339,1339,1339,1339,1339,1339,1339,1339,
1339,1339,1339,2281,2281,2281,1339,1339,1339,1339,1338,1339,1338,1339,1339,1339,1339,1339,1339,1339,1339,1339,1339,1339,1339,1339,1339,1340,1340,1339,1339,1339,1339,1339,1339,1339,1339,1339,1339,1339,1339,
1339,1339,1339,1339,2281,2281,2281,1339,1339,1339,1338,1339,1339,1339,1339,1339,1339,1339,1339,1339,1339,1339,1339,1339,1339,1339,1339,1339,1339,1339,1339,1339,1339,1339,1339,1339,1339,1339,1339,1339,1339,
1339,1339,1339,1339,2281,2281,2281,2281,1339,1339,1339,1339,1339,1339,1339,1339,1339,1339,1339,1339,1339,1339,1339,1339,1339,1339,1339,1339,1339,2281,2281,1339,1339,1339,1339,1339,1339,1339,1339,1339,1339,
1339,1339,1339,1339,1339,2281,2281,2281,2281,2281,2281,2281,2281,2281,2281,2281,2281,1339,1339,1339,1339,1339,1339,1339,1339,1339,1339,1339,2281,2281,2281,1339,1339,1339,1339,1339,1339,1339,1339,1339,1339,
1339,1339,1339,1339,1339,1339,2281,2281,2281,2281,2281,2281,2281,2281,2281,2281,2281,2281,2281,2281,2281,1339,1339,1339,1339,1339,1339,2281,2281,2281,2281,2281,2281,2281,2281,2281,2281,2281,1339,1339,1339,
1339,1339,1339,1339,1339,1339,1339,1339,2281,2281,2281,2281,2281,1339,1339,2281,2281,2281,2281,2281,2281,2281,2281,2281,2281,2281,2281,2281,2281,2281,2281,2281,2281,2281,2281,2281,2281,2281,1339,1339,1339,
1339,1339,1339,1339,1339,1339,1339,1339,1339,2281,2281,2281,2281,2281,1339,1339,1339,1339,1339,1339,2281,2281,2281,2281,2281,2281,2281,2281,2281,2281,2281,1339,1339,1339,1339,1339,1339,1339,1339,1339,1339,
1339,1338,1339,1340,1339,1339,1339,1339,1339,1339,1339,2281,2281,2281,1339,1339,1339,1339,1339,1339,2281,2281,1339,1339,1339,1339,1339,1339,2281,2281,2281,1339,1339,1339,1339,1339,1339,1339,1339,1339,1339,
1339,1339,1339,1338,1339,1339,1339,1339,1339,1339,1339,1339,2281,2281,2281,1339,1338,1338,1340,1339,2281,2281,1339,1339,1339,1340,1338,1339,1339,2281,2281,1339,1339,1339,1338,1786,1787,1787,1787,1788,1339,
1339,1339,1338,1339,1339,1339,1339,1339,1339,1339,1339,1339,2281,2281,2281,1339,1339,1339,1340,1339,2281,2281,1339,1339,1339,1339,1338,1339,1339,2281,2281,1339,1339,1339,1338,1786,1787,1787,1787,1788,1339,
1339,1339,1340,1339,1339,1339,1339,1339,1339,1339,1339,1339,1339,2281,2281,1339,1339,1339,1339,1339,2281,2281,1339,1339,1339,1339,1339,1339,1339,2281,2281,1339,1339,1339,1339,1786,1787,1787,1787,1788,1339,
1339,1339,1339,1339,1339,1339,1339,1339,1339,1339,1339,1339,1339,2281,2281,1339,1339,1339,1339,1339,2281,2281,1339,1339,1339,1339,1339,1339,1339,2281,2281,1339,1339,1339,1339,1786,1787,1787,1787,1788,1339,
1339,1339,1339,1339,1339,1339,1339,1339,1339,2281,2281,2281,2281,2281,2281,2281,2281,2281,2281,2281,2281,2281,2281,2281,2281,2281,2281,2281,2281,2281,2281,2281,2281,1339,1339,1786,1787,1787,1787,1788,1339,
1339,1339,1339,1339,1339,1339,1339,1339,1339,2281,2281,2281,2281,2281,2281,2281,2281,2281,2281,2281,2281,2281,2281,2281,2281,2281,2281,2281,2281,2281,2281,2281,2281,1339,1339,1786,1787,1787,1787,1788,1339,
1339,1339,1339,1339,1339,1339,1339,1339,1339,1339,2281,2281,2281,2281,2281,2281,2281,2281,2281,2281,2281,2281,2281,2281,2281,2281,2281,2281,2281,2281,2281,2281,2281,1339,1339,1339,1339,1339,1339,1339,1339,
1339,1339,1339,1339,1339,1339,1339,1339,1339,1339,1339,1339,1339,1339,1339,1339,1339,1339,2281,2281,2281,2281,1339,1339,1339,1339,1339,1339,1339,1339,1339,1339,1339,1339,1339,1339,1339,1339,1339,1339,1339,
1339,1339,1339,1339,1339,1339,1339,1339,1339,1339,1339,1339,1339,1339,1339,1338,1340,1339,2281,2281,2281,2281,1339,1339,1339,1339,1339,1339,1339,1339,1339,1339,1339,1339,1339,1339,1339,1339,1339,1339,1339,
1339,1339,1339,1339,1339,1339,1339,1339,1339,1339,1339,1339,1339,1339,1339,1338,1339,1339,2281,2281,2281,2281,1339,1339,1340,1339,1339,1339,1339,1338,1340,1339,1339,1339,1339,1339,1339,1339,1339,1339,1339,
1339,1339,1339,1339,1339,1339,1339,1339,1339,1339,1339,1339,1339,1339,1339,1339,1339,1339,2281,2281,2281,2281,1339,1340,1339,1339,1339,1339,1340,1339,1339,1339,1339,1339,1339,1339,1339,1339,1339,1339,1339,
1339,1339,1339,1339,1339,1339,1339,1339,1339,1339,1339,1339,1339,1339,1340,1339,1339,1339,2281,2281,2281,2281,1339,1339,1339,1338,1339,1339,1338,1339,1339,1339,1339,1339,1339,1339,1339,1339,1339,1339,1339,
1339,1340,1339,1339,1339,1339,1339,1339,1339,1339,1339,1339,1339,1339,1339,1339,1340,1339,2281,2281,2281,2281,1339,1339,1339,1339,1339,1339,1339,1339,1339,1339,1339,1339,1339,1339,1339,1339,1339,1339,1339,
1339,1340,1339,1338,1339,1339,1339,1339,1339,1339,1339,1339,1339,1339,1339,1339,1339,1339,2281,2281,2281,2281,1339,1339,1338,1338,1338,1338,1339,1339,1339,1339,1339,1339,1339,1339,1339,1339,1339,1339,1339,
1339,1339,1339,1339,1339,1339,1339,1339,1339,1339,1339,1339,1339,1339,1339,1339,1339,1339,2281,2281,2281,2281,1339,1339,1339,1339,1338,1339,1339,1339,1339,1339,1339,1339,1339,1339,1339,1339,1339,1339,1339,
1339,1339,1340,1339,1339,1339,1339,1339,2281,2281,2281,2281,2281,2281,2281,2281,2281,2281,2281,2281,2281,2281,1339,1340,1338,1339,1338,1339,1339,1339,1339,1339,1339,1339,1339,1339,1339,1339,1339,1339,1339,
1339,1340,1339,1339,1339,1339,1339,1339,2281,2281,2281,2281,2281,2281,2281,2281,2281,2281,2281,2281,2281,2281,1339,1339,1339,1339,1339,1339,2281,2281,2281,2281,2281,2281,2281,2281,1339,1339,1339,1339,1339,
1339,1339,1339,1340,1340,1339,1340,1339,1339,1339,1339,1339,1339,1339,1339,1339,1339,1339,2281,2281,2281,2281,2281,2281,2281,2281,2281,2281,2281,2281,2281,2281,2281,2281,2281,2281,1339,1339,1339,1339,1339,
1339,1338,1338,1339,1340,1338,1340,1339,1340,1338,1339,1339,1339,1339,1339,1339,1339,1339,2281,2281,2281,2281,2281,2281,2281,2281,2281,2281,2281,2281,1339,1338,1340,1340,1338,1338,1339,1338,1339,1338,1339,
1339,1339,1339,1339,1339,1339,1339,1339,1339,1339,1339,1339,1340,1339,1339,1339,1339,1339,2281,2281,2281,2281,1339,1339,1339,1339,1339,1339,1339,1339,1338,1340,1338,1339,1339,1339,1339,1340,1339,1339,1340,
1339,1339,1339,1339,1339,1339,1339,1339,1339,1339,1339,1339,1339,1339,1339,1339,1339,1339,2281,2281,2281,2281,1339,1339,1339,1339,1339,1339,1339,1339,1339,1339,1339,1339,1339,1339,1339,1339,1339,1339,1339
</data>
 </layer>
 <layer id="4" name="collision" width="41" height="31">
  <data encoding="csv">
0,0,0,0,0,0,355,0,25,26,25,26,25,26,25,26,0,537,537,537,537,537,537,537,25,26,25,26,25,26,25,26,0,543,543,543,543,543,543,543,0,
0,25,26,0,0,0,0,0,49,50,49,50,49,50,49,50,0,553,553,553,553,553,553,553,49,50,49,50,49,50,49,50,0,559,559,559,559,559,559,559,0,
0,49,50,0,0,0,0,0,0,0,0,0,0,0,0,25,26,569,569,569,569,569,569,569,0,0,0,0,0,0,0,25,26,575,575,575,575,575,575,575,0,
25,26,0,0,0,0,0,0,0,0,0,0,0,0,0,49,50,585,585,585,585,585,585,585,0,0,0,0,0,0,0,49,50,591,591,591,591,591,591,591,0,
49,50,0,0,0,0,0,0,0,0,0,0,0,0,0,0,0,441,442,443,448,441,442,443,0,0,0,0,0,0,0,0,0,441,442,443,448,441,442,443,0,
0,25,26,0,0,0,0,0,0,0,0,0,0,0,0,0,0,457,458,459,464,457,458,459,0,0,0,0,0,0,0,0,0,457,458,459,464,457,458,459,202,
0,49,50,0,0,0,0,0,0,0,0,0,0,0,0,0,0,0,0,0,0,0,0,0,0,0,0,0,0,0,0,0,0,0,0,0,0,0,0,0,201,
25,26,0,0,0,0,0,0,0,0,0,0,0,0,0,0,0,0,0,0,0,0,0,0,0,0,0,0,0,0,0,0,0,0,0,0,0,0,0,0,201,
49,50,0,0,0,0,0,0,0,0,0,0,0,0,0,0,0,0,0,0,0,0,0,0,0,0,0,0,0,0,0,0,0,0,0,0,0,0,0,0,201,
0,25,26,0,0,0,0,0,0,0,0,0,0,0,0,0,0,0,0,0,0,0,0,0,0,0,0,0,0,0,0,0,0,0,0,0,0,0,0,0,201,
0,49,50,0,0,0,0,0,0,0,0,0,0,0,0,0,0,0,0,0,0,0,0,0,0,0,0,0,0,0,0,0,0,0,0,0,0,0,0,0,201,
201,0,0,0,0,0,0,0,0,0,0,0,0,0,0,0,0,0,0,0,0,0,0,0,0,0,0,0,0,0,0,0,0,0,0,0,0,0,0,0,201,
201,0,0,0,0,0,0,0,0,0,0,0,0,0,0,0,0,0,0,0,0,0,0,0,0,0,0,0,0,0,0,0,0,0,0,0,0,132,0,0,201,
201,0,0,0,0,0,0,0,0,0,0,0,0,0,0,0,0,0,0,0,0,0,0,0,0,0,0,0,0,0,0,0,0,0,0,0,0,156,0,0,201,
201,0,0,0,0,0,0,0,0,0,0,0,0,0,0,0,0,0,0,0,0,0,0,0,0,0,0,0,0,0,0,0,0,0,0,0,0,0,0,0,201,
201,0,0,0,0,0,0,0,0,0,0,0,0,0,0,0,0,0,0,0,0,0,0,0,0,0,0,0,0,0,0,0,0,0,0,0,0,0,0,0,201,
201,0,0,0,0,0,0,0,0,0,0,0,0,0,0,0,0,0,0,0,0,0,0,0,0,0,0,0,0,0,0,0,0,0,0,0,0,0,0,0,201,
201,0,0,0,0,0,0,0,0,0,0,0,0,0,0,0,0,0,0,0,0,0,0,0,0,0,0,0,0,0,0,0,0,0,0,0,0,0,0,0,201,
201,0,0,0,0,0,0,0,0,0,0,0,0,0,0,0,0,0,0,0,0,0,0,0,0,0,0,0,0,0,0,0,0,0,0,0,0,0,0,0,201,
201,0,0,0,0,0,538,538,538,538,538,538,538,0,0,0,0,0,0,0,0,0,0,0,0,0,0,0,0,0,0,0,0,0,0,0,0,0,0,0,201,
201,0,0,0,0,0,554,554,554,554,554,554,554,0,0,0,0,0,0,0,0,0,0,0,0,0,0,0,0,0,0,0,539,539,539,539,539,539,539,0,201,
201,0,0,0,0,0,570,570,570,570,570,570,570,0,0,0,0,0,0,0,0,0,0,0,0,0,0,0,0,0,0,0,555,555,555,555,555,555,555,0,201,
201,0,0,0,0,0,586,586,586,586,586,586,586,0,0,0,0,0,0,0,0,0,0,0,0,0,0,0,0,0,0,0,571,571,571,571,571,571,571,0,201,
201,0,0,0,0,0,441,442,443,448,441,442,443,0,0,0,0,0,0,0,0,0,0,0,0,0,0,0,0,0,0,0,587,587,587,587,587,587,587,0,201,
201,0,0,0,0,0,457,458,459,464,457,458,459,0,0,0,0,0,0,0,0,0,0,0,0,0,0,0,0,0,0,0,441,442,443,448,441,442,443,0,201,
201,0,0,0,0,0,0,0,0,0,0,0,0,0,0,0,0,0,0,0,0,0,0,0,0,0,0,0,0,0,0,0,457,458,459,464,457,458,459,0,201,
201,0,0,0,0,0,0,0,0,0,0,0,0,0,0,0,0,0,0,0,0,0,0,0,0,0,0,0,0,0,0,0,0,0,0,0,0,0,0,0,201,
201,0,0,0,0,0,0,0,0,0,0,0,0,0,0,0,0,0,0,0,0,0,0,0,0,0,0,0,0,0,0,0,0,0,0,0,0,0,0,0,201,
201,0,0,0,0,0,0,0,0,0,0,0,0,0,0,0,0,357,0,0,0,0,0,0,0,0,0,0,0,0,0,0,0,0,0,0,0,0,0,0,201,
201,0,0,0,0,0,0,0,0,0,0,0,0,0,0,0,0,0,0,0,0,0,0,0,0,0,0,0,0,0,0,0,0,0,0,0,0,0,0,0,201,
227,225,225,225,225,225,225,225,225,225,225,225,225,225,225,225,225,205,0,0,0,0,229,225,225,225,225,225,225,225,225,225,225,225,225,225,225,225,225,225,228
</data>
 </layer>
 <layer id="2" name="decoration" width="41" height="31">
  <data encoding="csv">
0,0,0,0,0,0,0,0,0,0,0,0,0,0,0,0,0,0,0,0,0,0,0,0,0,0,0,0,0,0,0,0,0,0,0,0,0,0,0,0,0,
0,0,0,0,0,0,0,181,0,0,0,0,0,0,0,0,0,0,0,0,0,0,0,0,0,0,0,0,0,0,0,0,0,0,0,0,0,0,0,0,0,
0,0,0,0,0,0,0,181,0,0,0,0,0,0,0,0,0,0,0,0,0,0,0,0,0,0,0,0,0,0,0,0,0,0,0,0,0,0,0,0,0,
0,0,0,0,0,0,0,0,0,0,0,0,0,0,0,0,0,0,0,0,0,0,0,0,0,0,0,0,0,0,0,0,0,0,0,0,0,0,0,0,0,
0,0,0,0,0,0,0,0,0,0,0,0,0,0,0,0,0,0,621,0,0,0,872,0,0,0,0,0,0,0,0,0,0,0,628,0,0,0,872,0,0,
0,0,0,0,0,0,0,0,0,0,0,0,0,0,0,0,0,0,0,0,0,0,0,0,0,0,0,0,0,0,0,0,0,0,0,0,0,0,0,0,0,
0,0,0,0,0,0,0,0,0,0,0,0,0,0,0,0,0,0,0,0,0,0,181,0,0,0,0,0,0,0,0,0,0,0,0,0,0,0,0,0,0,
0,0,0,0,0,0,0,0,0,0,0,0,0,0,0,0,0,0,0,0,0,0,0,0,0,0,0,0,0,0,0,0,0,0,0,0,0,0,0,0,0,
0,0,0,0,0,0,0,0,0,0,0,0,0,0,0,0,0,0,0,0,0,0,0,0,0,0,0,0,0,0,0,0,0,0,149,181,0,0,0,0,0,
0,0,0,0,0,0,0,0,0,0,0,0,0,0,0,0,0,0,0,149,0,0,0,0,0,0,0,0,0,0,0,0,0,0,0,0,0,0,0,0,0,
0,0,0,0,0,0,0,0,0,0,0,0,0,0,0,0,0,0,0,0,0,0,0,0,149,0,0,0,0,0,0,0,0,0,0,0,0,0,0,0,0,
0,0,0,0,0,0,149,0,149,0,0,0,0,0,0,0,0,0,0,0,0,0,0,0,0,0,0,0,0,0,0,0,0,0,0,0,0,0,0,0,0,
0,0,0,0,0,0,0,0,0,0,0,0,0,0,0,0,0,0,0,0,0,0,0,0,0,0,0,0,0,0,0,0,0,0,0,0,0,0,0,0,0,
0,0,0,0,0,0,0,0,0,0,0,0,0,0,0,0,0,0,0,0,0,0,0,0,0,0,0,0,0,0,0,0,0,0,0,0,0,0,0,0,0,
0,0,0,0,0,0,0,0,0,0,0,0,0,0,0,0,0,0,0,0,0,0,0,0,0,0,0,0,0,0,0,0,0,0,0,0,0,0,0,0,0,
0,0,0,0,0,0,0,0,0,0,0,0,0,0,0,0,0,0,0,0,0,0,0,0,0,0,0,0,0,0,0,0,0,0,0,0,0,0,0,0,0,
0,0,0,0,0,0,0,0,0,0,0,0,0,0,0,0,0,0,0,0,0,0,0,0,0,0,0,0,0,0,0,0,0,0,0,0,0,0,0,0,0,
0,0,0,0,0,0,0,0,0,0,0,0,0,0,0,0,0,0,0,0,0,0,0,0,0,0,0,0,0,0,0,0,0,0,0,0,0,0,0,0,0,
0,0,0,0,0,0,0,0,0,0,0,0,0,0,0,0,0,0,0,0,0,0,0,0,0,0,0,0,0,0,0,0,0,0,181,0,0,0,0,0,0,
0,0,0,0,0,0,0,0,0,0,0,0,0,0,0,0,0,0,0,0,0,0,0,0,0,0,0,0,0,0,0,0,0,0,0,0,0,0,0,0,0,
0,0,0,0,0,181,0,0,0,0,0,0,0,0,0,0,0,0,0,0,0,0,0,0,0,0,0,0,0,0,0,0,0,0,0,0,0,0,0,0,0,
0,0,0,0,0,181,0,0,0,0,0,0,0,181,0,0,0,0,0,0,0,0,0,0,0,0,0,0,0,0,0,0,0,0,0,0,0,0,0,0,0,
0,0,0,0,0,0,0,0,0,0,0,0,0,152,0,0,0,0,0,0,0,0,0,0,0,0,0,0,0,0,0,0,0,0,0,0,0,0,0,0,0,
0,0,0,0,0,181,0,635,0,0,0,872,0,181,0,0,0,0,0,0,0,0,0,0,0,0,0,0,0,0,0,0,0,0,0,0,0,0,0,0,0,
0,0,0,0,0,152,0,0,0,0,0,0,0,0,0,0,0,0,0,0,0,0,0,0,0,0,0,0,0,0,0,0,0,627,0,0,0,872,0,0,0,
0,0,0,0,0,0,181,152,0,0,0,0,0,0,0,0,0,0,0,0,0,0,0,0,0,0,0,0,0,0,0,0,0,0,0,0,0,0,0,0,0,
0,0,0,0,0,0,0,0,0,0,0,0,0,0,0,0,0,0,0,0,0,0,0,0,0,0,0,0,0,0,0,0,0,0,0,0,0,0,0,0,0,
0,0,0,0,0,0,0,0,0,0,0,0,0,0,0,0,0,0,0,0,0,0,0,0,0,0,0,0,0,0,0,0,0,0,0,0,0,181,0,0,0,
0,0,0,0,0,0,0,0,0,0,0,0,0,0,0,0,181,0,0,0,0,0,0,0,0,0,0,0,0,0,0,0,0,0,0,152,0,0,0,0,0,
0,0,0,0,0,0,0,0,0,0,0,0,0,0,0,152,0,181,0,0,0,0,0,0,0,0,0,0,0,0,0,0,0,0,0,0,0,0,0,0,0,
0,0,0,0,0,0,0,0,0,0,0,0,0,0,0,0,0,0,0,0,0,0,0,0,0,0,0,0,0,0,0,0,0,0,0,0,0,0,0,0,0
</data>
 </layer>
</map>