<?xml version="1.0" encoding="UTF-8"?>
<map version="1.10" tiledversion="1.12.1" orientation="orthogonal" renderorder="right-down" width="18" height="11" tilewidth="32" tileheight="32" infinite="0" nextlayerid="5" nextobjectid="2">
 <tileset firstgid="145" source="../tilesets/sample_01.tsx"/>
 <tileset firstgid="1343" source="../tilesets/interior/interior.tsx"/>
 <tileset firstgid="1415" source="../tilesets/shop/shop.tsx"/>
 <tileset firstgid="1455" source="../tilesets/town/town.tsx"/>
 <objectgroup id="4" name="portals">
  <object id="1" name="town_01_ardel" x="353.582" y="31.2224" width="29.8864" height="3.32955">
   <properties>
    <property name="target_map" value="town_01_ardel"/>
    <property name="target_position_x" type="int" value="3"/>
    <property name="target_position_y" type="int" value="18"/>
   </properties>
  </object>
 </objectgroup>
 <layer id="3" name="ground" width="18" height="11">
  <data encoding="csv">
0,0,0,0,0,0,0,0,0,0,0,1375,0,0,0,0,0,0,
0,0,0,0,0,0,0,0,0,0,0,1374,0,0,0,0,0,0,
0,0,0,0,0,0,0,0,0,0,0,1374,0,0,0,0,0,0,
0,0,0,0,0,0,0,0,0,0,0,1374,0,0,0,0,0,0,
0,1377,1371,1371,1371,1371,1371,1371,1372,1371,1371,1371,1371,1372,1372,1371,1371,0,
0,1377,1371,1371,1371,1372,1372,1372,1372,1372,1372,1372,1372,1372,1372,1372,1371,0,
0,1377,1371,1371,1371,1371,1371,1371,1371,1371,1371,1371,1371,1371,1371,1371,1371,0,
0,0,0,0,0,1371,0,0,0,0,0,0,0,0,0,0,0,0,
0,0,0,0,0,1377,0,0,0,0,0,0,0,0,0,0,0,0,
0,0,0,0,0,1377,0,0,0,0,0,0,0,0,0,0,0,0,
0,0,0,0,0,1377,0,0,0,0,0,0,0,0,0,0,0,0
</data>
 </layer>
 <layer id="1" name="collision" width="18" height="11">
  <data encoding="csv">
1351,1349,1349,1349,1349,1349,1349,1349,1349,1349,1350,0,1348,1349,1349,1349,1349,1353,
1359,1344,1344,1344,1344,1344,1344,1344,1344,1344,1345,0,1343,1344,1344,1344,1344,1359,
1359,1356,1356,1356,1356,1356,1356,1356,1356,1356,1357,0,1355,1356,1356,1356,1356,1359,
1359,1368,1368,1368,1368,1368,1368,1368,1368,1368,1369,0,1367,1368,1368,1368,1368,1359,
1359,0,0,0,0,0,0,0,0,0,0,0,0,0,0,0,0,1359,
1359,0,0,0,0,0,0,0,0,0,0,0,0,0,0,0,0,1359,
1359,0,0,0,0,0,0,0,0,0,0,0,0,0,0,0,0,1359,
1360,1349,1349,1349,1350,0,1348,1349,1349,1349,1349,1349,1349,1349,1349,1349,1349,1362,
1343,1344,1344,1344,1345,0,1343,1344,1344,1344,1344,1344,1344,1344,1344,1344,1344,1345,
1355,1356,1356,1356,1357,0,1355,1356,1356,1356,1356,1356,1356,1356,1356,1356,1356,1357,
1367,1368,1368,1368,1369,0,1367,1368,1368,1368,1368,1368,1368,1368,1368,1368,1368,1369
</data>
 </layer>
 <layer id="2" name="decoration" width="18" height="11">
  <data encoding="csv">
0,0,0,0,0,0,0,0,0,0,0,0,0,0,0,0,0,0,
0,0,0,0,0,0,0,0,0,0,0,0,0,0,0,0,0,0,
0,0,0,0,0,0,0,0,0,0,0,0,0,0,0,0,0,0,
0,0,0,0,0,0,0,0,0,0,0,0,0,0,0,0,0,0,
0,0,0,0,0,0,0,0,0,0,0,0,0,0,0,0,0,0,
0,0,0,0,0,0,0,0,0,0,0,0,0,0,0,0,0,0,
0,0,0,0,0,0,0,0,0,0,0,0,0,0,0,0,0,0,
0,0,0,0,0,0,0,0,0,0,0,0,0,0,0,0,0,0,
0,0,0,0,0,0,0,0,0,0,0,0,0,0,0,0,0,0,
0,0,0,0,0,0,0,0,0,0,0,0,0,0,0,0,0,0,
0,0,0,0,0,0,0,0,0,0,0,0,0,0,0,0,0,0
</data>
 </layer>
</map>
