<?xml version="1.0" encoding="UTF-8"?><map version="1.10" tiledversion="1.12.1" orientation="orthogonal" renderorder="right-down" width="41" height="31" tilewidth="32" tileheight="32" infinite="0" nextlayerid="10" nextobjectid="19">
 <tileset firstgid="936" source="../tilesets/ground/terrain-v7.tsx"/>
 <tileset firstgid="2984" source="../tilesets/interior/interior.tsx"/>
 <tileset firstgid="3056" source="../tilesets/outdoor/outdoor.tsx"/>
 <tileset firstgid="3294" source="../tilesets/town/town.tsx"/>
 <tileset firstgid="3534" source="../tilesets/shop/shop.tsx"/>
 <tileset firstgid="3574" source="../tilesets/exterior_windows/exterior_windows.tsx"/>
 <objectgroup id="8" name="portals">
  <object id="11" name="zone_07_sunken_cave" x="130" y="20"><properties><property name="target_map" value="zone_07_sunken_cave"/><property name="target_position_x" type="int" value="27"/><property name="target_position_y" type="int" value="1"/></properties></object>
  <object id="12" name="oracle_sanctum" x="624" y="192" width="64" height="5"><properties><property name="target_map" value="town_05_ashenveil_oracle_sanctum"/><property name="target_position_x" type="int" value="5"/><property name="target_position_y" type="int" value="9"/></properties></object>
  <object id="13" name="item_shop" x="1136" y="192" width="64" height="5"><properties><property name="target_map" value="town_05_ashenveil_shop"/><property name="target_position_x" type="int" value="7"/><property name="target_position_y" type="int" value="10"/></properties></object>
  <object id="14" name="inn" x="272" y="800" width="64" height="5"><properties><property name="target_map" value="town_05_ashenveil_inn"/><property name="target_position_x" type="int" value="5"/><property name="target_position_y" type="int" value="9"/></properties></object>
  <object id="15" name="magic_shop" x="1135.75" y="820"/>
  <object id="16" name="zone_06_mountain_pass_03" x="616" y="974" width="50" height="6"><properties><property name="target_map" value="zone_06_mountain_pass_03"/><property name="target_position_x" type="int" value="47"/><property name="target_position_y" type="int" value="17"/></properties></object>
 </objectgroup>
 <layer id="1" name="ground" width="41" height="31">
  <data encoding="csv">
1796,1796,1796,2281,2281,1796,1796,1796,1796,1796,1796,1796,1796,1796,1796,1796,1796,1796,1796,1796,1796,1796,1796,1796,1796,1796,1796,1796,1796,1796,1796,1796,1796,1796,1796,1796,1796,1796,1796,1796,1796,
1796,1796,1796,2281,2281,2281,1796,1796,1796,1796,1796,1796,1796,1796,1797,1796,1796,1796,1796,1796,1796,1796,1796,1796,1796,1796,1796,1795,1796,1796,1796,1796,1796,1796,1796,1796,1796,1796,1796,1796,1796,
1796,1796,1796,2281,2281,2281,1796,1796,1796,1796,1795,1796,1795,1796,1796,1796,1796,1796,1796,1796,1796,1796,1796,1796,1796,1796,1796,1797,1797,1796,1796,1796,1796,1796,1796,1796,1796,1796,1796,1796,1796,
1796,1796,1796,1796,2281,2281,2281,1796,1796,1796,1795,1796,1796,1796,1796,1796,1796,1796,1796,1796,1796,1796,1796,1796,1796,1796,1796,1796,1796,1796,1796,1796,1796,1796,1796,1796,1796,1796,1796,1796,1796,
1796,1796,1796,1796,2281,2281,2281,2281,1796,1796,1796,1796,1796,1796,1796,1796,1796,1796,1796,1796,1796,1796,1796,1796,1796,1796,1796,1796,1796,2281,2281,1796,1796,1796,1796,1796,1796,1796,1796,1796,1796,
1796,1796,1796,1796,1796,2281,2281,2281,2281,2281,2281,2281,2281,2281,2281,2281,2281,1796,1796,1796,1796,1796,1796,1796,1796,1796,1796,1796,2281,2281,2281,1796,1796,1796,1796,1796,1796,1796,1796,1796,1796,
1796,1796,1796,1796,1796,1796,2281,2281,2281,2281,2281,2281,2281,2281,2281,2281,2281,2281,2281,2281,2281,1796,1796,1796,1796,1796,1796,2281,2281,2281,2281,2281,2281,2281,2281,2281,2281,2281,1796,1796,1796,
1796,1796,1796,1796,1796,1796,1796,1796,2281,2281,2281,2281,2281,1796,1796,2281,2281,2281,2281,2281,2281,2281,2281,2281,2281,2281,2281,2281,2281,2281,2281,2281,2281,2281,2281,2281,2281,2281,1796,1796,1796,
1796,1796,1796,1796,1796,1796,1796,1796,1796,2281,2281,2281,2281,2281,1796,1796,1796,1796,1796,1796,2281,2281,2281,2281,2281,2281,2281,2281,2281,2281,2281,1796,1796,1796,1796,1796,1796,1796,1796,1796,1796,
1796,1795,1796,1797,1796,1796,1796,1796,1796,1796,1796,2281,2281,2281,1796,1796,1796,1796,1796,1796,2281,2281,1796,1796,1796,1796,1796,1796,2281,2281,2281,1796,1796,1796,1796,1796,1796,1796,1796,1796,1796,
1796,1796,1796,1795,1796,1796,1796,1796,1796,1796,1796,1796,2281,2281,2281,1796,1795,1795,1797,1796,2281,2281,1796,1796,1796,1797,1795,1796,1796,2281,2281,1796,1796,1796,1795,1792,1793,1793,1793,1794,1796,
1796,1796,1795,1796,1796,1796,1796,1796,1796,1796,1796,1796,2281,2281,2281,1796,1796,1796,1797,1796,2281,2281,1796,1796,1796,1796,1795,1796,1796,2281,2281,1796,1796,1796,1795,1792,1793,1793,1793,1794,1796,
1796,1796,1797,1796,1796,1796,1796,1796,1796,1796,1796,1796,1796,2281,2281,1796,1796,1796,1796,1796,2281,2281,1796,1796,1796,1796,1796,1796,1796,2281,2281,1796,1796,1796,1796,1792,1793,1793,1793,1794,1796,
1796,1796,1796,1796,1796,1796,1796,1796,1796,1796,1796,1796,1796,2281,2281,1796,1796,1796,1796,1796,2281,2281,1796,1796,1796,1796,1796,1796,1796,2281,2281,1796,1796,1796,1796,1792,1793,1793,1793,1794,1796,
1796,1796,1796,1796,1796,1796,1796,1796,1796,2281,2281,2281,2281,2281,2281,2281,2281,2281,2281,2281,2281,2281,2281,2281,2281,2281,2281,2281,2281,2281,2281,2281,2281,1796,1796,1792,1793,1793,1793,1794,1796,
1796,1796,1796,1796,1796,1796,1796,1796,1796,2281,2281,2281,2281,2281,2281,2281,2281,2281,2281,2281,2281,2281,2281,2281,2281,2281,2281,2281,2281,2281,2281,2281,2281,1796,1796,1792,1793,1793,1793,1794,1796,
1796,1796,1796,1796,1796,1796,1796,1796,1796,1796,2281,2281,2281,2281,2281,2281,2281,2281,2281,2281,2281,2281,2281,2281,2281,2281,2281,2281,2281,2281,2281,2281,2281,1796,1796,1796,1796,1796,1796,1796,1796,
1796,1796,1796,1796,1796,1796,1796,1796,1796,1796,1796,1796,1796,1796,1796,1796,1796,1796,2281,2281,2281,2281,1796,1796,1796,1796,1796,1796,1796,1796,1796,1796,1796,1796,1796,1796,1796,1796,1796,1796,1796,
1796,1796,1796,1796,1796,1796,1796,1796,1796,1796,1796,1796,1796,1796,1796,1795,1797,1796,2281,2281,2281,2281,1796,1796,1796,1796,1796,1796,1796,1796,1796,1796,1796,1796,1796,1796,1796,1796,1796,1796,1796,
1796,1796,1796,1796,1796,1796,1796,1796,1796,1796,1796,1796,1796,1796,1796,1795,1796,1796,2281,2281,2281,2281,1796,1796,1797,1796,1796,1796,1796,1795,1797,1796,1796,1796,1796,1796,1796,1796,1796,1796,1796,
1796,1796,1796,1796,1796,1796,1796,1796,1796,1796,1796,1796,1796,1796,1796,1796,1796,1796,2281,2281,2281,2281,1796,1797,1796,1796,1796,1796,1797,1796,1796,1796,1796,1796,1796,1796,1796,1796,1796,1796,1796,
1796,1796,1796,1796,1796,1796,1796,1796,1796,1796,1796,1796,1796,1796,1797,1796,1796,1796,2281,2281,2281,2281,1796,1796,1796,1795,1796,1796,1795,1796,1796,1796,1796,1796,1796,1796,1796,1796,1796,1796,1796,
1796,1797,1796,1796,1796,1796,1796,1796,1796,1796,1796,1796,1796,1796,1796,1796,1797,1796,2281,2281,2281,2281,1796,1796,1796,1796,1796,1796,1796,1796,1796,1796,1796,1796,1796,1796,1796,1796,1796,1796,1796,
1796,1797,1796,1795,1796,1796,1796,1796,1796,1796,1796,1796,1796,1796,1796,1796,1796,1796,2281,2281,2281,2281,1796,1796,1795,1795,1795,1795,1796,1796,1796,1796,1796,1796,1796,1796,1796,1796,1796,1796,1796,
1796,1796,1796,1796,1796,1796,1796,1796,1796,1796,1796,1796,1796,1796,1796,1796,1796,1796,2281,2281,2281,2281,1796,1796,1796,1796,1795,1796,1796,1796,1796,1796,1796,1796,1796,1796,1796,1796,1796,1796,1796,
1796,1796,1797,1796,1796,1796,1796,1796,2281,2281,2281,2281,2281,2281,2281,2281,2281,2281,2281,2281,2281,2281,1796,1797,1795,1796,1795,1796,1796,1796,1796,1796,1796,1796,1796,1796,1796,1796,1796,1796,1796,
1796,1797,1796,1796,1796,1796,1796,1796,2281,2281,2281,2281,2281,2281,2281,2281,2281,2281,2281,2281,2281,2281,1796,1796,1796,1796,1796,1796,2281,2281,2281,2281,2281,2281,2281,2281,1796,1796,1796,1796,1796,
1796,1796,1796,1797,1797,1796,1797,1796,1796,1796,1796,1796,1796,1796,1796,1796,1796,1796,2281,2281,2281,2281,2281,2281,2281,2281,2281,2281,2281,2281,2281,2281,2281,2281,2281,2281,1796,1796,1796,1796,1796,
1796,1795,1795,1796,1797,1795,1797,1796,1797,1795,1796,1796,1796,1796,1796,1796,1796,1796,2281,2281,2281,2281,2281,2281,2281,2281,2281,2281,2281,2281,1796,1795,1797,1797,1795,1795,1796,1795,1796,1795,1796,
1796,1796,1796,1796,1796,1796,1796,1796,1796,1796,1796,1796,1797,1796,1796,1796,1796,1796,2281,2281,2281,2281,1796,1796,1796,1796,1796,1796,1796,1796,1795,1797,1795,1796,1796,1796,1796,1797,1796,1796,1797,
1796,1796,1796,1796,1796,1796,1796,1796,1796,1796,1796,1796,1796,1796,1796,1796,1796,1796,2281,2281,2281,2281,1796,1796,1796,1796,1796,1796,1796,1796,1796,1796,1796,1796,1796,1796,1796,1796,1796,1796,1796
</data>
 </layer>
 <layer id="4" name="collision" width="41" height="31">
  <data encoding="csv">
0,0,0,0,0,0,3311,0,3073,3074,3073,3074,3073,3074,3073,3074,0,3482,3482,3482,3482,3482,3482,3482,3073,3074,3073,3074,3073,3074,3073,3074,0,3487,3487,3487,3487,3487,3487,3487,0,
0,3073,3074,0,0,0,0,0,3090,3091,3090,3091,3090,3091,3090,3091,0,3497,3497,3497,3497,3497,3497,3497,3090,3091,3090,3091,3090,3091,3090,3091,0,3502,3502,3502,3502,3502,3502,3502,0,
0,3090,3091,0,0,0,0,0,0,0,0,0,0,0,0,3073,3074,3512,3512,3512,3512,3512,3512,3512,0,0,0,0,0,0,0,3073,3074,3517,3517,3517,3517,3517,3517,3517,0,
3073,3074,0,0,0,0,0,0,0,0,0,0,0,0,0,3090,3091,3527,3527,3527,3527,3527,3527,3527,0,0,0,0,0,0,0,3090,3091,3532,3532,3532,3532,3532,3532,3532,0,
3090,3091,0,0,0,0,0,0,0,0,0,0,0,0,0,0,0,3392,3393,3394,3398,3392,3393,3394,0,0,0,0,0,0,0,0,0,3392,3393,3394,3398,3392,3393,3394,0,
0,3073,3074,0,0,0,0,0,0,0,0,0,0,0,0,0,0,3407,3408,3409,3413,3407,3408,3409,0,0,0,0,0,0,0,0,0,3407,3408,3409,3413,3407,3408,3409,3201,
0,3090,3091,0,0,0,0,0,0,0,0,0,0,0,0,0,0,0,0,0,0,0,0,0,0,0,0,0,0,0,0,0,0,0,0,0,0,0,0,0,3200,
3073,3074,0,0,0,0,0,0,0,0,0,0,0,0,0,0,0,0,0,0,0,0,0,0,0,0,0,0,0,0,0,0,0,0,0,0,0,0,0,0,3200,
3090,3091,0,0,0,0,0,0,0,0,0,0,0,0,0,0,0,0,0,0,0,0,0,0,0,0,0,0,0,0,0,0,0,0,0,0,0,0,0,0,3200,
0,3073,3074,0,0,0,0,0,0,0,0,0,0,0,0,0,0,0,0,0,0,0,0,0,0,0,0,0,0,0,0,0,0,0,0,0,0,0,0,0,3200,
0,3090,3091,0,0,0,0,0,0,0,0,0,0,0,0,0,0,0,0,0,0,0,0,0,0,0,0,0,0,0,0,0,0,0,0,0,0,0,0,0,3200,
3200,0,0,0,0,0,0,0,0,0,0,0,0,0,0,0,0,0,0,0,0,0,0,0,0,0,0,0,0,0,0,0,0,0,0,0,0,0,0,0,3200,
3200,0,0,0,0,0,0,0,0,0,0,0,0,0,0,0,0,0,0,0,0,0,0,0,0,0,0,0,0,0,0,0,0,0,0,0,0,3152,0,0,3200,
3200,0,0,0,0,0,0,0,0,0,0,0,0,0,0,0,0,0,0,0,0,0,0,0,0,0,0,0,0,0,0,0,0,0,0,0,0,3169,0,0,3200,
3200,0,0,0,0,0,0,0,0,0,0,0,0,0,0,0,0,0,0,0,0,0,0,0,0,0,0,0,0,0,0,0,0,0,0,0,0,0,0,0,3200,
3200,0,0,0,0,0,0,0,0,0,0,0,0,0,0,0,0,0,0,0,0,0,0,0,0,0,0,0,0,0,0,0,0,0,0,0,0,0,0,0,3200,
3200,0,0,0,0,0,0,0,0,0,0,0,0,0,0,0,0,0,0,0,0,0,0,0,0,0,0,0,0,0,0,0,0,0,0,0,0,0,0,0,3200,
3200,0,0,0,0,0,0,0,0,0,0,0,0,0,0,0,0,0,0,0,0,0,0,0,0,0,0,0,0,0,0,0,0,0,0,0,0,0,0,0,3200,
3200,0,0,0,0,0,0,0,0,0,0,0,0,0,0,0,0,0,0,0,0,0,0,0,0,0,0,0,0,0,0,0,0,0,0,0,0,0,0,0,3200,
3200,0,0,0,0,0,3483,3483,3483,3483,3483,3483,3483,0,0,0,0,0,0,0,0,0,0,0,0,0,0,0,0,0,0,0,0,0,0,0,0,0,0,0,3200,
3200,0,0,0,0,0,3498,3498,3498,3498,3498,3498,3498,0,0,0,0,0,0,0,0,0,0,0,0,0,0,0,0,0,0,0,3484,3484,3484,3484,3484,3484,3484,0,3200,
3200,0,0,0,0,0,3513,3513,3513,3513,3513,3513,3513,0,0,0,0,0,0,0,0,0,0,0,0,0,0,0,0,0,0,0,3499,3499,3499,3499,3499,3499,3499,0,3200,
3200,0,0,0,0,0,3528,3528,3528,3528,3528,3528,3528,0,0,0,0,0,0,0,0,0,0,0,0,0,0,0,0,0,0,0,3514,3514,3514,3514,3514,3514,3514,0,3200,
3200,0,0,0,0,0,3392,3393,3394,3398,3392,3393,3394,0,0,0,0,0,0,0,0,0,0,0,0,0,0,0,0,0,0,0,3529,3529,3529,3529,3529,3529,3529,0,3200,
3200,0,0,0,0,0,3407,3408,3409,3413,3407,3408,3409,0,0,0,0,0,0,0,0,0,0,0,0,0,0,0,0,0,0,0,3392,3393,3394,3398,3392,3393,3394,0,3200,
3200,0,0,0,0,0,0,0,0,0,0,0,0,0,0,0,0,0,0,0,0,0,0,0,0,0,0,0,0,0,0,0,3407,3408,3409,3413,3407,3408,3409,0,3200,
3200,0,0,0,0,0,0,0,0,0,0,0,0,0,0,0,0,0,0,0,0,0,0,0,0,0,0,0,0,0,0,0,0,0,0,0,0,0,0,0,3200,
3200,0,0,0,0,0,0,0,0,0,0,0,0,0,0,0,0,0,0,0,0,0,0,0,0,0,0,0,0,0,0,0,0,0,0,0,0,0,0,0,3200,
3200,0,0,0,0,0,0,0,0,0,0,0,0,0,0,0,0,3313,0,0,0,0,0,0,0,0,0,0,0,0,0,0,0,0,0,0,0,0,0,0,3200,
3200,0,0,0,0,0,0,0,0,0,0,0,0,0,0,0,0,0,0,0,0,0,0,0,0,0,0,0,0,0,0,0,0,0,0,0,0,0,0,0,3200,
3219,3217,3217,3217,3217,3217,3217,3217,3217,3217,3217,3217,3217,3217,3217,3217,3217,3204,0,0,0,0,3221,3217,3217,3217,3217,3217,3217,3217,3217,3217,3217,3217,3217,3217,3217,3217,3217,3217,3220
</data>
 </layer>
 <layer id="2" name="decoration" width="41" height="31">
  <data encoding="csv">
0,0,0,0,0,0,0,0,0,0,0,0,0,0,0,0,0,0,0,0,0,0,0,0,0,0,0,0,0,0,0,0,0,0,0,0,0,0,0,0,0,
0,0,0,0,0,0,0,3187,0,0,0,0,0,0,0,0,0,0,0,0,0,0,0,0,0,0,0,0,0,0,0,0,0,0,0,0,0,0,0,0,0,
0,0,0,0,0,0,0,3187,0,0,0,0,0,0,0,0,0,0,0,0,0,0,0,0,0,0,0,0,0,0,0,0,0,0,0,0,0,0,0,0,0,
0,0,0,0,0,0,0,0,0,0,0,0,0,0,0,0,0,0,0,0,0,0,0,0,0,0,0,0,0,0,0,0,0,0,0,0,0,0,0,0,0,
0,0,0,0,0,0,0,0,0,0,0,0,0,0,0,0,0,0,3534,0,0,0,3579,0,0,0,0,0,0,0,0,0,0,0,3541,0,0,0,3579,0,0,
0,0,0,0,0,0,0,0,0,0,0,0,0,0,0,0,0,0,0,0,0,0,0,0,0,0,0,0,0,0,0,0,0,0,0,0,0,0,0,0,0,
0,0,0,0,0,0,0,0,0,0,0,0,0,0,0,0,0,0,0,0,0,0,3187,0,0,0,0,0,0,0,0,0,0,0,0,0,0,0,0,0,0,
0,0,0,0,0,0,0,0,0,0,0,0,0,0,0,0,0,0,0,0,0,0,0,0,0,0,0,0,0,0,0,0,0,0,0,0,0,0,0,0,0,
0,0,0,0,0,0,0,0,0,0,0,0,0,0,0,0,0,0,0,0,0,0,0,0,0,0,0,0,0,0,0,0,0,0,3162,3187,0,0,0,0,0,
0,0,0,0,0,0,0,0,0,0,0,0,0,0,0,0,0,0,0,3162,0,0,0,0,0,0,0,0,0,0,0,0,0,0,0,0,0,0,0,0,0,
0,0,0,0,0,0,0,0,0,0,0,0,0,0,0,0,0,0,0,0,0,0,0,0,3162,0,0,0,0,0,0,0,0,0,0,0,0,0,0,0,0,
0,0,0,0,0,0,3162,0,3162,0,0,0,0,0,0,0,0,0,0,0,0,0,0,0,0,0,0,0,0,0,0,0,0,0,0,0,0,0,0,0,0,
0,0,0,0,0,0,0,0,0,0,0,0,0,0,0,0,0,0,0,0,0,0,0,0,0,0,0,0,0,0,0,0,0,0,0,0,0,0,0,0,0,
0,0,0,0,0,0,0,0,0,0,0,0,0,0,0,0,0,0,0,0,0,0,0,0,0,0,0,0,0,0,0,0,0,0,0,0,0,0,0,0,0,
0,0,0,0,0,0,0,0,0,0,0,0,0,0,0,0,0,0,0,0,0,0,0,0,0,0,0,0,0,0,0,0,0,0,0,0,0,0,0,0,0,
0,0,0,0,0,0,0,0,0,0,0,0,0,0,0,0,0,0,0,0,0,0,0,0,0,0,0,0,0,0,0,0,0,0,0,0,0,0,0,0,0,
0,0,0,0,0,0,0,0,0,0,0,0,0,0,0,0,0,0,0,0,0,0,0,0,0,0,0,0,0,0,0,0,0,0,0,0,0,0,0,0,0,
0,0,0,0,0,0,0,0,0,0,0,0,0,0,0,0,0,0,0,0,0,0,0,0,0,0,0,0,0,0,0,0,0,0,0,0,0,0,0,0,0,
0,0,0,0,0,0,0,0,0,0,0,0,0,0,0,0,0,0,0,0,0,0,0,0,0,0,0,0,0,0,0,0,0,0,3187,0,0,0,0,0,0,
0,0,0,0,0,0,0,0,0,0,0,0,0,0,0,0,0,0,0,0,0,0,0,0,0,0,0,0,0,0,0,0,0,0,0,0,0,0,0,0,0,
0,0,0,0,0,3187,0,0,0,0,0,0,0,0,0,0,0,0,0,0,0,0,0,0,0,0,0,0,0,0,0,0,0,0,0,0,0,0,0,0,0,
0,0,0,0,0,3187,0,0,0,0,0,0,0,3187,0,0,0,0,0,0,0,0,0,0,0,0,0,0,0,0,0,0,0,0,0,0,0,0,0,0,0,
0,0,0,0,0,0,0,0,0,0,0,0,0,3165,0,0,0,0,0,0,0,0,0,0,0,0,0,0,0,0,0,0,0,0,0,0,0,0,0,0,0,
0,0,0,0,0,3187,0,3542,0,0,0,3579,0,3187,0,0,0,0,0,0,0,0,0,0,0,0,0,0,0,0,0,0,0,0,0,0,0,0,0,0,0,
0,0,0,0,0,3165,0,0,0,0,0,0,0,0,0,0,0,0,0,0,0,0,0,0,0,0,0,0,0,0,0,0,0,3540,0,0,0,3579,0,0,0,
0,0,0,0,0,0,3187,3165,0,0,0,0,0,0,0,0,0,0,0,0,0,0,0,0,0,0,0,0,0,0,0,0,0,0,0,0,0,0,0,0,0,
0,0,0,0,0,0,0,0,0,0,0,0,0,0,0,0,0,0,0,0,0,0,0,0,0,0,0,0,0,0,0,0,0,0,0,0,0,0,0,0,0,
0,0,0,0,0,0,0,0,0,0,0,0,0,0,0,0,0,0,0,0,0,0,0,0,0,0,0,0,0,0,0,0,0,0,0,0,0,3187,0,0,0,
0,0,0,0,0,0,0,0,0,0,0,0,0,0,0,0,3187,0,0,0,0,0,0,0,0,0,0,0,0,0,0,0,0,0,0,3165,0,0,0,0,0,
0,0,0,0,0,0,0,0,0,0,0,0,0,0,0,3165,0,3187,0,0,0,0,0,0,0,0,0,0,0,0,0,0,0,0,0,0,0,0,0,0,0,
0,0,0,0,0,0,0,0,0,0,0,0,0,0,0,0,0,0,0,0,0,0,0,0,0,0,0,0,0,0,0,0,0,0,0,0,0,0,0,0,0
</data>
 </layer>
</map>