<?xml version="1.0" encoding="UTF-8"?>
<map version="1.10" tiledversion="1.12.1" orientation="orthogonal" renderorder="right-down" width="25" height="13" tilewidth="32" tileheight="32" infinite="0" nextlayerid="9" nextobjectid="6">
 <tileset firstgid="5000" source="../tilesets/ground/terrain-v7.tsx"/>
 <tileset firstgid="7048" source="../tilesets/interior/interior.tsx"/>
 <objectgroup id="5" name="portals">
  <object id="1" name="vault_stairs" x="748" y="305"><properties><property name="target_map" value="town_04_frostholm_vault"/><property name="target_position_x" type="int" value="5"/><property name="target_position_y" type="int" value="9"/></properties></object>
  <object id="3" name="town_04_frostholm" x="323.92" y="413.841" width="23.2727" height="2.34091">
   <properties>
    <property name="target_map" value="town_04_frostholm"/>
    <property name="target_position_x" type="int" value="20"/>
    <property name="target_position_y" type="int" value="6"/>
   </properties>
  </object>
 </objectgroup>
 <layer id="3" name="ground" width="25" height="13">
  <data encoding="csv">
0,0,0,0,0,0,0,0,0,0,0,0,0,0,0,0,0,0,0,0,0,0,0,0,0,
0,0,0,0,0,0,0,0,0,0,0,0,0,0,0,0,0,0,0,0,0,0,0,0,0,
0,0,0,0,0,0,0,0,0,0,0,0,0,0,0,0,0,0,0,0,0,0,0,0,0,
0,0,0,0,0,0,0,0,0,0,5852,0,5852,0,0,0,0,5850,2684360411,2684360411,5850,5850,2684360411,0,0,
0,5851,5850,5850,5850,5850,5850,5850,0,5852,5851,5851,5851,5851,5851,0,5850,2684360411,2684360410,2684360411,5850,5850,2684360411,2684360410,0,
0,5851,5852,5852,5852,5850,5852,5850,0,5850,5850,5850,5850,5850,5850,0,5850,2684360410,2684360411,2684360411,2684360411,2684360411,2684360410,2684360411,0,
0,5851,5850,5852,5852,5852,5850,5852,5851,5850,5850,5850,5850,5850,5850,0,5850,2684360411,2684360411,2684360410,2684360411,2684360410,2684360411,2684360410,0,
0,5851,5852,5852,5852,5852,5852,5850,5852,5850,5850,5850,5850,5850,5850,5850,2684360411,2684360411,2684360410,2684360410,2684360410,2684360411,2684360410,2684360410,0,
0,5851,5850,5850,5852,5850,5850,5852,0,5850,5850,5850,5850,5850,5850,5850,2684360411,2684360410,2684360410,2684360411,2684360410,2684360410,2684360411,2684360410,0,
0,5851,5852,5852,5852,5852,5852,5852,0,5850,5850,5850,5850,5850,5850,2684360411,2684360411,2684360410,2684360410,2684360411,2684360411,2684360410,2684360411,2684360411,0,
0,0,0,0,0,0,0,0,0,0,5852,0,0,0,0,0,0,0,0,0,0,0,0,0,0,
0,0,0,0,0,0,0,0,0,0,5850,0,0,0,0,0,0,0,0,0,0,0,0,0,0,
0,0,0,0,0,0,0,0,0,0,5852,0,0,0,0,0,0,0,0,0,0,0,0,0,0
</data>
 </layer>
 <layer id="4" name="over_ground" width="25" height="13">
  <data encoding="csv">
0,0,0,0,0,0,0,0,0,0,0,0,0,0,0,0,0,0,0,0,0,0,0,0,0,
0,0,0,0,0,0,0,0,0,0,0,0,0,0,0,0,0,0,0,0,0,0,0,0,0,
0,0,0,0,0,0,0,0,0,0,0,0,0,0,0,0,0,0,0,0,0,0,0,0,0,
0,0,0,0,0,0,0,0,0,0,0,0,0,0,0,0,0,0,0,0,0,0,0,0,0,
0,0,0,0,0,0,0,0,0,0,0,0,0,0,0,0,0,0,0,0,0,0,0,0,0,
0,0,0,0,0,0,0,0,0,0,0,0,0,0,0,0,0,0,0,0,0,0,0,0,0,
0,0,0,0,0,0,0,0,0,0,0,0,0,0,0,0,0,0,0,0,0,0,0,0,0,
0,0,0,0,0,0,0,0,0,0,0,0,0,0,0,0,0,0,0,0,0,0,0,0,0,
0,0,0,0,0,0,0,0,0,0,0,0,0,0,0,0,0,0,0,0,0,0,0,0,0,
0,7119,0,0,0,0,0,0,0,0,0,0,0,0,0,0,0,0,0,0,0,0,0,7118,0,
0,0,0,0,0,0,0,0,0,0,0,0,0,0,0,0,0,0,0,0,0,0,0,0,0,
0,0,0,0,0,0,0,0,0,0,0,0,0,0,0,0,0,0,0,0,0,0,0,0,0,
0,0,0,0,0,0,0,0,0,0,0,0,0,0,0,0,0,0,0,0,0,0,0,0,0
</data>
 </layer>
 <layer id="1" name="collision" width="25" height="13">
  <data encoding="csv">
7056,7054,7054,7054,7054,7054,7054,7054,7057,7054,7054,7054,7054,7054,7054,7057,7054,7054,7054,7054,7054,7054,7054,7054,7058,
7064,7049,7049,7049,7049,7049,7049,7049,7064,7049,7049,7049,7049,7049,7049,7064,7049,7049,7049,7049,7049,7049,7049,7049,7064,
7064,7073,7073,7073,7073,7073,7073,7073,7064,7087,7073,7088,7073,7089,7090,7064,7087,7073,7073,7073,7073,7073,7073,7087,7064,
7064,7111,7110,7109,7111,7112,7113,7114,7064,7099,0,7100,0,7101,7102,7064,7099,0,7108,7105,7091,7091,7105,7099,7064,
7064,0,0,0,0,0,0,0,7051,0,0,0,0,0,0,7068,0,0,0,0,7103,7103,0,0,7064,
7064,0,0,0,0,0,0,0,7075,0,0,0,0,0,0,7051,0,0,0,0,0,0,0,0,7064,
7064,0,0,0,0,0,0,0,0,0,7094,7095,7093,0,0,7075,0,0,0,0,0,0,0,0,7064,
7064,0,0,7094,7106,7107,7093,0,0,0,0,0,0,0,0,0,0,0,0,0,0,0,0,0,7064,
7064,0,0,0,0,0,0,0,7059,0,0,0,0,0,0,0,0,0,0,0,0,0,0,0,7064,
7064,0,0,0,0,0,0,7108,7064,0,0,7059,7108,0,7108,7059,0,0,0,0,0,0,0,0,7064,
7065,7054,7054,7054,7054,7054,7054,7054,7066,7055,0,7052,7054,7054,7054,7066,7054,7054,7054,7054,7054,7054,7054,7054,7067,
7048,7049,7049,7049,7049,7049,7049,7049,7049,7050,0,7048,7049,7049,7049,7049,7049,7049,7049,7049,7049,7049,7049,7049,7050,
7072,7073,7073,7073,7073,7073,7073,7073,7073,7074,0,7072,7073,7073,7073,7073,7073,7073,7073,7073,7073,7073,7073,7073,7074
</data>
 </layer>
 <layer id="2" name="decoration" width="25" height="13">
  <data encoding="csv">
0,0,0,0,0,0,0,0,0,0,0,0,0,0,0,0,0,0,0,0,0,0,0,0,0,
0,0,7084,0,7084,0,7085,0,0,0,7086,0,7086,0,0,0,0,0,0,0,7085,0,7085,0,0,
0,0,7096,0,7096,0,7097,0,0,0,7098,0,7098,0,0,0,0,0,0,0,7097,0,7097,0,0,
0,7115,0,0,0,0,0,0,0,0,0,0,0,0,0,0,0,0,0,0,0,0,0,0,0,
0,0,0,0,0,0,0,0,0,0,0,0,0,0,0,0,0,0,0,0,0,0,0,0,0,
0,0,0,0,0,0,0,0,0,0,0,0,0,0,0,0,0,0,0,0,0,0,0,0,0,
0,0,0,0,0,0,0,0,0,0,0,7115,0,0,0,0,0,0,0,0,0,0,0,0,0,
0,0,0,0,0,0,0,0,0,0,0,0,0,0,0,0,0,0,0,0,0,0,0,0,0,
0,0,0,0,0,0,0,0,0,0,0,0,0,0,0,0,0,0,0,0,0,0,0,0,0,
0,0,0,0,0,0,0,0,0,0,0,0,0,0,0,0,0,0,0,0,0,0,0,0,0,
0,0,0,0,0,0,0,0,0,0,0,0,0,0,0,0,0,0,0,0,0,0,0,0,0,
0,0,0,0,0,0,0,0,0,0,0,0,0,0,0,0,0,0,0,0,0,0,0,0,0,
0,0,0,0,0,0,0,0,0,0,0,0,0,0,0,0,0,0,0,0,0,0,0,0,0
</data>
 </layer>
</map>
