<?xml version="1.0" encoding="UTF-8"?>
<map version="1.10" tiledversion="1.12.1" orientation="orthogonal" renderorder="right-down" width="18" height="11" tilewidth="32" tileheight="32" infinite="0" nextlayerid="5" nextobjectid="2">
 <tileset firstgid="145" source="../tilesets/sample_01.tsx"/>
 <tileset firstgid="5000" source="../tilesets/ground/terrain-v7.tsx"/>
 <tileset firstgid="7048" source="../tilesets/interior/interior.tsx"/>
 <tileset firstgid="7120" source="../tilesets/shop/shop.tsx"/>
 <tileset firstgid="7160" source="../tilesets/town/town.tsx"/>
 <objectgroup id="4" name="portals">
  <object id="1" name="town_03_ruinwatch" x="160.242" y="349.003" width="31.6364" height="3.32955">
   <properties>
    <property name="target_map" value="town_03_ruinwatch"/>
    <property name="target_position_x" type="int" value="20"/>
    <property name="target_position_y" type="int" value="6"/>
   </properties>
  </object>
 </objectgroup>
 <layer id="3" name="ground" width="18" height="11">
  <data encoding="csv">
0,0,0,0,0,0,0,0,0,0,0,0,0,0,0,0,0,0,
0,0,0,0,0,0,0,0,0,0,0,0,0,0,0,0,0,0,
0,0,0,0,0,0,0,0,0,0,0,0,0,0,0,0,0,0,
0,0,0,0,0,0,0,0,0,0,0,6354,6354,0,0,0,0,0,
0,6354,6354,6354,6354,6354,6354,6354,6354,6354,6354,6354,6354,6354,6354,6354,6354,0,
0,6354,6354,6354,6354,6354,6354,6354,6354,6354,6354,6354,6354,6354,6354,6354,6354,0,
0,6354,6354,6354,6354,6354,6354,6354,6354,6354,6354,6354,6354,6354,6354,6354,6354,0,
0,0,0,0,0,6354,0,0,0,0,0,0,0,0,0,0,0,0,
0,0,0,0,0,6354,0,0,0,0,0,0,0,0,0,0,0,0,
0,0,0,0,0,6354,0,0,0,0,0,0,0,0,0,0,0,0,
0,0,0,0,0,6354,0,0,0,0,0,0,0,0,0,0,0,0
</data>
 </layer>
 <layer id="1" name="collision" width="18" height="11">
  <data encoding="csv">
7056,7054,7054,7054,7054,7054,7054,7054,7054,7054,7054,7057,7054,7054,7054,7054,7054,7058,
7064,7049,7049,7049,7049,7049,7049,7049,7049,7049,7049,7049,7049,7049,7049,7049,7049,7064,
7064,7205,7205,7205,7205,7205,7205,7205,7205,7205,7205,7205,7205,7205,7205,7205,7205,7064,
7064,7073,7073,7073,7073,7073,7073,7073,7073,7073,7073,7073,7073,7073,7073,7073,7073,7064,
7064,0,0,0,0,0,0,0,0,0,0,0,0,0,0,0,0,7064,
7064,0,0,0,0,0,0,0,0,0,0,0,0,0,0,0,0,7064,
7064,0,0,0,0,0,0,0,0,0,0,0,0,0,0,0,0,7064,
7065,7054,7054,7054,7055,0,7053,7054,7054,7054,7054,7054,7054,7054,7054,7054,7054,7067,
7048,7049,7049,7049,7050,0,7048,7049,7049,7049,7049,7049,7049,7049,7049,7049,7049,7050,
7060,7205,7205,7205,7062,0,7060,7205,7205,7205,7205,7205,7205,7205,7205,7205,7205,7062,
7072,7073,7073,7073,7074,0,7072,7073,7073,7073,7073,7073,7073,7073,7073,7073,7073,7074
</data>
 </layer>
 <layer id="2" name="decoration" width="18" height="11">
  <data encoding="csv">
0,0,0,0,0,0,0,0,0,0,0,0,0,0,0,0,0,0,
0,0,0,0,0,0,0,0,0,0,0,0,0,0,0,0,0,0,
0,0,233,0,0,233,0,0,233,0,0,233,0,0,233,0,0,0,
0,0,252,0,0,252,0,0,252,0,0,252,0,0,252,0,0,0,
0,0,0,0,0,0,0,0,0,0,0,0,0,0,0,0,0,0,
0,0,0,0,0,0,0,0,0,0,0,0,0,0,0,0,0,0,
0,0,0,0,0,0,0,0,0,0,0,0,0,0,0,0,0,0,
0,0,0,0,0,0,0,0,0,0,0,0,0,0,0,0,0,0,
0,0,0,0,0,0,0,0,0,0,0,0,0,0,0,0,0,0,
0,0,0,0,0,0,0,0,0,0,0,0,0,0,0,0,0,0,
0,0,0,0,0,0,0,0,0,0,0,0,0,0,0,0,0,0
</data>
 </layer>
</map>
