<?xml version="1.0" encoding="UTF-8"?>
<map version="1.10" tiledversion="1.12.1" orientation="orthogonal" renderorder="right-down" width="16" height="11" tilewidth="32" tileheight="32" infinite="0" nextlayerid="5" nextobjectid="2">
 <tileset firstgid="1" source="../tilesets/sample_01.tsx"/>
 <tileset firstgid="1460" source="../tilesets/interior/interior.tsx"/>
 <tileset firstgid="1532" source="../tilesets/shop/shop.tsx"/>
 <tileset firstgid="1572" source="../tilesets/outdoor/outdoor.tsx"/>
 <tileset firstgid="1810" source="../tilesets/town/town.tsx"/>
 <objectgroup id="4" name="portals">
  <object id="1" name="town_05_ashenveil" x="224.458" y="350.019" width="31" height="1.64773">
   <properties>
    <property name="target_map" value="town_05_ashenveil"/>
    <property name="target_position_x" type="int" value="36"/>
    <property name="target_position_y" type="int" value="6"/>
   </properties>
  </object>
 </objectgroup>
 <layer id="2" name="ground" width="16" height="11">
  <data encoding="csv">
0,0,0,0,0,0,0,0,0,0,0,0,0,0,0,0,
0,0,0,0,0,0,0,0,0,0,0,0,0,0,0,0,
0,0,0,0,0,0,0,0,0,0,0,0,0,0,0,0,
0,1975,1960,1960,1960,1960,0,0,0,0,0,0,1975,1960,1967,0,
0,1975,1960,1960,0,2147485608,1960,1960,1960,1960,1960,1960,1960,1960,1960,0,
0,1975,1960,1960,0,0,0,0,0,0,0,0,0,0,0,0,
0,1975,1960,1960,1960,1960,1960,1960,1960,1960,1960,1960,1960,1960,1960,0,
0,1975,1960,1960,1960,1960,1960,1960,1960,1960,1960,1960,1960,1960,1960,0,
0,1960,1960,1960,1960,1960,1960,1960,1960,1960,1960,1960,1960,1960,1960,0,
0,1960,1960,1960,1960,1960,1960,1975,1960,1960,1960,1960,1960,1960,1960,0,
0,0,0,0,0,0,0,1975,0,0,0,0,0,0,0,0
</data>
 </layer>
 <layer id="1" name="collision" width="16" height="11">
  <data encoding="csv">
1557,1550,1550,1550,1550,1550,1550,1550,1550,1550,1550,1550,1550,1550,1550,1558,
1556,1619,1620,1620,1620,1620,1620,1620,1620,1620,1620,1620,1620,1620,1621,1556,
1556,1636,1637,1637,1637,1637,162,165,163,164,129,130,1637,1637,1638,1556,
1556,0,52,0,0,1520,181,184,182,183,148,149,0,0,0,1556,
1556,0,0,0,1552,0,0,0,0,0,0,0,0,0,1520,1556,
1556,0,0,0,1569,1554,1554,1554,1554,1554,1554,1554,1554,1554,1555,1556,
1556,0,0,0,0,0,0,0,0,0,0,0,0,0,0,1556,
1556,1520,0,0,0,0,0,0,0,0,0,0,0,0,1520,1556,
1565,1550,1550,1550,1550,1550,1551,0,1549,1550,1550,1550,1550,1550,1550,1566,
1908,1909,1909,1909,1909,1909,1910,0,1908,1909,1909,1909,1909,1909,1909,1910,
1923,1924,1924,1924,1924,1924,1925,0,1923,1924,1924,1924,1924,1924,1924,1925
</data>
 </layer>
 <layer id="3" name="decoration" width="16" height="11">
  <data encoding="csv">
0,0,0,0,0,0,0,0,0,0,0,0,0,0,0,0,
0,0,1496,0,1496,237,0,0,0,0,0,0,0,1496,0,0,
0,0,1508,0,1508,256,0,0,0,0,0,0,0,1508,0,0,
0,71,0,71,0,0,0,0,0,0,0,0,0,0,0,0,
0,0,0,0,0,0,0,0,0,0,0,0,0,0,0,0,
0,0,0,0,0,0,0,0,0,0,0,0,0,0,0,0,
0,0,0,0,0,0,0,0,0,0,0,0,0,0,0,0,
0,0,0,0,0,0,0,0,0,0,0,0,0,0,0,0,
0,0,0,0,0,0,0,0,0,0,0,0,0,0,0,0,
0,0,0,0,1533,1532,0,0,0,1539,1535,0,0,0,0,0,
0,0,0,0,0,0,0,0,0,0,0,0,0,0,0,0
</data>
 </layer>
</map>
