<?xml version="1.0" encoding="UTF-8"?>
<map version="1.10" tiledversion="1.12.1" orientation="orthogonal" renderorder="right-down" width="18" height="11" tilewidth="32" tileheight="32" infinite="0" nextlayerid="5" nextobjectid="2">
 <tileset firstgid="145" source="../tilesets/sample_01.tsx"/>
 <tileset firstgid="961" source="../tilesets/icon_table_stage_14x9.tsx"/>
 <tileset firstgid="1087" source="../tilesets/stone_tile_stares_16x16.tsx"/>
 <tileset firstgid="1343" source="../tilesets/interior/interior.tsx"/>
 <objectgroup id="4" name="portals">
  <object id="1" name="town_01_ardel" x="160.242" y="349.003" width="31.6364" height="3.32955">
   <properties>
    <property name="target_map" value="town_01_ardel"/>
    <property name="target_position_x" type="int" value="24"/>
    <property name="target_position_y" type="int" value="4"/>
   </properties>
  </object>
 </objectgroup>
 <layer id="3" name="ground" width="18" height="11">
  <data encoding="csv">
0,0,0,0,0,0,0,0,0,0,0,0,0,0,0,0,0,0,
0,0,0,0,0,0,0,0,0,0,0,0,0,0,0,0,0,0,
0,0,0,0,0,0,0,0,0,0,0,0,0,0,0,0,0,0,
0,0,0,0,0,0,0,0,0,0,0,0,0,0,0,0,0,0,
0,1377,0,1371,1371,1371,1371,0,1377,1371,1371,0,0,1377,0,0,1371,0,
0,1377,0,0,0,0,0,0,1377,1371,1371,0,1377,1371,0,0,1371,0,
0,1377,1371,1371,1371,1371,1371,1371,1371,1371,1371,1371,1371,1371,1371,1371,1371,0,
0,0,0,0,0,1371,0,0,0,0,0,0,0,0,0,0,0,0,
0,0,0,0,0,1377,0,0,0,0,0,0,0,0,0,0,0,0,
0,0,0,0,0,1377,0,0,0,0,0,0,0,0,0,0,0,0,
0,0,0,0,0,1377,0,0,0,0,0,0,0,0,0,0,0,0
</data>
 </layer>
 <layer id="1" name="collision" width="18" height="11">
  <data encoding="csv">
1351,1349,1349,1349,1349,1349,1349,1349,1349,1349,1349,1352,1349,1349,1349,1349,1349,1353,
1359,1344,1344,1344,1344,1344,1344,1344,1344,1344,1344,1359,1344,1344,1344,1344,1344,1359,
1359,1356,1356,1356,1356,1356,1356,1356,1356,1356,1356,1359,1356,1356,1356,1356,1356,1359,
1359,1368,1368,1368,1368,1368,1368,1368,1368,1368,1368,1346,269,1368,1368,1368,1368,1359,
1359,1403,1181,0,0,0,0,1181,0,0,1403,1358,288,1400,1386,1387,1400,1359,
1359,0,1181,1181,1181,1181,1181,1181,0,0,0,1370,0,0,1398,1399,0,1359,
1359,0,0,0,0,0,0,0,0,0,0,0,0,0,0,0,0,1359,
1360,1349,1349,1349,1350,0,1348,1349,1349,1349,1349,1349,1349,1349,1349,1349,1349,1362,
1343,1344,1344,1344,1345,0,1343,1344,1344,1344,1344,1344,1344,1344,1344,1344,1344,1345,
1355,1356,1356,1356,1357,0,1355,1356,1356,1356,1356,1356,1356,1356,1356,1356,1356,1357,
1367,1368,1368,1368,1369,0,1367,1368,1368,1368,1368,1368,1368,1368,1368,1368,1368,1369
</data>
 </layer>
 <layer id="2" name="decoration" width="18" height="11">
  <data encoding="csv">
0,0,0,0,0,0,0,0,0,0,0,0,0,0,0,0,0,0,
0,0,0,0,0,0,0,0,0,0,0,0,0,0,0,0,0,0,
0,0,1412,229,0,0,229,0,1411,0,0,0,0,1411,230,230,1412,0,
0,0,0,248,0,0,248,0,0,0,0,0,0,0,249,249,0,0,
0,0,0,0,0,0,0,0,0,0,0,0,0,0,0,0,0,0,
0,0,0,0,0,0,0,0,0,0,0,0,0,0,0,0,0,0,
0,0,1197,1197,1197,1197,1197,1197,0,0,0,0,0,0,0,0,0,0,
0,0,0,0,0,0,0,0,0,0,0,0,0,0,0,0,0,0,
0,0,0,0,0,0,0,0,0,0,0,0,0,0,0,0,0,0,
0,0,0,0,0,0,0,0,0,0,0,0,0,0,0,0,0,0,
0,0,0,0,0,0,0,0,0,0,0,0,0,0,0,0,0,0
</data>
 </layer>
</map>
