<?xml version="1.0" encoding="UTF-8"?>
<map version="1.10" tiledversion="1.12.1" orientation="orthogonal" renderorder="right-down" width="30" height="20" tilewidth="32" tileheight="32" infinite="0" nextlayerid="11" nextobjectid="12">
 <tileset firstgid="936" source="../tilesets/ground/terrain-v7.tsx"/>
 <tileset firstgid="2984" source="../tilesets/interior/interior.tsx"/>
 <tileset firstgid="3056" source="../tilesets/outdoor/outdoor.tsx"/>
 <tileset firstgid="3294" source="../tilesets/town/town.tsx"/>
 <tileset firstgid="3534" source="../tilesets/shop/shop.tsx"/>
 <tileset firstgid="3574" source="../tilesets/exterior_windows/exterior_windows.tsx"/>
 <objectgroup id="8" name="portals">
  <object id="2" name="to_zone_01" x="639.65" y="625.176" width="68" height="13">
   <properties>
    <property name="target_map" value="zone_01_starting_forest"/>
    <property name="target_position_x" type="int" value="29"/>
    <property name="target_position_y" type="int" value="1"/>
   </properties>
  </object>
  <object id="7" name="house" x="69.4546" y="124.818" width="53.9015" height="9.59847">
   <properties>
    <property name="target_map" value="town_01_ardel_house_01"/>
    <property name="target_position_x" type="int" value="10"/>
    <property name="target_position_y" type="int" value="11"/>
   </properties>
  </object>
  <object id="8" name="shop" x="480.364" y="98.5379" width="30.9091" height="5.57577">
   <properties>
    <property name="target_map" value="town_01_ardel_shop_01"/>
    <property name="target_position_x" type="int" value="7"/>
    <property name="target_position_y" type="int" value="10"/>
   </properties>
  </object>
  <object id="9" name="inn" x="769.125" y="97.5947" width="29.375" height="6.04167">
   <properties>
    <property name="target_map" value="town_01_ardel_inn_01"/>
    <property name="target_position_x" type="int" value="5"/>
    <property name="target_position_y" type="int" value="8"/>
   </properties>
  </object>
  <object id="10" name="hole" x="75.6667" y="426.667" width="4.33333" height="5.66667">
   <properties>
    <property name="target_map" value="zone_01_starting_forest"/>
    <property name="target_position_x" type="int" value="29"/>
    <property name="target_position_y" type="int" value="1"/>
   </properties>
  </object>
  <object id="11" name="shrine" x="95.3614" y="632.626" width="31.7974" height="6.2748">
   <properties>
    <property name="target_map" value="town_01_ardel_shrine"/>
    <property name="target_position_x" type="int" value="11"/>
    <property name="target_position_y" type="int" value="2"/>
   </properties>
  </object>
 </objectgroup>
 <layer id="1" name="ground" width="30" height="20">
  <data encoding="csv">
1322,1322,1322,1322,1322,1322,1322,1322,1322,1322,1322,1322,1322,1322,1322,1322,1322,1322,1322,1322,1322,1322,1322,1322,1322,1322,1322,1322,1322,1322,
1322,1322,1322,1322,1322,1322,1322,1322,1322,1322,1322,1322,1322,1322,1322,1322,1322,1322,1322,1322,1322,1322,1322,1322,1322,1322,1322,1322,1322,1322,
1322,1322,1322,1322,1322,1322,1322,1322,1322,1322,1322,1322,1322,1322,1322,1322,1322,1322,1322,1322,1322,1322,1322,1322,1322,1322,1322,1322,1322,1322,
1322,1322,1322,1322,1322,1322,1322,1322,1322,1322,1322,1322,1322,1322,1322,1322,1322,1322,1322,1322,1322,1322,1322,1322,1322,1322,1322,1322,1322,1322,
1322,1322,1322,1322,1322,1322,1322,1322,1322,1322,1322,1322,1322,1322,1322,1322,1322,1322,1322,1322,1322,1322,1322,1322,1322,1322,1322,1322,1322,1322,
1322,1322,1322,1322,1322,1322,1322,1322,1322,1322,1322,1322,1322,1322,1322,1322,1322,1322,1322,1322,1322,1322,1322,1322,1322,1322,1322,1322,1322,1322,
1322,1322,1322,1322,1322,1322,1322,1322,1322,1322,1322,1322,1322,1322,1322,1322,1322,1322,1322,1322,1322,1322,1322,1322,1322,1322,1322,1322,1322,1322,
1322,1322,1322,1322,1322,1322,1322,1322,1322,1322,1322,1322,1322,1322,1322,1322,1322,1322,1322,1322,1322,1322,1322,1322,1322,1322,1322,1322,1322,1322,
1322,1322,1322,1322,1322,1322,1322,1322,1322,1322,1322,1322,1322,1322,1322,1322,1322,1322,1322,1322,1322,1322,1322,1322,1322,1322,1322,1322,1322,1322,
1322,1322,1322,1322,1322,1322,1322,1322,1322,1322,1322,1322,1322,1322,1322,1322,1322,1322,1322,1322,1322,1322,1322,1322,1322,1322,1322,1322,1322,1322,
1322,1322,1322,1322,1322,1322,1322,1322,1322,1322,1322,1322,1322,1322,1322,1322,1322,1322,1322,1322,1322,1322,1322,1322,1322,1322,1322,1322,1322,1322,
1322,1322,1322,1322,1322,1322,1322,1322,1322,1322,1322,1322,1322,1322,1322,1322,1322,1322,1322,1322,1322,1322,1322,1322,1322,1322,1322,1322,1322,1322,
1322,1322,1322,1322,1322,1322,1322,1322,1322,1322,1322,1322,1322,1322,1322,1322,1322,1322,1322,1322,1322,1322,1322,1322,1322,1322,1322,1322,1322,1322,
1322,1322,1322,1322,1322,1322,1322,1322,1322,1322,1322,1322,1322,1322,1322,1322,1322,1322,1322,1322,1322,1322,1322,1322,1322,1322,1322,1322,1322,1322,
1322,1322,1322,1322,1322,1322,1322,1322,1322,1322,1322,1322,1322,1322,1322,1322,1322,1322,1322,1322,1322,1322,1322,1322,1322,1322,1322,1322,1322,1322,
1322,1322,1322,1322,1322,1322,1322,1322,1322,1322,1322,1322,1322,1322,1322,1322,1322,1322,1322,1322,1322,1322,1322,1322,1322,1322,1322,1322,1322,1322,
1322,1322,1322,1322,1322,1322,1322,1322,1322,1322,1322,1322,1322,1322,1322,1322,1322,1322,1322,1322,1322,1322,1322,1322,1322,1322,1322,1322,1322,1322,
1322,1322,1322,1322,1322,1322,1322,1322,1322,1322,1322,1322,1322,1322,1322,1322,1322,1322,1322,1322,1322,1322,1322,1322,1322,1322,1322,1322,1322,1322,
1322,1322,1322,1322,1322,1322,1322,1322,1322,1322,1322,1322,1322,1322,1322,1322,1322,1322,1322,1322,1322,1322,1322,1322,1322,1322,1322,1322,1322,1322,
1322,1322,1322,1322,1322,1322,1322,1322,1322,1322,1322,1322,1322,1322,1322,1322,1322,1322,1322,1322,1322,1322,1322,1322,1322,1322,1322,1322,1322,1322
</data>
 </layer>
 <layer id="10" name="terrain" width="30" height="20">
  <data encoding="csv">
0,0,0,0,0,0,0,0,0,0,0,0,0,0,0,0,0,0,0,0,0,0,0,0,0,0,0,0,0,0,
1224,1225,1225,1225,1225,1226,0,0,0,0,0,0,0,1224,1225,1225,1225,1226,0,0,0,0,1224,1225,1225,1225,1226,0,0,0,
1256,2248,2249,2249,2250,1258,0,0,0,0,0,0,0,1256,2248,2249,2250,1258,0,0,0,0,1256,2248,2249,2250,1258,0,0,0,
1256,2280,2281,2281,2282,1258,0,0,0,0,0,0,0,1256,2280,2281,2282,1258,0,0,0,0,1256,2280,2281,2282,1258,0,0,0,
1256,2280,2281,2281,2282,1258,0,0,0,0,0,0,0,1256,2280,2184,2282,1258,0,0,0,0,1256,2280,2281,2282,1258,0,0,0,
1256,2312,2186,2185,2314,1193,1225,1225,1225,1225,1225,1225,1225,1194,2280,2281,2282,1258,0,0,0,0,1256,2312,2186,2282,1258,0,0,0,
1288,1162,2280,2217,2249,2249,2249,2249,2249,2249,2249,2249,2250,1322,2280,2281,2282,1193,1226,0,0,0,1256,1320,2280,2282,1258,0,0,0,
0,1256,2312,2313,2313,2313,2313,2313,2313,2313,2313,2186,2217,2250,2312,2186,2217,2250,1193,1226,0,1224,1194,2248,2218,2282,1258,0,0,0,
0,1288,1289,1289,1289,1289,1289,1289,1289,1289,1162,2312,2186,2217,2249,2345,2186,2217,2250,1193,1225,1194,2248,2218,2185,2314,1258,0,0,0,
0,0,0,0,0,0,0,0,0,0,1288,1162,2312,2313,2186,2217,2218,2281,2217,2249,2249,2249,2218,2185,2314,1161,1290,0,0,0,
0,0,0,0,0,0,0,0,0,0,0,1288,1289,1162,2280,2185,2313,2313,2313,2313,2186,2185,2313,2314,1321,1193,1226,0,0,0,
0,0,0,0,0,0,0,0,0,0,0,0,0,1256,2280,2282,1161,1289,1289,1162,2280,2217,2249,2249,2249,2250,1193,1225,1225,1225,
0,0,0,0,0,0,0,0,0,0,0,0,0,1256,2280,2282,1258,0,0,1256,2280,2185,2313,2313,2186,2217,2249,2249,2249,2249,
0,0,0,0,0,0,0,0,0,0,0,0,1224,1194,2280,2282,1258,0,0,1256,2280,2282,1161,1162,2312,2313,2313,2313,2313,2313,
0,0,1224,1225,1225,1225,1225,1225,1225,1225,1225,1225,1194,2248,2218,2282,1258,0,0,1256,2280,2282,1258,1288,1289,1289,1289,1289,1289,1289,
0,1224,1194,2248,2249,2250,2248,2249,2249,2249,2249,2249,2249,2218,2185,2314,1258,0,0,1256,2280,2282,1258,0,0,0,0,0,0,0,
0,1256,2248,2218,2281,2217,2218,2185,2313,2313,2313,2313,2313,2313,2314,1161,1290,0,0,1256,2280,2282,1258,0,0,0,0,0,0,0,
0,1256,2280,2281,2185,2313,2313,2314,1161,1289,1289,1289,1289,1289,1289,1290,0,0,0,1256,2280,2282,1258,0,0,0,0,0,0,0,
0,1256,2280,2281,2282,1161,1289,1289,1290,0,0,0,0,0,0,0,0,0,0,1256,2280,2282,1258,0,0,0,0,0,0,0,
0,1256,2312,2313,2314,1258,0,0,0,0,0,0,0,0,0,0,0,0,0,1256,2280,2282,1258,0,0,0,0,0,0,0
</data>
 </layer>
 <layer id="4" name="collision" width="30" height="20">
  <data encoding="csv">
3497,3497,3497,3497,3497,3497,3497,3497,3497,3497,0,0,3513,3513,3513,3513,3513,3513,3513,3513,0,0,3515,3515,3515,3515,3515,3515,0,0,
3512,3512,3512,3512,3512,3512,3512,3512,3512,3512,3217,3217,3528,3528,3528,3528,3528,3528,3528,3528,3217,3217,3530,3530,3530,3530,3530,3530,3203,0,
3527,3527,3527,3527,3527,3527,3527,3527,3527,3527,0,0,3392,3393,3394,3383,3392,3393,3393,3396,0,0,3422,3424,3383,3422,3423,3424,3200,0,
2997,2998,2147487061,3413,2996,2997,2997,2997,2997,2998,0,0,3407,3408,3409,0,3407,3408,3408,3411,0,0,3437,3439,0,3437,3438,3439,3200,0,
3009,3010,0,0,3008,3009,3009,3009,3009,3010,0,0,0,0,0,0,3312,0,0,0,0,3142,3297,0,0,0,0,0,3200,0,
0,3201,0,0,0,0,0,0,0,0,0,0,0,0,0,0,0,0,0,0,0,3142,3142,0,0,0,0,0,3200,0,
0,3200,0,0,0,0,0,0,0,0,0,0,0,0,0,0,0,0,0,0,0,0,0,0,0,0,0,0,3200,0,
0,3200,0,0,0,0,0,3142,0,0,0,0,0,0,0,0,0,0,0,0,0,0,0,0,0,0,0,0,3200,0,
0,3200,0,0,0,0,0,3142,0,0,0,0,0,0,0,0,0,0,0,0,0,0,0,0,0,0,0,0,3200,0,
0,3200,0,0,0,0,0,0,0,0,0,0,0,0,0,0,0,0,0,0,0,0,0,0,0,0,0,0,3200,3145,
0,3200,0,0,0,0,0,3179,0,0,0,0,0,0,0,0,0,0,0,0,0,0,0,0,0,0,0,0,3200,3146,
0,3200,3075,3076,0,0,0,0,0,0,0,0,0,0,0,0,0,0,0,0,0,0,0,0,0,0,0,3313,3218,3146,
0,3200,3092,3093,0,0,0,0,0,0,0,0,0,0,0,0,0,0,0,0,0,0,0,0,0,0,0,0,0,0,
0,3200,0,0,0,0,0,0,0,0,3142,0,0,0,0,0,0,0,0,0,0,0,0,0,0,0,0,0,3201,3146,
0,3200,0,0,3073,3074,0,0,0,0,0,3142,0,0,0,0,0,0,0,0,0,0,0,0,0,0,0,0,3200,3146,
0,3200,0,0,3090,3091,0,0,0,0,0,0,0,0,0,0,0,0,0,0,0,0,0,0,0,3075,3076,0,3200,3145,
0,3200,0,0,0,0,0,0,0,0,0,0,0,0,0,0,0,0,0,3312,0,0,0,0,0,3092,3093,0,3200,0,
0,3200,0,0,0,0,0,0,0,0,0,0,0,0,0,0,0,0,3202,3203,0,0,3202,3203,0,0,0,0,3200,0,
0,3219,3203,0,3202,3217,3217,3217,3217,3217,3217,3217,3217,3217,3217,3217,3217,3217,3220,3200,0,0,3200,3219,3217,3217,3217,3217,3220,0,
0,0,3218,0,3218,0,0,0,0,0,0,0,0,0,0,0,0,0,0,3218,0,0,3218,0,0,0,0,0,0,0
</data>
 </layer>
 <layer id="2" name="decoration" width="30" height="20">
  <data encoding="csv">
0,0,0,0,0,0,0,0,0,0,0,0,0,0,0,0,0,0,0,0,0,0,0,0,0,0,0,0,0,0,
0,0,0,0,0,0,0,0,0,0,0,0,0,0,0,0,0,0,0,0,0,0,0,0,0,0,0,0,0,0,
0,0,0,0,0,0,0,0,0,0,0,0,0,3534,3535,0,0,3034,0,0,3158,0,0,3542,0,0,3034,0,0,0,
3034,0,0,0,0,0,3034,3034,0,0,0,0,0,0,0,0,0,0,0,0,0,0,0,0,0,0,0,0,0,0,
0,0,0,0,0,0,0,0,0,0,0,0,0,3158,0,0,0,0,0,0,0,0,0,0,0,0,0,0,0,0,
0,0,0,0,0,0,0,0,0,0,0,0,0,0,0,0,0,0,0,0,0,0,0,0,0,0,0,0,0,0,
0,0,3187,0,0,0,0,0,0,0,0,0,0,0,0,0,0,0,0,0,0,0,0,0,0,0,0,0,0,0,
0,0,0,0,0,3187,0,0,0,0,0,0,0,0,0,0,0,0,0,0,0,0,0,0,0,0,0,0,0,0,
0,0,0,0,0,0,0,0,0,0,0,0,0,0,0,0,0,0,0,0,0,0,0,0,0,0,0,0,0,0,
0,0,0,0,0,0,0,0,0,0,0,0,0,0,0,0,0,0,0,0,0,0,0,0,0,0,0,0,0,0,
0,0,0,3187,3187,0,3162,0,0,0,0,0,0,0,0,0,0,0,0,0,0,0,0,0,0,0,0,0,0,0,
0,0,0,0,0,0,3158,3162,3162,0,0,0,0,0,0,0,0,0,0,0,0,0,0,0,0,0,3165,0,0,0,
0,0,0,0,0,0,0,0,0,0,3158,0,0,0,0,0,0,3163,0,0,0,0,0,0,0,0,0,0,0,0,
0,0,3194,0,3158,0,0,0,0,0,0,0,0,0,0,0,0,0,0,0,0,0,0,0,0,0,0,0,0,0,
0,0,0,0,0,0,0,0,0,0,0,0,0,0,0,0,0,0,0,0,3163,0,0,0,0,0,0,3165,0,0,
0,0,0,0,0,0,0,0,0,0,0,0,0,0,0,0,0,0,0,0,0,3163,0,0,0,0,0,0,0,0,
0,0,0,0,0,0,0,0,0,0,0,0,0,0,0,0,0,0,0,0,0,0,0,0,0,0,0,0,0,0,
0,0,0,0,0,0,0,0,0,0,0,0,0,0,0,0,0,0,0,0,0,0,0,0,0,0,0,0,0,0,
0,0,0,0,0,0,0,0,0,0,0,0,0,0,0,0,0,0,0,0,0,0,0,0,0,0,0,0,0,0,
0,0,0,0,0,0,0,0,0,0,0,0,0,0,0,0,0,0,0,0,3175,3164,0,0,0,0,0,0,0,0
</data>
 </layer>
</map>
