<?xml version="1.0" encoding="UTF-8"?>
<map version="1.10" tiledversion="1.12.2" orientation="orthogonal" renderorder="right-down" width="18" height="11" tilewidth="32" tileheight="32" infinite="0" nextlayerid="5" nextobjectid="2">
 <tileset firstgid="145" source="../tilesets/sample_01.tsx"/>
 <tileset firstgid="1359" source="../tilesets/ground/terrain-v7.tsx"/>
 <tileset firstgid="3407" source="../tilesets/interior/interior.tsx"/>
 <tileset firstgid="3479" source="../tilesets/shop/shop.tsx"/>
 <tileset firstgid="3519" source="../tilesets/town/town.tsx"/>
 <objectgroup id="4" name="portals">
  <object id="1" name="town_05_ashenveil" x="160.242" y="349.003" width="31.6364" height="3.32955">
   <properties>
    <property name="target_map" value="town_05_ashenveil"/>
    <property name="target_position_x" type="int" value="20"/>
    <property name="target_position_y" type="int" value="6"/>
   </properties>
  </object>
 </objectgroup>
 <layer id="3" name="ground" width="18" height="11">
  <data encoding="csv">
0,0,0,0,0,0,0,0,0,0,0,0,0,0,0,0,0,0,
0,0,0,0,0,0,0,0,0,0,0,0,0,0,0,0,0,0,
0,0,0,0,0,0,0,0,0,0,0,0,0,0,0,0,0,0,
0,0,0,0,0,0,0,0,0,0,0,0,0,0,0,0,0,0,
0,2217,2215,2215,2215,2215,2215,2215,2217,2215,2215,2215,2215,2217,2217,2215,2215,0,
0,2217,2215,2215,2215,2217,2215,2215,2217,2215,2215,2215,2217,2215,2215,2217,2215,0,
0,2217,2215,2215,2215,2215,2215,2215,2215,2215,2215,2215,2215,2215,2215,2215,2215,0,
0,0,0,0,0,2215,0,0,0,0,0,2215,2215,2215,0,0,0,0,
0,0,0,0,0,2217,0,0,0,0,0,0,0,0,0,0,0,0,
0,0,0,0,0,2217,0,0,0,0,0,0,0,0,0,0,0,0,
0,0,0,0,0,2217,0,0,0,0,0,0,0,0,0,0,0,0
</data>
 </layer>
 <layer id="1" name="collision" width="18" height="11">
  <data encoding="csv">
3415,3413,3413,3413,0,0,3413,3413,3413,0,0,3413,3413,0,0,3413,3413,3417,
3423,3408,3408,3408,3413,3413,3408,3408,3408,3413,3413,3408,3408,3413,3413,3408,3408,3423,
3423,3420,3420,3420,3408,3408,3420,3420,3420,3408,3408,3420,3420,3408,3408,3420,3420,3423,
3423,3432,3432,3432,3432,3432,3432,3432,3432,3432,3432,3432,3432,3432,3432,3432,3432,3423,
3423,0,0,0,0,0,0,0,0,0,0,0,0,0,0,0,0,3423,
3423,0,0,0,0,0,0,0,0,0,0,0,0,0,0,0,0,3423,
3423,0,0,0,0,0,0,0,0,0,0,0,0,0,0,0,0,3423,
3424,3413,3413,3413,3414,0,3412,3413,3413,3413,3413,0,0,0,3413,3413,3413,3426,
3407,3408,3408,3408,3409,0,3407,3408,3408,3408,3408,3413,3413,3413,3408,3408,3408,3409,
3419,3420,3420,3420,3421,0,3419,3420,3420,3420,3420,3408,3408,3408,3420,3420,3420,3421,
3431,3432,3432,3432,3433,0,3431,3432,3432,3432,3432,3432,3432,3432,3432,3432,3432,3433
</data>
 </layer>
 <layer id="2" name="decoration" width="18" height="11">
  <data encoding="csv">
0,0,0,0,0,0,0,0,0,0,0,0,0,0,0,0,0,0,
0,0,0,0,0,0,0,0,0,0,0,0,0,0,0,0,0,0,
0,0,0,0,0,0,0,0,0,0,0,0,0,0,0,0,0,0,
0,0,0,0,0,0,0,0,0,0,0,0,0,0,0,0,0,0,
0,0,0,0,0,0,0,0,0,0,0,0,0,0,0,0,0,0,
0,0,0,0,0,0,0,0,0,0,0,0,0,0,0,0,0,0,
0,0,0,0,0,0,0,0,0,0,0,0,0,0,0,0,0,0,
0,0,0,0,0,0,0,0,0,0,0,0,0,0,0,0,0,0,
0,0,0,0,0,0,0,0,0,0,0,0,0,0,0,0,0,0,
0,0,0,0,0,0,0,0,0,0,0,0,0,0,0,0,0,0,
0,0,0,0,0,0,0,0,0,0,0,0,0,0,0,0,0,0
</data>
 </layer>
</map>
