<?xml version="1.0" encoding="UTF-8"?>
<map version="1.10" tiledversion="1.12.1" orientation="orthogonal" renderorder="right-down" width="25" height="13" tilewidth="32" tileheight="32" infinite="0" nextlayerid="9" nextobjectid="6">
 <tileset firstgid="1" source="../tilesets/interior/interior.tsx"/>
 <objectgroup id="5" name="portals">
  <object id="1" name="up" x="748" y="305"/>
  <object id="2" name="down" x="45" y="306"/>
  <object id="3" name="town_01_ardel" x="323.92" y="413.841" width="23.2727" height="2.34091">
   <properties>
    <property name="target_map" value="town_01_ardel"/>
    <property name="target_position_x" type="int" value="3"/>
    <property name="target_position_y" type="int" value="4"/>
   </properties>
  </object>
 </objectgroup>
 <layer id="3" name="ground" width="25" height="13">
  <data encoding="csv">
0,0,0,0,0,0,0,0,0,0,0,0,0,0,0,0,0,0,0,0,0,0,0,0,0,
0,0,0,0,0,0,0,0,0,0,0,0,0,0,0,0,0,0,0,0,0,0,0,0,0,
0,0,0,0,0,0,0,0,0,0,0,0,0,0,0,0,0,0,0,0,0,0,0,0,0,
0,0,0,0,0,0,0,0,0,0,34,0,34,0,0,0,0,36,2684354583,2684354583,22,22,2684354583,0,0,
0,31,29,29,29,29,29,29,0,34,23,23,23,23,23,0,36,2684354583,2684354582,2684354583,22,22,2684354583,2684354582,0,
0,31,24,24,24,29,24,29,0,36,29,29,29,29,29,0,36,2684354582,2684354583,2684354583,2684354583,2684354583,2684354582,2684354583,0,
0,31,29,24,24,24,29,24,23,29,29,29,29,29,29,0,36,2684354583,2684354583,2684354582,2684354583,2684354582,2684354583,2684354582,0,
0,31,24,24,24,24,24,29,24,29,29,29,29,29,29,22,2684354583,2684354583,2684354582,2684354582,2684354582,2684354583,2684354582,2684354582,0,
0,31,29,29,24,29,29,24,0,36,29,29,29,29,29,22,2684354583,2684354582,2684354582,2684354583,2684354582,2684354582,2684354583,2684354582,0,
0,31,24,24,24,24,24,24,0,36,29,29,29,29,29,2684354583,2684354583,2684354582,2684354582,2684354583,2684354583,2684354582,2684354583,2684354583,0,
0,0,0,0,0,0,0,0,0,0,24,0,0,0,0,0,0,0,0,0,0,0,0,0,0,
0,0,0,0,0,0,0,0,0,0,29,0,0,0,0,0,0,0,0,0,0,0,0,0,0,
0,0,0,0,0,0,0,0,0,0,24,0,0,0,0,0,0,0,0,0,0,0,0,0,0
</data>
 </layer>
 <layer id="4" name="over_ground" width="25" height="13">
  <data encoding="csv">
0,0,0,0,0,0,0,0,0,0,0,0,0,0,0,0,0,0,0,0,0,0,0,0,0,
0,0,0,0,0,0,0,0,0,0,0,0,0,0,0,0,0,0,0,0,0,0,0,0,0,
0,0,0,0,0,0,0,0,0,0,0,0,0,0,0,0,0,0,0,0,0,0,0,0,0,
0,0,0,0,0,0,0,0,0,0,0,0,0,0,0,0,0,0,0,0,0,0,0,0,0,
0,0,0,0,0,0,0,0,0,0,0,0,0,0,0,0,0,0,0,0,0,0,0,0,0,
0,0,0,0,0,0,0,0,0,0,0,0,0,0,0,0,0,0,0,0,0,0,0,0,0,
0,0,0,0,0,0,0,0,0,0,0,0,0,0,0,0,0,0,0,0,0,0,0,0,0,
0,0,0,0,0,0,0,0,0,0,0,0,0,0,0,0,0,0,0,0,0,0,0,0,0,
0,0,0,0,0,0,0,0,0,0,0,0,0,0,0,0,0,0,0,0,0,0,0,0,0,
0,72,0,0,0,0,0,0,0,0,0,0,0,0,0,0,0,0,0,0,0,0,0,71,0,
0,0,0,0,0,0,0,0,0,0,0,0,0,0,0,0,0,0,0,0,0,0,0,0,0,
0,0,0,0,0,0,0,0,0,0,0,0,0,0,0,0,0,0,0,0,0,0,0,0,0,
0,0,0,0,0,0,0,0,0,0,0,0,0,0,0,0,0,0,0,0,0,0,0,0,0
</data>
 </layer>
 <layer id="1" name="collision" width="25" height="13">
  <data encoding="csv">
9,7,7,7,7,7,7,7,10,7,7,7,7,7,7,10,7,7,7,7,7,7,7,7,11,
17,2,2,2,2,2,2,2,17,2,2,2,2,2,2,17,2,2,2,2,2,2,2,2,17,
17,26,26,26,26,26,26,26,17,40,26,41,26,42,43,17,40,26,26,26,26,26,26,40,17,
17,64,63,62,64,65,66,67,17,52,0,53,0,54,55,17,52,0,61,58,44,44,58,52,17,
17,0,0,0,0,0,0,0,4,0,0,0,0,0,0,21,0,0,0,0,56,56,0,0,17,
17,0,0,0,0,0,0,0,28,0,0,0,0,0,0,4,0,0,0,0,0,0,0,0,17,
17,0,0,0,0,0,0,0,0,0,47,48,46,0,0,28,0,0,0,0,0,0,0,0,17,
17,0,0,47,59,60,46,0,0,0,0,0,0,0,0,0,0,0,0,0,0,0,0,0,17,
17,0,0,0,0,0,0,0,12,0,0,0,0,0,0,0,0,0,0,0,0,0,0,0,17,
17,0,0,0,0,0,0,61,17,0,0,12,61,0,61,12,0,0,0,0,0,0,0,0,17,
18,7,7,7,7,7,7,7,19,8,0,5,7,7,7,19,7,7,7,7,7,7,7,7,20,
1,2,2,2,2,2,2,2,2,3,0,1,2,2,2,2,2,2,2,2,2,2,2,2,3,
25,26,26,26,26,26,26,26,26,27,0,25,26,26,26,26,26,26,26,26,26,26,26,26,27
</data>
 </layer>
 <layer id="2" name="decoration" width="25" height="13">
  <data encoding="csv">
0,0,0,0,0,0,0,0,0,0,0,0,0,0,0,0,0,0,0,0,0,0,0,0,0,
0,0,37,0,37,0,38,0,0,0,39,0,39,0,0,0,0,0,0,0,38,0,38,0,0,
0,0,49,0,49,0,50,0,0,0,51,0,51,0,0,0,0,0,0,0,50,0,50,0,0,
0,68,0,0,0,0,0,0,0,0,0,0,0,0,0,0,0,0,0,0,0,0,0,0,0,
0,0,0,0,0,0,0,0,0,0,0,0,0,0,0,0,0,0,0,0,0,0,0,0,0,
0,0,0,0,0,0,0,0,0,0,0,0,0,0,0,0,0,0,0,0,0,0,0,0,0,
0,0,0,0,0,0,0,0,0,0,0,68,0,0,0,0,0,0,0,0,0,0,0,0,0,
0,0,0,0,0,0,0,0,0,0,0,0,0,0,0,0,0,0,0,0,0,0,0,0,0,
0,0,0,0,0,0,0,0,0,0,0,0,0,0,0,0,0,0,0,0,0,0,0,0,0,
0,0,0,0,0,0,0,0,0,0,0,0,0,0,0,0,0,0,0,0,0,0,0,0,0,
0,0,0,0,0,0,0,0,0,0,0,0,0,0,0,0,0,0,0,0,0,0,0,0,0,
0,0,0,0,0,0,0,0,0,0,0,0,0,0,0,0,0,0,0,0,0,0,0,0,0,
0,0,0,0,0,0,0,0,0,0,0,0,0,0,0,0,0,0,0,0,0,0,0,0,0
</data>
 </layer>
</map>
