<?xml version="1.0" encoding="UTF-8"?>
<map version="1.10" tiledversion="1.12.2" orientation="orthogonal" renderorder="right-down" width="30" height="20" tilewidth="32" tileheight="32" infinite="0" nextlayerid="8" nextobjectid="12">
 <tileset firstgid="463" source="../tilesets/ground/terrain-v7.tsx"/>
 <tileset firstgid="2511" source="../tilesets/outdoor/outdoor.tsx"/>
 <tileset firstgid="2749" source="../tilesets/shop/shop.tsx"/>
 <tileset firstgid="2789" source="../tilesets/town/town.tsx"/>
 <objectgroup id="5" name="portals">
  <object id="1" name="zone_02_open_plains_cave_02" x="817" y="82">
   <properties>
    <property name="target_map" value="zone_02_open_plains_cave_02"/>
    <property name="target_position_x" type="int" value="8"/>
    <property name="target_position_y" type="int" value="27"/>
   </properties>
  </object>
  <object id="8" name="zone_01_starting_forest" x="956.091" y="151.674" width="7.43182" height="68.7727">
   <properties>
    <property name="target_map" value="zone_01_starting_forest"/>
    <property name="target_position_x" type="int" value="1"/>
    <property name="target_position_y" type="int" value="26"/>
   </properties>
  </object>
  <object id="10" name="town_02_millhaven" x="38.8955" y="7.25205" width="50.003" height="2.97382">
   <properties>
    <property name="target_map" value="town_02_millhaven"/>
    <property name="target_position_x" type="int" value="19"/>
    <property name="target_position_y" type="int" value="29"/>
   </properties>
  </object>
  <object id="9" name="zone_03_marshland" x="82.25" y="632.25" width="61.25" height="7.5">
   <properties>
    <property name="target_map" value="zone_03_marshland"/>
    <property name="target_position_x" type="int" value="27"/>
    <property name="target_position_y" type="int" value="1"/>
   </properties>
  </object>
 </objectgroup>
 <objectgroup id="7" name="boss_enemy">
  <object id="11" name="boss" x="384" y="352" width="32" height="32"/>
 </objectgroup>
 <layer id="1" name="ground" width="30" height="20">
  <data encoding="csv">
784,784,784,784,784,784,784,784,784,784,784,784,784,784,784,784,784,784,784,784,784,784,784,784,784,784,784,784,784,784,
784,784,784,784,784,784,784,784,784,784,784,784,784,784,784,784,784,784,784,784,784,784,784,784,784,2572,784,784,784,784,
784,784,784,784,784,784,784,784,784,784,784,784,784,784,784,784,784,784,784,784,784,784,784,784,784,2589,784,784,784,784,
784,849,849,784,784,784,784,784,784,784,784,784,784,784,784,784,784,784,784,784,784,784,784,784,784,784,784,784,784,784,
784,784,848,784,784,784,784,784,784,784,784,784,784,784,784,784,784,784,784,784,784,784,784,848,1775,1776,1776,1776,1776,1776,
847,881,881,784,784,784,784,784,784,784,784,784,784,784,784,784,784,784,784,784,784,784,848,1775,1745,1711,1711,1711,1711,1808,
784,881,784,784,784,784,784,784,784,784,784,784,784,784,784,784,784,784,784,784,784,784,1775,1745,1712,1840,1840,1840,1840,1713,
848,848,784,784,784,784,784,881,784,784,847,784,847,848,784,784,784,784,784,784,784,784,1807,1743,1809,784,881,881,784,1839,
848,847,784,784,784,784,784,848,847,881,848,784,881,849,847,849,849,848,849,849,784,784,1807,1808,1809,784,848,784,784,784,
881,847,784,784,784,784,784,784,784,784,784,784,849,881,881,784,847,881,784,847,784,784,1807,1743,1809,784,881,784,848,784,
848,881,784,784,784,784,784,784,784,784,784,784,784,784,784,784,784,881,848,784,784,784,1807,1711,1809,784,784,784,784,784,
784,784,784,784,784,784,784,784,784,784,784,784,784,784,784,784,784,784,784,784,784,1775,1745,1712,1841,784,784,784,784,784,
784,784,784,784,784,784,784,784,784,784,784,784,784,784,784,784,784,784,784,784,1775,1745,1808,1809,784,784,784,784,784,784,
784,784,784,784,784,784,784,784,784,784,784,784,784,784,784,784,784,784,784,784,1807,1711,1743,1809,784,784,784,784,784,784,
784,784,784,784,784,784,784,784,784,784,784,784,784,784,784,784,784,784,1775,1776,1745,1711,1712,1841,784,784,784,784,784,784,
784,784,1775,1776,1776,1776,1776,1776,1776,1776,1776,1776,1777,1775,1776,1776,1776,1776,1745,1711,1743,1712,1841,784,784,784,784,784,784,784,
784,784,1807,1808,1743,1743,1711,1808,1711,1808,1711,1743,1744,1745,1808,1711,1808,1808,1743,1711,1712,1841,881,784,784,784,784,784,784,784,
784,784,1807,1743,1712,1840,1840,1840,1840,1840,1840,1840,1713,1808,1712,1840,1840,1840,1840,1840,1841,847,847,849,881,881,784,784,784,784,
784,784,1807,1711,1809,784,784,784,784,784,784,784,1839,1840,1841,784,784,784,784,784,784,848,784,849,784,849,784,784,784,784,
784,784,1807,1743,1809,784,784,784,784,784,784,784,784,784,784,784,784,784,784,784,784,784,784,784,784,784,784,784,784,784
</data>
 </layer>
 <layer id="6" name="spawn_tile" width="30" height="20">
  <data encoding="csv">
0,0,0,0,0,0,0,0,0,0,0,0,0,0,0,0,0,0,0,0,0,0,0,0,0,0,0,0,0,0,
0,0,0,0,0,0,0,0,0,0,0,0,0,0,0,0,0,0,0,0,0,0,0,0,0,0,0,0,0,0,
0,0,0,0,0,0,0,0,0,0,0,0,0,0,0,0,0,0,0,0,0,0,0,0,0,0,0,0,0,0,
0,0,0,0,0,0,0,0,0,0,0,0,0,0,0,0,0,0,0,0,0,0,0,0,0,0,0,0,0,0,
0,0,0,0,0,0,0,0,0,0,0,0,0,0,2653,0,0,0,0,0,0,0,0,0,0,0,0,0,0,0,
0,0,0,0,0,0,0,0,0,0,0,0,0,0,0,0,0,0,0,0,0,0,0,0,0,0,0,0,0,0,
0,0,0,0,0,0,0,0,0,0,0,0,0,0,0,0,0,0,0,0,0,0,0,0,0,0,0,0,0,0,
0,0,0,2653,0,0,0,0,0,0,0,0,0,0,0,0,0,0,0,0,0,0,0,0,0,0,0,0,0,0,
0,0,0,0,0,0,0,0,0,0,0,0,0,0,0,0,0,0,0,0,0,0,0,0,0,0,0,0,0,0,
0,0,0,0,0,0,0,0,0,0,0,0,0,0,0,0,0,0,0,0,0,0,0,0,0,0,0,0,0,0,
0,0,0,0,0,0,0,0,0,0,0,0,0,0,0,0,0,0,0,0,0,0,0,0,0,0,0,0,0,0,
0,0,0,0,0,0,0,0,0,0,0,0,0,0,0,0,0,0,0,0,0,0,0,0,0,0,0,0,0,0,
0,0,0,0,0,0,0,0,0,0,0,0,0,2653,0,0,0,0,0,0,0,0,0,0,0,0,0,0,0,0,
0,0,0,0,0,2653,0,0,0,0,0,0,0,0,0,0,0,0,0,0,0,0,0,0,0,0,0,0,0,0,
0,0,0,0,0,0,0,0,0,0,0,0,0,0,0,0,0,0,0,0,0,0,0,0,0,0,0,2653,0,0,
0,0,0,0,0,0,0,0,0,0,0,0,0,0,0,0,0,0,0,0,0,0,0,0,0,0,0,0,0,0,
0,0,0,0,0,2653,0,0,0,0,0,0,0,0,0,0,0,0,0,0,0,0,0,0,0,0,0,0,0,0,
0,0,0,0,0,0,0,0,0,0,0,0,0,0,0,0,0,0,0,0,0,0,0,0,0,0,0,0,0,0,
0,0,0,0,0,0,0,0,0,0,0,0,0,0,0,0,0,0,0,0,0,0,0,0,0,0,0,0,0,0,
0,0,0,0,0,0,0,0,0,0,0,0,0,0,0,0,0,0,0,0,0,0,0,0,0,0,0,0,0,0
</data>
 </layer>
 <layer id="3" name="collision" width="30" height="20">
  <data encoding="csv">
2554,0,0,2147486202,2554,2554,2554,2554,2554,2554,2554,2554,2554,2554,2554,2554,2554,2554,2554,2554,2554,2554,2554,2554,2554,2554,2554,2554,2554,2555,
2571,0,0,2147486219,2571,2571,2571,2571,2571,2571,2571,2571,2571,2571,2571,2571,2571,2571,2571,2571,2571,2571,2571,2571,2571,0,2571,2571,2570,2571,
2588,0,0,2147486236,2587,2587,2587,2587,2587,2587,2587,2587,2587,2587,2587,2587,2587,2587,2587,2587,2587,2587,2587,2587,2587,0,2587,2587,2587,2588,
0,0,0,0,0,0,0,0,0,0,0,0,0,0,0,0,0,0,0,0,0,0,0,0,0,0,0,0,0,0,
0,0,0,0,0,0,0,0,0,0,0,0,0,0,0,0,0,0,0,0,0,0,0,0,0,0,0,0,0,0,
0,0,0,0,0,0,0,0,0,0,0,0,0,0,0,0,0,0,0,0,0,0,0,0,0,0,0,0,0,0,
0,0,0,0,0,0,0,0,0,0,0,0,0,0,0,0,0,0,0,0,0,0,0,0,0,0,0,0,0,0,
0,0,0,0,0,0,0,0,0,0,2806,0,0,0,0,0,0,0,0,0,0,0,0,0,0,0,0,0,0,0,
0,0,0,0,0,0,0,0,0,0,0,0,0,0,0,0,0,0,0,0,0,0,0,0,0,0,0,0,0,0,
0,0,0,0,0,0,0,0,0,0,0,0,0,0,0,0,0,0,0,0,0,0,0,0,0,0,0,0,0,0,
0,0,0,0,0,0,0,0,0,0,0,0,0,0,0,0,0,0,0,0,0,0,0,0,0,0,0,0,0,0,
0,0,0,0,0,0,0,0,0,0,0,0,0,0,0,0,0,0,0,0,0,0,0,0,0,0,0,0,0,0,
0,0,0,0,0,0,0,0,0,0,0,0,0,0,0,0,0,0,0,0,0,0,0,0,0,0,0,0,0,0,
0,0,0,0,0,0,0,0,0,0,0,0,0,0,0,0,0,0,0,0,0,0,0,0,0,0,0,0,0,0,
0,0,0,0,0,0,0,0,0,0,0,0,0,0,0,0,0,0,0,0,0,0,0,0,0,0,0,0,0,0,
0,0,0,0,0,0,0,0,0,0,0,0,0,0,0,0,0,0,0,0,0,0,0,0,0,0,0,0,0,0,
0,0,0,0,0,0,0,0,0,0,0,0,0,0,0,0,0,0,0,0,0,0,0,0,0,0,0,0,0,0,
0,0,0,0,0,0,0,0,0,0,0,0,0,0,0,0,0,0,0,0,0,0,0,0,0,0,0,0,0,0,
0,0,0,0,0,0,0,0,0,0,0,0,0,0,0,0,0,0,0,0,0,0,0,0,0,0,0,0,0,0,
0,0,0,0,0,0,0,0,0,0,0,0,0,0,0,0,0,0,0,0,0,0,0,0,0,0,0,0,0,0
</data>
 </layer>
 <layer id="2" name="decoration" width="30" height="20">
  <data encoding="csv">
0,0,0,0,0,0,0,0,0,0,0,0,0,0,0,0,0,0,0,0,0,0,0,0,0,0,0,0,0,0,
0,0,0,0,0,0,0,0,0,0,0,0,0,0,0,0,0,0,0,0,0,0,0,0,0,0,0,0,0,0,
0,0,0,0,0,0,0,0,0,0,0,0,0,0,0,0,0,0,0,0,0,0,0,0,0,0,0,0,0,0,
0,0,0,0,0,0,0,0,0,0,0,0,0,0,0,0,0,0,0,0,0,0,0,0,0,0,0,0,0,0,
0,0,0,0,0,0,0,0,0,0,0,0,0,0,0,0,0,0,0,0,0,0,0,0,0,0,0,0,0,0,
0,0,0,0,0,0,0,0,0,0,0,0,0,0,0,0,0,0,0,0,0,0,0,0,0,0,0,0,0,0,
0,0,0,0,0,0,0,0,0,0,0,0,0,0,0,0,0,0,0,0,0,0,0,0,0,0,0,0,0,0,
0,0,0,0,0,0,0,0,0,0,0,0,0,0,0,0,0,0,0,0,0,0,0,0,0,0,0,0,0,0,
0,0,0,0,0,0,0,0,0,0,0,0,0,0,0,0,0,0,0,0,0,0,0,0,0,0,0,0,0,0,
0,0,0,0,0,0,0,0,0,0,0,0,0,0,0,0,0,0,0,0,0,0,0,0,0,0,0,0,0,0,
0,0,0,0,0,0,0,0,0,0,0,0,0,0,0,0,0,0,0,0,0,0,0,0,0,0,0,0,0,0,
0,0,0,0,0,0,0,0,0,0,0,0,0,0,0,0,0,0,0,0,0,0,0,0,0,0,0,0,0,0,
0,0,0,0,0,0,0,0,0,0,0,0,0,0,0,0,0,0,0,0,0,0,0,0,0,0,0,0,0,0,
0,0,0,0,0,0,0,0,0,0,0,0,0,0,0,0,0,0,0,0,0,0,0,0,0,0,0,0,0,0,
0,0,0,0,0,0,0,0,0,0,0,0,0,0,0,0,0,0,0,0,0,0,0,0,0,0,0,0,0,0,
0,0,0,0,0,0,0,0,0,0,0,0,0,0,0,0,0,0,0,0,0,0,0,0,0,0,0,0,0,0,
0,0,0,0,0,0,0,0,0,0,0,0,0,0,0,0,0,0,0,0,0,0,0,0,0,0,0,0,0,0,
0,0,0,0,0,0,0,0,0,0,0,0,0,0,0,0,0,0,0,0,0,0,0,0,0,0,0,0,0,0,
0,0,0,0,0,0,0,0,0,0,0,0,0,0,0,0,0,0,0,0,0,0,0,0,0,0,0,0,0,0,
0,0,0,0,0,0,0,0,0,0,0,0,0,0,0,0,0,0,0,0,0,0,0,0,0,0,0,0,0,0
</data>
 </layer>
</map>
