<?xml version='1.0' encoding='UTF-8'?>
<map version="1.10" tiledversion="1.12.1" orientation="orthogonal" renderorder="right-down" width="34" height="22" tilewidth="32" tileheight="32" infinite="0" nextlayerid="5" nextobjectid="3">
 <tileset firstgid="1" source="../tilesets/ground/terrain-v7.tsx" />
 <tileset firstgid="100001" source="../tilesets/stone_tile_stares_16x16.tsx"/>
 <objectgroup id="2" name="portals">
  <object id="1" name="entry_zone_09_volcanic_region" x="-4" y="320" width="12" height="96">
   <properties>
    <property name="target_map" value="zone_09_volcanic_region"/>
    <property name="target_position_x" type="int" value="47"/>
    <property name="target_position_y" type="int" value="17"/>
   </properties>
  </object>
  <object id="2" name="exit_zone_10_final_stronghold" x="1084" y="352" width="12" height="32">
   <properties>
    <property name="target_map" value="zone_10_final_stronghold"/>
    <property name="target_position_x" type="int" value="2"/>
    <property name="target_position_y" type="int" value="14"/>
   </properties>
  </object>
 </objectgroup>
 <layer id="1" name="ground" width="34" height="22">
  <data encoding="csv">
1249,1249,1249,1249,1249,1249,1249,1249,1249,1249,1249,1249,1249,1249,1249,1249,1249,1249,1249,1249,1249,1249,1249,1249,1249,1249,1249,1249,1249,1249,1249,1249,1249,1249,
1249,407,407,407,407,407,407,407,407,407,407,407,407,407,407,407,407,407,407,407,407,407,407,407,407,407,407,407,407,1249,407,407,407,1249,
1249,407,407,1249,1249,407,407,407,407,407,407,407,407,407,1249,1249,407,407,407,407,407,407,407,407,407,407,407,407,407,1249,407,407,407,1249,
1249,407,407,1249,1249,407,407,407,407,407,407,407,407,407,1249,1249,407,407,407,407,407,407,407,407,1249,1249,407,407,407,1249,407,407,407,1249,
1249,407,407,407,407,407,407,407,407,407,407,407,407,407,407,407,407,407,407,407,407,407,407,407,1249,1249,407,407,407,1249,407,407,407,1249,
1249,407,407,407,407,407,407,407,407,407,407,407,407,407,407,407,407,407,407,407,407,407,407,407,407,407,407,407,407,1249,407,407,407,1249,
1249,407,407,407,407,407,407,1249,1249,407,407,407,407,407,407,407,407,407,407,1249,1249,407,407,407,407,407,407,407,407,1249,407,407,407,1249,
1249,407,407,407,407,407,407,1249,1249,407,407,407,407,407,407,407,407,407,407,1249,1249,407,407,407,407,407,407,407,407,1249,407,407,407,1249,
1249,407,407,407,407,407,407,407,407,407,407,407,407,407,407,407,407,407,407,407,407,407,407,407,407,407,407,407,407,1249,407,407,407,1249,
1249,407,407,407,407,407,407,407,407,407,407,407,407,407,407,407,407,407,407,407,407,407,407,407,407,407,407,407,407,1249,407,407,407,1249,
407,407,407,407,407,407,407,407,407,407,407,407,407,407,407,407,407,407,407,407,407,407,407,407,407,407,407,407,407,1249,407,407,407,1249,
407,407,407,407,407,407,407,407,407,407,407,407,407,407,407,407,407,407,407,407,407,407,407,407,407,407,407,407,407,407,407,407,407,407,
407,407,407,407,407,407,407,407,407,407,407,407,407,407,407,407,407,407,407,407,407,407,407,407,407,407,407,407,407,1249,407,407,407,1249,
1249,407,407,407,407,407,407,407,407,407,407,407,407,407,407,407,407,407,407,407,407,407,407,407,407,407,407,407,407,1249,407,407,407,1249,
1249,407,407,1249,1249,407,407,407,407,407,407,407,407,407,407,407,407,407,407,407,407,407,1249,1249,407,407,407,407,407,1249,407,407,407,1249,
1249,407,407,1249,1249,407,407,407,407,407,407,407,1249,1249,407,407,407,407,407,407,407,407,1249,1249,407,407,407,407,407,1249,407,407,407,1249,
1249,407,407,407,407,407,407,407,407,407,407,407,1249,1249,407,407,407,407,407,407,407,407,407,407,407,407,407,407,407,1249,407,407,407,1249,
1249,407,407,407,407,407,407,407,407,407,407,407,407,407,407,407,407,407,407,407,407,407,407,407,407,407,407,407,407,1249,407,407,407,1249,
1249,407,407,407,407,407,407,407,1249,1249,407,407,407,407,407,407,407,407,1249,1249,407,407,407,407,407,407,407,407,407,1249,407,407,407,1249,
1249,407,407,407,407,407,407,407,1249,1249,407,407,407,407,407,407,407,407,1249,1249,407,407,407,407,407,407,407,407,407,1249,407,407,407,1249,
1249,407,407,407,407,407,407,407,407,407,407,407,407,407,407,407,407,407,407,407,407,407,407,407,407,407,407,407,407,1249,407,407,407,1249,
1249,1249,1249,1249,1249,1249,1249,1249,1249,1249,1249,1249,1249,1249,1249,1249,1249,1249,1249,1249,1249,1249,1249,1249,1249,1249,1249,1249,1249,1249,1249,1249,1249,1249
</data>
 </layer>
 <layer id="3" name="collision" width="34" height="22" visible="0">
  <data encoding="csv">
1249,1249,1249,1249,1249,1249,1249,1249,1249,1249,1249,1249,1249,1249,1249,1249,1249,1249,1249,1249,1249,1249,1249,1249,1249,1249,1249,1249,1249,1249,1249,1249,1249,1249,
1249,0,0,0,0,0,0,0,0,0,0,0,0,0,0,0,0,0,0,0,0,0,0,0,0,0,0,0,0,1249,0,0,0,1249,
1249,0,0,1249,1249,0,0,0,0,0,0,0,0,0,1249,1249,0,0,0,0,0,0,0,0,0,0,0,0,0,1249,0,0,0,1249,
1249,0,0,1249,1249,0,0,0,0,0,0,0,0,0,1249,1249,0,0,0,0,0,0,0,0,1249,1249,0,0,0,1249,0,0,0,1249,
1249,0,0,0,0,0,0,0,0,0,0,0,0,0,0,0,0,0,0,0,0,0,0,0,1249,1249,0,0,0,1249,0,0,0,1249,
1249,0,0,0,0,0,0,0,0,0,0,0,0,0,0,0,0,0,0,0,0,0,0,0,0,0,0,0,0,1249,0,0,0,1249,
1249,0,0,0,0,0,0,1249,1249,0,0,0,0,0,0,0,0,0,0,1249,1249,0,0,0,0,0,0,0,0,1249,0,0,0,1249,
1249,0,0,0,0,0,0,1249,1249,0,0,0,0,0,0,0,0,0,0,1249,1249,0,0,0,0,0,0,0,0,1249,0,0,0,1249,
1249,0,0,0,0,0,0,0,0,0,0,0,0,0,0,0,0,0,0,0,0,0,0,0,0,0,0,0,0,1249,0,0,0,1249,
1249,0,0,0,0,0,0,0,0,0,0,0,0,0,0,0,0,0,0,0,0,0,0,0,0,0,0,0,0,1249,0,0,0,1249,
0,0,0,0,100019,0,0,0,0,0,0,0,0,0,0,0,0,0,0,0,0,0,0,0,0,0,0,0,0,1249,0,0,0,1249,
0,0,0,0,0,0,0,0,0,0,0,0,0,0,0,0,0,0,0,0,0,0,0,0,0,0,0,0,0,0,0,0,0,0,
0,0,0,0,0,0,0,0,0,0,0,0,0,0,0,0,0,0,0,0,0,0,0,0,0,0,0,0,0,1249,0,0,0,1249,
1249,0,0,0,0,0,0,0,0,0,0,0,0,0,0,0,0,0,0,0,0,0,0,0,0,0,0,0,0,1249,0,0,0,1249,
1249,0,0,1249,1249,0,0,0,0,0,0,0,0,0,0,0,0,0,0,0,0,0,1249,1249,0,0,0,0,0,1249,0,0,0,1249,
1249,0,0,1249,1249,0,0,0,0,0,0,0,1249,1249,0,0,0,0,0,0,0,0,1249,1249,0,0,0,0,0,1249,0,0,0,1249,
1249,0,0,0,0,0,0,0,0,0,0,0,1249,1249,0,0,0,0,0,0,0,0,0,0,0,0,0,0,0,1249,0,0,0,1249,
1249,0,0,0,0,0,0,0,0,0,0,0,0,0,0,0,0,0,0,0,0,0,0,0,0,0,0,0,0,1249,0,0,0,1249,
1249,0,0,0,0,0,0,0,1249,1249,0,0,0,0,0,0,0,0,1249,1249,0,0,0,0,0,0,0,0,0,1249,0,0,0,1249,
1249,0,0,0,0,0,0,0,1249,1249,0,0,0,0,0,0,0,0,1249,1249,0,0,0,0,0,0,0,0,0,1249,0,0,0,1249,
1249,0,0,0,0,0,0,0,0,0,0,0,0,0,0,0,0,0,0,0,0,0,0,0,0,0,0,0,0,1249,0,0,0,1249,
1249,1249,1249,1249,1249,1249,1249,1249,1249,1249,1249,1249,1249,1249,1249,1249,1249,1249,1249,1249,1249,1249,1249,1249,1249,1249,1249,1249,1249,1249,1249,1249,1249,1249
</data>
 </layer>
 <layer id="9001" name="signs" width="34" height="22">
  <data encoding="csv">
0,0,0,0,0,0,0,0,0,0,0,0,0,0,0,0,0,0,0,0,0,0,0,0,0,0,0,0,0,0,0,0,0,0,
0,0,0,0,0,0,0,0,0,0,0,0,0,0,0,0,0,0,0,0,0,0,0,0,0,0,0,0,0,0,0,0,0,0,
0,0,0,0,0,0,0,0,0,0,0,0,0,0,0,0,0,0,0,0,0,0,0,0,0,0,0,0,0,0,0,0,0,0,
0,0,0,0,0,0,0,0,0,0,0,0,0,0,0,0,0,0,0,0,0,0,0,0,0,0,0,0,0,0,0,0,0,0,
0,0,0,0,0,0,0,0,0,0,0,0,0,0,0,0,0,0,0,0,0,0,0,0,0,0,0,0,0,0,0,0,0,0,
0,0,0,0,0,0,0,0,0,0,0,0,0,0,0,0,0,0,0,0,0,0,0,0,0,0,0,0,0,0,0,0,0,0,
0,0,0,0,0,0,0,0,0,0,0,0,0,0,0,0,0,0,0,0,0,0,0,0,0,0,0,0,0,0,0,0,0,0,
0,0,0,0,0,0,0,0,0,0,0,0,0,0,0,0,0,0,0,0,0,0,0,0,0,0,0,0,0,0,0,0,0,0,
0,0,0,0,0,0,0,0,0,0,0,0,0,0,0,0,0,0,0,0,0,0,0,0,0,0,0,0,0,0,0,0,0,0,
0,0,0,0,0,0,0,0,0,0,0,0,0,0,0,0,0,0,0,0,0,0,0,0,0,0,0,0,0,0,0,0,0,0,
0,0,0,0,100019,0,0,0,0,0,0,0,0,0,0,0,0,0,0,0,0,0,0,0,0,0,0,0,0,0,0,0,0,0,
0,0,0,0,0,0,0,0,0,0,0,0,0,0,0,0,0,0,0,0,0,0,0,0,0,0,0,0,0,0,0,0,0,0,
0,0,0,0,0,0,0,0,0,0,0,0,0,0,0,0,0,0,0,0,0,0,0,0,0,0,0,0,0,0,0,0,0,0,
0,0,0,0,0,0,0,0,0,0,0,0,0,0,0,0,0,0,0,0,0,0,0,0,0,0,0,0,0,0,0,0,0,0,
0,0,0,0,0,0,0,0,0,0,0,0,0,0,0,0,0,0,0,0,0,0,0,0,0,0,0,0,0,0,0,0,0,0,
0,0,0,0,0,0,0,0,0,0,0,0,0,0,0,0,0,0,0,0,0,0,0,0,0,0,0,0,0,0,0,0,0,0,
0,0,0,0,0,0,0,0,0,0,0,0,0,0,0,0,0,0,0,0,0,0,0,0,0,0,0,0,0,0,0,0,0,0,
0,0,0,0,0,0,0,0,0,0,0,0,0,0,0,0,0,0,0,0,0,0,0,0,0,0,0,0,0,0,0,0,0,0,
0,0,0,0,0,0,0,0,0,0,0,0,0,0,0,0,0,0,0,0,0,0,0,0,0,0,0,0,0,0,0,0,0,0,
0,0,0,0,0,0,0,0,0,0,0,0,0,0,0,0,0,0,0,0,0,0,0,0,0,0,0,0,0,0,0,0,0,0,
0,0,0,0,0,0,0,0,0,0,0,0,0,0,0,0,0,0,0,0,0,0,0,0,0,0,0,0,0,0,0,0,0,0,
0,0,0,0,0,0,0,0,0,0,0,0,0,0,0,0,0,0,0,0,0,0,0,0,0,0,0,0,0,0,0,0,0,0
</data>
 </layer>
</map>
