<?xml version="1.0" encoding="UTF-8"?>
<map version="1.10" tiledversion="1.12.2" orientation="orthogonal" renderorder="right-down" width="28" height="13" tilewidth="32" tileheight="32" infinite="0" nextlayerid="5" nextobjectid="2">
 <tileset firstgid="579" source="../tilesets/ground/terrain-v7.tsx"/>
 <tileset firstgid="2627" source="../tilesets/cave/cave.tsx"/>
 <tileset firstgid="2747" source="../tilesets/town/town.tsx"/>
 <objectgroup id="5" name="portals">
  <object id="1" name="to_zone_02_open_plains_cave_01" x="1" y="101" width="4" height="48">
   <properties>
    <property name="target_map" value="zone_02_open_plains_cave_02"/>
    <property name="target_position_x" type="int" value="58"/>
    <property name="target_position_y" type="int" value="19"/>
   </properties>
  </object>
 </objectgroup>
 <layer id="2" name="ground" width="28" height="13">
  <data encoding="csv">
0,0,0,0,0,0,0,0,0,0,0,0,0,0,0,0,0,0,0,0,0,0,0,0,0,0,0,0,
0,2630,2631,2632,0,0,0,0,0,0,0,2630,0,0,2632,0,0,0,0,0,0,0,2630,2631,2632,0,0,0,
0,2642,2643,2644,0,0,0,0,0,0,0,2642,0,0,2644,0,0,0,0,0,0,0,2642,2643,2644,0,0,0,
2631,2707,2643,2644,0,0,0,0,0,0,0,2642,2643,2643,2644,0,0,0,0,0,0,0,2642,2643,2644,0,0,0,
2655,2696,2643,2644,0,0,0,0,0,0,0,1073744454,1610615443,2684357266,1073744456,0,0,0,0,0,0,0,2642,2643,2644,0,0,0,
0,2642,2643,2644,0,0,0,0,0,0,0,0,2646,2647,0,0,0,0,0,0,0,0,2654,2655,2656,0,0,0,
0,2654,2655,2656,0,0,0,0,0,0,0,0,0,0,0,0,0,0,0,0,0,0,0,0,0,0,0,0,
0,0,0,0,0,0,0,0,0,0,0,0,0,0,0,0,0,0,0,0,0,0,0,0,0,0,0,0,
0,0,0,0,0,0,0,0,0,0,0,0,0,0,0,0,0,0,0,0,0,0,0,0,0,0,0,0,
0,0,0,0,0,0,0,0,0,0,0,0,0,0,0,0,0,0,0,0,0,0,0,0,0,0,0,0,
0,0,0,0,0,0,0,0,0,0,0,0,0,0,0,0,0,0,0,0,0,0,0,0,0,0,0,0,
0,0,0,0,0,0,0,0,0,0,0,0,0,0,0,0,0,0,0,0,0,0,0,0,0,0,0,0,
0,0,0,0,0,0,0,0,0,0,0,0,0,0,0,0,0,0,0,0,0,0,0,0,0,0,0,0
</data>
 </layer>
 <layer id="3" name="decoration" width="28" height="13">
  <data encoding="csv">
0,0,0,0,0,0,0,0,0,0,0,0,0,0,0,0,0,0,0,0,0,0,0,0,0,0,0,0,
0,0,0,0,0,0,0,0,0,0,0,0,0,0,0,0,0,0,0,0,0,0,0,0,0,0,0,0,
0,0,0,0,0,0,0,0,0,0,0,0,0,0,0,0,0,0,0,0,0,0,0,0,0,0,0,0,
0,0,0,2837,2838,2838,2838,2838,2838,2838,2838,2839,2721,2722,2837,2838,2838,2838,2838,2838,2838,2838,2839,0,0,0,0,0,
0,0,0,0,0,0,0,0,0,0,0,0,2733,2734,0,0,0,0,0,0,0,0,0,0,0,0,0,0,
0,0,0,0,0,0,0,0,0,0,0,0,0,0,0,0,0,0,0,0,0,0,0,0,0,0,0,0,
0,0,0,0,0,0,0,0,0,0,0,0,0,0,0,0,0,0,0,0,0,0,0,0,0,0,0,0,
0,0,0,0,0,0,0,0,0,0,0,0,0,0,0,0,0,0,0,0,0,0,0,0,0,0,0,0,
0,0,0,0,0,0,0,0,0,0,0,0,0,0,0,0,0,0,0,0,0,0,0,0,0,0,0,0,
0,0,0,0,0,0,0,0,0,0,0,0,0,0,0,0,0,0,0,0,0,0,0,0,0,0,0,0,
0,0,0,0,0,0,0,0,0,0,0,0,0,0,0,0,0,0,0,0,0,0,0,0,0,0,0,0,
0,0,0,0,0,0,0,0,0,0,0,0,0,0,0,0,0,0,0,0,0,0,0,0,0,0,0,0,
0,0,0,0,0,0,0,0,0,0,0,0,0,0,0,0,0,0,0,0,0,0,0,0,0,0,0,0
</data>
 </layer>
 <layer id="1" name="collision" width="28" height="13">
  <data encoding="csv">
2640,2640,2640,2640,2639,0,0,0,0,2665,2665,2665,2646,2647,2665,2665,0,0,0,0,2641,2640,2640,2640,2640,2640,2639,0,
2640,0,0,0,2639,0,0,0,0,0,2665,0,2646,2647,0,2665,0,0,0,0,2641,2640,0,0,0,2640,2639,0,
2640,0,0,2822,2823,2823,2823,2823,2823,2823,2823,2824,2658,2659,2822,2823,2823,2823,2823,2823,2823,2823,2824,0,0,2640,2639,0,
0,0,0,0,0,0,0,0,0,0,0,0,0,0,0,0,0,0,0,0,0,0,0,0,0,2640,2639,0,
0,0,0,2852,2853,2853,2853,2853,2853,2853,2853,2854,0,0,2852,2853,2853,2853,2853,2853,2853,2853,2854,0,0,2640,2639,0,
2716,0,0,0,2715,0,0,0,0,0,2665,2716,0,0,2715,2665,0,0,0,0,2641,2640,0,0,0,2640,2639,0,
2739,0,0,0,2741,0,0,0,0,0,0,2739,2658,2659,2741,0,0,0,0,0,2675,2628,2716,2659,2715,2628,2676,0,
0,2716,2659,2715,0,0,0,0,0,0,0,0,2739,2741,0,0,0,0,0,0,0,0,2739,2740,2741,0,0,0,
0,2739,2740,2741,0,0,0,0,0,0,0,0,0,0,0,0,0,0,0,0,0,0,0,0,0,0,0,0,
0,0,0,0,0,0,0,0,0,0,0,0,0,0,0,0,0,0,0,0,0,0,0,0,0,0,0,0,
0,0,0,0,0,0,0,0,0,0,0,0,0,0,0,0,0,0,0,0,0,0,0,0,0,0,0,0,
0,0,0,0,0,0,0,0,0,0,0,0,0,0,0,0,0,0,0,0,0,0,0,0,0,0,0,0,
0,0,0,0,0,0,0,0,0,0,0,0,0,0,0,0,0,0,0,0,0,0,0,0,0,0,0,0
</data>
 </layer>
</map>
