<?xml version="1.0" encoding="UTF-8"?>
<map version="1.10" tiledversion="1.12.1" orientation="orthogonal" renderorder="right-down" width="18" height="11" tilewidth="32" tileheight="32" infinite="0" nextlayerid="5" nextobjectid="3">
 <tileset firstgid="145" source="../tilesets/sample_01.tsx"/>
 <tileset firstgid="1343" source="../tilesets/interior/interior.tsx"/>
 <tileset firstgid="1415" source="../tilesets/shop/shop.tsx"/>
 <tileset firstgid="1455" source="../tilesets/town/town.tsx"/>
 <objectgroup id="4" name="portals">
  <object id="1" name="back_zone_10_hearth_descent_06" x="160" y="349" width="31" height="3">
   <properties>
    <property name="target_map" value="zone_10_hearth_descent_06"/>
    <property name="target_position_x" type="int" value="12"/>
    <property name="target_position_y" type="int" value="9"/>
   </properties>
  </object>
 </objectgroup>
 <objectgroup id="6" name="boss_enemy">
  <object id="2" name="boss" x="288" y="160" width="32" height="32"/>
 </objectgroup>
 <layer id="3" name="ground" width="18" height="11">
  <data encoding="csv">
0,0,0,0,0,0,0,0,0,0,0,0,0,0,0,0,0,0,
0,0,0,0,0,0,0,0,0,0,0,0,0,0,0,0,0,0,
0,0,0,0,0,0,0,0,0,0,0,0,0,0,0,0,0,0,
0,0,0,0,0,0,0,0,0,0,0,0,0,0,0,0,0,0,
0,1607,1607,1607,1607,1607,1607,1607,1607,1607,1607,1607,1607,1607,1607,1607,1607,0,
0,1607,1607,1607,1607,1607,1607,1607,1607,1607,1607,1607,1607,1607,1607,1607,1607,0,
0,1607,1607,1607,1607,1607,1607,1607,1607,1607,1607,1607,1607,1607,1607,1607,1607,0,
0,0,0,0,0,1607,0,0,0,0,0,0,0,0,0,0,0,0,
0,0,0,0,0,1607,0,0,0,0,0,0,0,0,0,0,0,0,
0,0,0,0,0,1607,0,0,0,0,0,0,0,0,0,0,0,0,
0,0,0,0,0,1607,0,0,0,0,0,0,0,0,0,0,0,0
</data>
 </layer>
 <layer id="1" name="collision" width="18" height="11">
  <data encoding="csv">
1351,1349,1349,1349,1349,1349,1349,1349,1349,1349,1349,1349,1349,1349,1349,1349,1349,1353,
1359,1344,1344,1344,1344,1344,1344,1344,1344,1344,1344,1344,1344,1344,1344,1344,1344,1359,
1359,1500,1500,1500,1500,1500,1500,1500,1500,1500,1500,1500,1500,1500,1500,1500,1500,1359,
1359,1368,1368,1368,1368,1368,1368,1368,1368,1368,1368,1368,1368,1368,1368,1368,1368,1359,
1359,0,0,0,0,0,0,0,0,0,0,0,0,0,0,0,0,1359,
1359,0,0,0,0,0,0,0,0,0,0,0,0,0,0,0,0,1359,
1359,0,0,0,0,0,0,0,0,0,0,0,0,0,0,0,0,1359,
1360,1349,1349,1349,1350,0,1348,1349,1349,1349,1349,1349,1349,1349,1349,1349,1349,1362,
1343,1344,1344,1344,1345,0,1343,1344,1344,1344,1344,1344,1344,1344,1344,1344,1344,1345,
1355,1500,1500,1500,1357,0,1355,1500,1500,1500,1500,1500,1500,1500,1500,1500,1500,1357,
1367,1368,1368,1368,1369,0,1367,1368,1368,1368,1368,1368,1368,1368,1368,1368,1368,1369
</data>
 </layer>
 <layer id="2" name="decoration" width="18" height="11">
  <data encoding="csv">
0,0,0,0,0,0,0,0,0,0,0,0,0,0,0,0,0,0,
0,0,0,0,0,0,0,0,0,0,0,0,0,0,0,0,0,0,
0,0,233,0,0,233,0,0,233,0,0,233,0,0,233,0,0,0,
0,0,252,0,0,252,0,0,252,0,0,252,0,0,252,0,0,0,
0,0,0,0,0,0,0,0,0,0,0,0,0,0,0,0,0,0,
0,0,0,0,0,0,0,0,0,0,0,0,0,0,0,0,0,0,
0,0,0,0,0,0,0,0,0,0,0,0,0,0,0,0,0,0,
0,0,0,0,0,0,0,0,0,0,0,0,0,0,0,0,0,0,
0,0,0,0,0,0,0,0,0,0,0,0,0,0,0,0,0,0,
0,0,0,0,0,0,0,0,0,0,0,0,0,0,0,0,0,0,
0,0,0,0,0,0,0,0,0,0,0,0,0,0,0,0,0,0
</data>
 </layer>
</map>
